( Made using CamBam - http://www.cambam.co.uk )
( D_KeyboardDiv_Back 1/4/2020 4:19:22 PM )
( T18 : 3.175 )
G21 G90 G91.1 G64 G40
G0 Z12.0
( T18 : 3.175 )
T18 M6
( Pocket1 )
G17
M3 S12000
G0 X73.025 Y3.175
G0 Z0.1
G1 F120.0 Z-1.0
G1 F3000.0 Y296.8625
G0 Z12.0
G0 Y298.45
G0 Z0.1
G1 F120.0 Z-1.0
G1 F3000.0 X74.6125
G1 Y1.5875
G1 X71.4375
G1 Y298.45
G1 X73.025
G0 Z12.0
G0 X142.875 Y296.8625
G0 Z0.1
G1 F120.0 Z-1.0
G1 F3000.0 Y3.175
G1 Y296.8625
G0 Z12.0
G0 X144.4625
G0 Z0.1
G1 F120.0 Z-1.0
G1 F3000.0 Y1.5875
G1 X141.2875
G1 Y298.45
G1 X144.4625
G1 Y296.8625
G0 Z12.0
G0 X212.725
G0 Z0.1
G1 F120.0 Z-1.0
G1 F3000.0 Y3.175
G1 Y296.8625
G0 Z12.0
G0 Y298.45
G0 Z0.1
G1 F120.0 Z-1.0
G1 F3000.0 X214.3125
G1 Y1.5875
G1 X211.1375
G1 Y298.45
G1 X212.725
G0 Z12.0
G0 X282.575 Y296.8625
G0 Z0.1
G1 F120.0 Z-1.0
G1 F3000.0 Y3.175
G1 Y296.8625
G0 Z12.0
G0 Y298.45
G0 Z0.1
G1 F120.0 Z-1.0
G1 F3000.0 X284.1625
G1 Y1.5875
G1 X280.9875
G1 Y298.45
G1 X282.575
G0 Z12.0
G0 X352.425 Y296.8625
G0 Z0.1
G1 F120.0 Z-1.0
G1 F3000.0 Y3.175
G1 Y296.8625
G0 Z12.0
G0 X350.8375
G0 Z0.1
G1 F120.0 Z-1.0
G1 F3000.0 Y298.45
G1 X354.0125
G1 Y1.5875
G1 X350.8375
G1 Y296.8625
G0 Z12.0
G0 X422.275
G0 Z0.1
G1 F120.0 Z-1.0
G1 F3000.0 Y3.175
G1 Y296.8625
G0 Z12.0
G0 Y298.45
G0 Z0.1
G1 F120.0 Z-1.0
G1 F3000.0 X423.8625
G1 Y1.5875
G1 X420.6875
G1 Y298.45
G1 X422.275
G0 Z12.0
G0 X492.125 Y296.8625
G0 Z0.1
G1 F120.0 Z-1.0
G1 F3000.0 Y3.175
G1 Y296.8625
G0 Z12.0
G0 X490.5375
G0 Z0.1
G1 F120.0 Z-1.0
G1 F3000.0 Y298.45
G1 X493.7125
G1 Y1.5875
G1 X490.5375
G1 Y296.8625
G0 Z12.0
G0 X561.975
G0 Z0.1
G1 F120.0 Z-1.0
G1 F3000.0 Y3.175
G1 Y296.8625
G0 Z12.0
G0 X563.5625
G0 Z0.1
G1 F120.0 Z-1.0
G1 F3000.0 Y1.5875
G1 X560.3875
G1 Y298.45
G1 X563.5625
G1 Y296.8625
G0 Z12.0
G0 X631.825
G0 Z0.1
G1 F120.0 Z-1.0
G1 F3000.0 Y3.175
G1 Y296.8625
G0 Z12.0
G0 X633.4125
G0 Z0.1
G1 F120.0 Z-1.0
G1 F3000.0 Y1.5875
G1 X630.2375
G1 Y298.45
G1 X633.4125
G1 Y296.8625
G0 Z12.0
G0 X631.825
G0 Z-0.9
G1 F120.0 Z-2.0
G1 F3000.0 Y3.175
G1 Y296.8625
G0 Z12.0
G0 X633.4125
G0 Z-0.9
G1 F120.0 Z-2.0
G1 F3000.0 Y1.5875
G1 X630.2375
G1 Y298.45
G1 X633.4125
G1 Y296.8625
G0 Z12.0
G0 X561.975
G0 Z-0.9
G1 F120.0 Z-2.0
G1 F3000.0 Y3.175
G1 Y296.8625
G0 Z12.0
G0 X563.5625
G0 Z-0.9
G1 F120.0 Z-2.0
G1 F3000.0 Y1.5875
G1 X560.3875
G1 Y298.45
G1 X563.5625
G1 Y296.8625
G0 Z12.0
G0 X492.125
G0 Z-0.9
G1 F120.0 Z-2.0
G1 F3000.0 Y3.175
G1 Y296.8625
G0 Z12.0
G0 X490.5375
G0 Z-0.9
G1 F120.0 Z-2.0
G1 F3000.0 Y298.45
G1 X493.7125
G1 Y1.5875
G1 X490.5375
G1 Y296.8625
G0 Z12.0
G0 X422.275
G0 Z-0.9
G1 F120.0 Z-2.0
G1 F3000.0 Y3.175
G1 Y296.8625
G0 Z12.0
G0 Y298.45
G0 Z-0.9
G1 F120.0 Z-2.0
G1 F3000.0 X423.8625
G1 Y1.5875
G1 X420.6875
G1 Y298.45
G1 X422.275
G0 Z12.0
G0 X352.425 Y296.8625
G0 Z-0.9
G1 F120.0 Z-2.0
G1 F3000.0 Y3.175
G1 Y296.8625
G0 Z12.0
G0 X350.8375
G0 Z-0.9
G1 F120.0 Z-2.0
G1 F3000.0 Y298.45
G1 X354.0125
G1 Y1.5875
G1 X350.8375
G1 Y296.8625
G0 Z12.0
G0 X282.575
G0 Z-0.9
G1 F120.0 Z-2.0
G1 F3000.0 Y3.175
G1 Y296.8625
G0 Z12.0
G0 Y298.45
G0 Z-0.9
G1 F120.0 Z-2.0
G1 F3000.0 X284.1625
G1 Y1.5875
G1 X280.9875
G1 Y298.45
G1 X282.575
G0 Z12.0
G0 X212.725 Y296.8625
G0 Z-0.9
G1 F120.0 Z-2.0
G1 F3000.0 Y3.175
G1 Y296.8625
G0 Z12.0
G0 Y298.45
G0 Z-0.9
G1 F120.0 Z-2.0
G1 F3000.0 X214.3125
G1 Y1.5875
G1 X211.1375
G1 Y298.45
G1 X212.725
G0 Z12.0
G0 X142.875 Y296.8625
G0 Z-0.9
G1 F120.0 Z-2.0
G1 F3000.0 Y3.175
G1 Y296.8625
G0 Z12.0
G0 X144.4625
G0 Z-0.9
G1 F120.0 Z-2.0
G1 F3000.0 Y1.5875
G1 X141.2875
G1 Y298.45
G1 X144.4625
G1 Y296.8625
G0 Z12.0
G0 X73.025 Y3.175
G0 Z-0.9
G1 F120.0 Z-2.0
G1 F3000.0 Y296.8625
G0 Z12.0
G0 Y298.45
G0 Z-0.9
G1 F120.0 Z-2.0
G1 F3000.0 X74.6125
G1 Y1.5875
G1 X71.4375
G1 Y298.45
G1 X73.025
G0 Z12.0
G0 X142.875 Y296.8625
G0 Z-1.9
G1 F120.0 Z-3.0
G1 F3000.0 Y3.175
G1 Y296.8625
G0 Z12.0
G0 X144.4625
G0 Z-1.9
G1 F120.0 Z-3.0
G1 F3000.0 Y1.5875
G1 X141.2875
G1 Y298.45
G1 X144.4625
G1 Y296.8625
G0 Z12.0
G0 X212.725
G0 Z-1.9
G1 F120.0 Z-3.0
G1 F3000.0 Y3.175
G1 Y296.8625
G0 Z12.0
G0 Y298.45
G0 Z-1.9
G1 F120.0 Z-3.0
G1 F3000.0 X214.3125
G1 Y1.5875
G1 X211.1375
G1 Y298.45
G1 X212.725
G0 Z12.0
G0 X282.575 Y296.8625
G0 Z-1.9
G1 F120.0 Z-3.0
G1 F3000.0 Y3.175
G1 Y296.8625
G0 Z12.0
G0 Y298.45
G0 Z-1.9
G1 F120.0 Z-3.0
G1 F3000.0 X284.1625
G1 Y1.5875
G1 X280.9875
G1 Y298.45
G1 X282.575
G0 Z12.0
G0 X352.425 Y296.8625
G0 Z-1.9
G1 F120.0 Z-3.0
G1 F3000.0 Y3.175
G1 Y296.8625
G0 Z12.0
G0 X350.8375
G0 Z-1.9
G1 F120.0 Z-3.0
G1 F3000.0 Y298.45
G1 X354.0125
G1 Y1.5875
G1 X350.8375
G1 Y296.8625
G0 Z12.0
G0 X422.275
G0 Z-1.9
G1 F120.0 Z-3.0
G1 F3000.0 Y3.175
G1 Y296.8625
G0 Z12.0
G0 Y298.45
G0 Z-1.9
G1 F120.0 Z-3.0
G1 F3000.0 X423.8625
G1 Y1.5875
G1 X420.6875
G1 Y298.45
G1 X422.275
G0 Z12.0
G0 X492.125 Y296.8625
G0 Z-1.9
G1 F120.0 Z-3.0
G1 F3000.0 Y3.175
G1 Y296.8625
G0 Z12.0
G0 X490.5375
G0 Z-1.9
G1 F120.0 Z-3.0
G1 F3000.0 Y298.45
G1 X493.7125
G1 Y1.5875
G1 X490.5375
G1 Y296.8625
G0 Z12.0
G0 X561.975
G0 Z-1.9
G1 F120.0 Z-3.0
G1 F3000.0 Y3.175
G1 Y296.8625
G0 Z12.0
G0 X563.5625
G0 Z-1.9
G1 F120.0 Z-3.0
G1 F3000.0 Y1.5875
G1 X560.3875
G1 Y298.45
G1 X563.5625
G1 Y296.8625
G0 Z12.0
G0 X631.825
G0 Z-1.9
G1 F120.0 Z-3.0
G1 F3000.0 Y3.175
G1 Y296.8625
G0 Z12.0
G0 X633.4125
G0 Z-1.9
G1 F120.0 Z-3.0
G1 F3000.0 Y1.5875
G1 X630.2375
G1 Y298.45
G1 X633.4125
G1 Y296.8625
G0 Z12.0
G0 X73.025 Y3.175
G0 Z-1.9
G1 F120.0 Z-3.0
G1 F3000.0 Y296.8625
G0 Z12.0
G0 Y298.45
G0 Z-1.9
G1 F120.0 Z-3.0
G1 F3000.0 X74.6125
G1 Y1.5875
G1 X71.4375
G1 Y298.45
G1 X73.025
G0 Z12.0
G0 X142.875 Y296.8625
G0 Z-2.9
G1 F120.0 Z-4.0
G1 F3000.0 Y3.175
G1 Y296.8625
G0 Z12.0
G0 X144.4625
G0 Z-2.9
G1 F120.0 Z-4.0
G1 F3000.0 Y1.5875
G1 X141.2875
G1 Y298.45
G1 X144.4625
G1 Y296.8625
G0 Z12.0
G0 X212.725
G0 Z-2.9
G1 F120.0 Z-4.0
G1 F3000.0 Y3.175
G1 Y296.8625
G0 Z12.0
G0 Y298.45
G0 Z-2.9
G1 F120.0 Z-4.0
G1 F3000.0 X214.3125
G1 Y1.5875
G1 X211.1375
G1 Y298.45
G1 X212.725
G0 Z12.0
G0 X282.575 Y296.8625
G0 Z-2.9
G1 F120.0 Z-4.0
G1 F3000.0 Y3.175
G1 Y296.8625
G0 Z12.0
G0 Y298.45
G0 Z-2.9
G1 F120.0 Z-4.0
G1 F3000.0 X284.1625
G1 Y1.5875
G1 X280.9875
G1 Y298.45
G1 X282.575
G0 Z12.0
G0 X352.425 Y296.8625
G0 Z-2.9
G1 F120.0 Z-4.0
G1 F3000.0 Y3.175
G1 Y296.8625
G0 Z12.0
G0 X350.8375
G0 Z-2.9
G1 F120.0 Z-4.0
G1 F3000.0 Y298.45
G1 X354.0125
G1 Y1.5875
G1 X350.8375
G1 Y296.8625
G0 Z12.0
G0 X422.275
G0 Z-2.9
G1 F120.0 Z-4.0
G1 F3000.0 Y3.175
G1 Y296.8625
G0 Z12.0
G0 Y298.45
G0 Z-2.9
G1 F120.0 Z-4.0
G1 F3000.0 X423.8625
G1 Y1.5875
G1 X420.6875
G1 Y298.45
G1 X422.275
G0 Z12.0
G0 X492.125 Y296.8625
G0 Z-2.9
G1 F120.0 Z-4.0
G1 F3000.0 Y3.175
G1 Y296.8625
G0 Z12.0
G0 X490.5375
G0 Z-2.9
G1 F120.0 Z-4.0
G1 F3000.0 Y298.45
G1 X493.7125
G1 Y1.5875
G1 X490.5375
G1 Y296.8625
G0 Z12.0
G0 X561.975
G0 Z-2.9
G1 F120.0 Z-4.0
G1 F3000.0 Y3.175
G1 Y296.8625
G0 Z12.0
G0 X563.5625
G0 Z-2.9
G1 F120.0 Z-4.0
G1 F3000.0 Y1.5875
G1 X560.3875
G1 Y298.45
G1 X563.5625
G1 Y296.8625
G0 Z12.0
G0 X631.825
G0 Z-2.9
G1 F120.0 Z-4.0
G1 F3000.0 Y3.175
G1 Y296.8625
G0 Z12.0
G0 X633.4125
G0 Z-2.9
G1 F120.0 Z-4.0
G1 F3000.0 Y1.5875
G1 X630.2375
G1 Y298.45
G1 X633.4125
G1 Y296.8625
G0 Z12.0
G0 X73.025 Y3.175
G0 Z-2.9
G1 F120.0 Z-4.0
G1 F3000.0 Y296.8625
G0 Z12.0
G0 Y298.45
G0 Z-2.9
G1 F120.0 Z-4.0
G1 F3000.0 X74.6125
G1 Y1.5875
G1 X71.4375
G1 Y298.45
G1 X73.025
G0 Z12.0
G0 X142.875 Y296.8625
G0 Z-3.9
G1 F120.0 Z-5.0
G1 F3000.0 Y3.175
G1 Y296.8625
G0 Z12.0
G0 X144.4625
G0 Z-3.9
G1 F120.0 Z-5.0
G1 F3000.0 Y1.5875
G1 X141.2875
G1 Y298.45
G1 X144.4625
G1 Y296.8625
G0 Z12.0
G0 X212.725
G0 Z-3.9
G1 F120.0 Z-5.0
G1 F3000.0 Y3.175
G1 Y296.8625
G0 Z12.0
G0 Y298.45
G0 Z-3.9
G1 F120.0 Z-5.0
G1 F3000.0 X214.3125
G1 Y1.5875
G1 X211.1375
G1 Y298.45
G1 X212.725
G0 Z12.0
G0 X282.575 Y296.8625
G0 Z-3.9
G1 F120.0 Z-5.0
G1 F3000.0 Y3.175
G1 Y296.8625
G0 Z12.0
G0 Y298.45
G0 Z-3.9
G1 F120.0 Z-5.0
G1 F3000.0 X284.1625
G1 Y1.5875
G1 X280.9875
G1 Y298.45
G1 X282.575
G0 Z12.0
G0 X352.425 Y296.8625
G0 Z-3.9
G1 F120.0 Z-5.0
G1 F3000.0 Y3.175
G1 Y296.8625
G0 Z12.0
G0 X350.8375
G0 Z-3.9
G1 F120.0 Z-5.0
G1 F3000.0 Y298.45
G1 X354.0125
G1 Y1.5875
G1 X350.8375
G1 Y296.8625
G0 Z12.0
G0 X422.275
G0 Z-3.9
G1 F120.0 Z-5.0
G1 F3000.0 Y3.175
G1 Y296.8625
G0 Z12.0
G0 Y298.45
G0 Z-3.9
G1 F120.0 Z-5.0
G1 F3000.0 X423.8625
G1 Y1.5875
G1 X420.6875
G1 Y298.45
G1 X422.275
G0 Z12.0
G0 X492.125 Y296.8625
G0 Z-3.9
G1 F120.0 Z-5.0
G1 F3000.0 Y3.175
G1 Y296.8625
G0 Z12.0
G0 X490.5375
G0 Z-3.9
G1 F120.0 Z-5.0
G1 F3000.0 Y298.45
G1 X493.7125
G1 Y1.5875
G1 X490.5375
G1 Y296.8625
G0 Z12.0
G0 X561.975
G0 Z-3.9
G1 F120.0 Z-5.0
G1 F3000.0 Y3.175
G1 Y296.8625
G0 Z12.0
G0 X563.5625
G0 Z-3.9
G1 F120.0 Z-5.0
G1 F3000.0 Y1.5875
G1 X560.3875
G1 Y298.45
G1 X563.5625
G1 Y296.8625
G0 Z12.0
G0 X631.825
G0 Z-3.9
G1 F120.0 Z-5.0
G1 F3000.0 Y3.175
G1 Y296.8625
G0 Z12.0
G0 X633.4125
G0 Z-3.9
G1 F120.0 Z-5.0
G1 F3000.0 Y1.5875
G1 X630.2375
G1 Y298.45
G1 X633.4125
G1 Y296.8625
G0 Z12.0
G0 X73.025 Y3.175
G0 Z-3.9
G1 F120.0 Z-5.0
G1 F3000.0 Y296.8625
G0 Z12.0
G0 Y298.45
G0 Z-3.9
G1 F120.0 Z-5.0
G1 F3000.0 X74.6125
G1 Y1.5875
G1 X71.4375
G1 Y298.45
G1 X73.025
G0 Z12.0
G0 X142.875 Y296.8625
G0 Z-4.9
G1 F120.0 Z-6.0
G1 F3000.0 Y3.175
G1 Y296.8625
G0 Z12.0
G0 X144.4625
G0 Z-4.9
G1 F120.0 Z-6.0
G1 F3000.0 Y1.5875
G1 X141.2875
G1 Y298.45
G1 X144.4625
G1 Y296.8625
G0 Z12.0
G0 X212.725
G0 Z-4.9
G1 F120.0 Z-6.0
G1 F3000.0 Y3.175
G1 Y296.8625
G0 Z12.0
G0 Y298.45
G0 Z-4.9
G1 F120.0 Z-6.0
G1 F3000.0 X214.3125
G1 Y1.5875
G1 X211.1375
G1 Y298.45
G1 X212.725
G0 Z12.0
G0 X282.575 Y296.8625
G0 Z-4.9
G1 F120.0 Z-6.0
G1 F3000.0 Y3.175
G1 Y296.8625
G0 Z12.0
G0 Y298.45
G0 Z-4.9
G1 F120.0 Z-6.0
G1 F3000.0 X284.1625
G1 Y1.5875
G1 X280.9875
G1 Y298.45
G1 X282.575
G0 Z12.0
G0 X352.425 Y296.8625
G0 Z-4.9
G1 F120.0 Z-6.0
G1 F3000.0 Y3.175
G1 Y296.8625
G0 Z12.0
G0 X350.8375
G0 Z-4.9
G1 F120.0 Z-6.0
G1 F3000.0 Y298.45
G1 X354.0125
G1 Y1.5875
G1 X350.8375
G1 Y296.8625
G0 Z12.0
G0 X422.275
G0 Z-4.9
G1 F120.0 Z-6.0
G1 F3000.0 Y3.175
G1 Y296.8625
G0 Z12.0
G0 Y298.45
G0 Z-4.9
G1 F120.0 Z-6.0
G1 F3000.0 X423.8625
G1 Y1.5875
G1 X420.6875
G1 Y298.45
G1 X422.275
G0 Z12.0
G0 X492.125 Y296.8625
G0 Z-4.9
G1 F120.0 Z-6.0
G1 F3000.0 Y3.175
G1 Y296.8625
G0 Z12.0
G0 X490.5375
G0 Z-4.9
G1 F120.0 Z-6.0
G1 F3000.0 Y298.45
G1 X493.7125
G1 Y1.5875
G1 X490.5375
G1 Y296.8625
G0 Z12.0
G0 X561.975
G0 Z-4.9
G1 F120.0 Z-6.0
G1 F3000.0 Y3.175
G1 Y296.8625
G0 Z12.0
G0 X563.5625
G0 Z-4.9
G1 F120.0 Z-6.0
G1 F3000.0 Y1.5875
G1 X560.3875
G1 Y298.45
G1 X563.5625
G1 Y296.8625
G0 Z12.0
G0 X631.825
G0 Z-4.9
G1 F120.0 Z-6.0
G1 F3000.0 Y3.175
G1 Y296.8625
G0 Z12.0
G0 X633.4125
G0 Z-4.9
G1 F120.0 Z-6.0
G1 F3000.0 Y1.5875
G1 X630.2375
G1 Y298.45
G1 X633.4125
G1 Y296.8625
G0 Z12.0
G0 X73.025 Y3.175
G0 Z-4.9
G1 F120.0 Z-6.0
G1 F3000.0 Y296.8625
G0 Z12.0
G0 Y298.45
G0 Z-4.9
G1 F120.0 Z-6.0
G1 F3000.0 X74.6125
G1 Y1.5875
G1 X71.4375
G1 Y298.45
G1 X73.025
G0 Z12.0
G0 X142.875 Y296.8625
G0 Z-5.9
G1 F120.0 Z-7.0
G1 F3000.0 Y3.175
G1 Y296.8625
G0 Z12.0
G0 X144.4625
G0 Z-5.9
G1 F120.0 Z-7.0
G1 F3000.0 Y1.5875
G1 X141.2875
G1 Y298.45
G1 X144.4625
G1 Y296.8625
G0 Z12.0
G0 X212.725
G0 Z-5.9
G1 F120.0 Z-7.0
G1 F3000.0 Y3.175
G1 Y296.8625
G0 Z12.0
G0 Y298.45
G0 Z-5.9
G1 F120.0 Z-7.0
G1 F3000.0 X214.3125
G1 Y1.5875
G1 X211.1375
G1 Y298.45
G1 X212.725
G0 Z12.0
G0 X282.575 Y296.8625
G0 Z-5.9
G1 F120.0 Z-7.0
G1 F3000.0 Y3.175
G1 Y296.8625
G0 Z12.0
G0 Y298.45
G0 Z-5.9
G1 F120.0 Z-7.0
G1 F3000.0 X284.1625
G1 Y1.5875
G1 X280.9875
G1 Y298.45
G1 X282.575
G0 Z12.0
G0 X352.425 Y296.8625
G0 Z-5.9
G1 F120.0 Z-7.0
G1 F3000.0 Y3.175
G1 Y296.8625
G0 Z12.0
G0 X350.8375
G0 Z-5.9
G1 F120.0 Z-7.0
G1 F3000.0 Y298.45
G1 X354.0125
G1 Y1.5875
G1 X350.8375
G1 Y296.8625
G0 Z12.0
G0 X422.275
G0 Z-5.9
G1 F120.0 Z-7.0
G1 F3000.0 Y3.175
G1 Y296.8625
G0 Z12.0
G0 Y298.45
G0 Z-5.9
G1 F120.0 Z-7.0
G1 F3000.0 X423.8625
G1 Y1.5875
G1 X420.6875
G1 Y298.45
G1 X422.275
G0 Z12.0
G0 X492.125 Y296.8625
G0 Z-5.9
G1 F120.0 Z-7.0
G1 F3000.0 Y3.175
G1 Y296.8625
G0 Z12.0
G0 X490.5375
G0 Z-5.9
G1 F120.0 Z-7.0
G1 F3000.0 Y298.45
G1 X493.7125
G1 Y1.5875
G1 X490.5375
G1 Y296.8625
G0 Z12.0
G0 X561.975
G0 Z-5.9
G1 F120.0 Z-7.0
G1 F3000.0 Y3.175
G1 Y296.8625
G0 Z12.0
G0 X563.5625
G0 Z-5.9
G1 F120.0 Z-7.0
G1 F3000.0 Y1.5875
G1 X560.3875
G1 Y298.45
G1 X563.5625
G1 Y296.8625
G0 Z12.0
G0 X631.825
G0 Z-5.9
G1 F120.0 Z-7.0
G1 F3000.0 Y3.175
G1 Y296.8625
G0 Z12.0
G0 X633.4125
G0 Z-5.9
G1 F120.0 Z-7.0
G1 F3000.0 Y1.5875
G1 X630.2375
G1 Y298.45
G1 X633.4125
G1 Y296.8625
G0 Z12.0
G0 X73.025 Y3.175
G0 Z-5.9
G1 F120.0 Z-7.0
G1 F3000.0 Y296.8625
G0 Z12.0
G0 Y298.45
G0 Z-5.9
G1 F120.0 Z-7.0
G1 F3000.0 X74.6125
G1 Y1.5875
G1 X71.4375
G1 Y298.45
G1 X73.025
( Profile1 )
S12000
G0 Z12.0
G0 X636.5875 Y0.0
G0 Z0.1
G1 F120.0 Z-1.0
G1 F3000.0 Y300.0375
G0 Z12.0
G0 Y0.0
G0 Z-0.9
G1 F120.0 Z-2.0
G1 F3000.0 Y300.0375
G0 Z12.0
G0 Y0.0
G0 Z-1.9
G1 F120.0 Z-3.0
G1 F3000.0 Y300.0375
G0 Z12.0
G0 Y0.0
G0 Z-2.9
G1 F120.0 Z-4.0
G1 F3000.0 Y300.0375
G0 Z12.0
G0 Y0.0
G0 Z-3.9
G1 F120.0 Z-5.0
G1 F3000.0 Y300.0375
G0 Z12.0
G0 Y0.0
G0 Z-4.9
G1 F120.0 Z-6.0
G1 F3000.0 Y300.0375
G0 Z12.0
G0 Y0.0
G0 Z-5.9
G1 F120.0 Z-7.0
G1 F3000.0 Y300.0375
G0 Z12.0
G0 Y0.0
G0 Z-6.9
G1 F120.0 Z-8.0
G1 F3000.0 Y300.0375
G0 Z12.0
G0 Y0.0
G0 Z-7.9
G1 F120.0 Z-9.0
G1 F3000.0 Y300.0375
G0 Z12.0
G0 Y0.0
G0 Z-8.9
G1 F120.0 Z-10.0
G1 F3000.0 Y300.0375
G0 Z12.0
G0 Y0.0
G0 Z-9.9
G1 F120.0 Z-11.0
G1 F3000.0 Y300.0375
G0 Z12.0
G0 Y0.0
G0 Z-10.9
G1 F120.0 Z-12.0
G1 F3000.0 Y300.0375
G0 Z12.0
G0 Y0.0
G0 Z-11.9
G1 F120.0 Z-13.0
G1 F3000.0 Y300.0375
G0 Z12.0
G0 Y0.0
G0 Z-12.9
G1 F120.0 Z-14.0
G1 F3000.0 Y300.0375
G0 Z12.0
G0 Y0.0
G0 Z-13.9
G1 F120.0 Z-15.0
G1 F3000.0 Y34.4172
G1 Y35.9172 Z-14.0
G1 Y39.0922
G1 Y40.5922 Z-15.0
G1 Y109.4266
G1 Y110.9266 Z-14.0
G1 Y114.1016
G1 Y115.6016 Z-15.0
G1 Y184.4359
G1 Y185.9359 Z-14.0
G1 Y189.1109
G1 Y190.6109 Z-15.0
G1 Y259.4453
G1 Y260.9453 Z-14.0
G1 Y264.1203
G1 Y265.6203 Z-15.0
G1 Y300.0375
G0 Z12.0
G0 Y0.0
G0 Z-14.9
G1 F120.0 Z-16.0
G1 F3000.0 Y34.4172
G1 Y35.9172 Z-14.0
G1 Y39.0922
G1 Y40.5922 Z-16.0
G1 Y109.4266
G1 Y110.9266 Z-14.0
G1 Y114.1016
G1 Y115.6016 Z-16.0
G1 Y184.4359
G1 Y185.9359 Z-14.0
G1 Y189.1109
G1 Y190.6109 Z-16.0
G1 Y259.4453
G1 Y260.9453 Z-14.0
G1 Y264.1203
G1 Y265.6203 Z-16.0
G1 Y300.0375
G0 Z12.0
G0 Y0.0
G0 Z-15.9
G1 F120.0 Z-17.0
G1 F3000.0 Y34.4172
G1 Y35.9172 Z-14.0
G1 Y39.0922
G1 Y40.5922 Z-17.0
G1 Y109.4266
G1 Y110.9266 Z-14.0
G1 Y114.1016
G1 Y115.6016 Z-17.0
G1 Y184.4359
G1 Y185.9359 Z-14.0
G1 Y189.1109
G1 Y190.6109 Z-17.0
G1 Y259.4453
G1 Y260.9453 Z-14.0
G1 Y264.1203
G1 Y265.6203 Z-17.0
G1 Y300.0375
G0 Z12.0
G0 Y0.0
G0 Z-16.9
G1 F120.0 Z-18.0
G1 F3000.0 Y34.4172
G1 Y35.9172 Z-14.0
G1 Y39.0922
G1 Y40.5922 Z-18.0
G1 Y109.4266
G1 Y110.9266 Z-14.0
G1 Y114.1016
G1 Y115.6016 Z-18.0
G1 Y184.4359
G1 Y185.9359 Z-14.0
G1 Y189.1109
G1 Y190.6109 Z-18.0
G1 Y259.4453
G1 Y260.9453 Z-14.0
G1 Y264.1203
G1 Y265.6203 Z-18.0
G1 Y300.0375
G0 Z12.0
G0 Y0.0
G0 Z-17.9
G1 F120.0 Z-19.0
G1 F3000.0 Y34.4172
G1 Y35.9172 Z-14.0
G1 Y39.0922
G1 Y40.5922 Z-19.0
G1 Y109.4266
G1 Y110.9266 Z-14.0
G1 Y114.1016
G1 Y115.6016 Z-19.0
G1 Y184.4359
G1 Y185.9359 Z-14.0
G1 Y189.1109
G1 Y190.6109 Z-19.0
G1 Y259.4453
G1 Y260.9453 Z-14.0
G1 Y264.1203
G1 Y265.6203 Z-19.0
G1 Y300.0375
G0 Z12.0
G0 Y0.0
G0 Z-18.9
G1 F120.0 Z-20.0
G1 F3000.0 Y34.4172
G1 Y35.9172 Z-14.0
G1 Y39.0922
G1 Y40.5922 Z-20.0
G1 Y109.4266
G1 Y110.9266 Z-14.0
G1 Y114.1016
G1 Y115.6016 Z-20.0
G1 Y184.4359
G1 Y185.9359 Z-14.0
G1 Y189.1109
G1 Y190.6109 Z-20.0
G1 Y259.4453
G1 Y260.9453 Z-14.0
G1 Y264.1203
G1 Y265.6203 Z-20.0
G1 Y300.0375
G0 Z12.0
M5
M30
