( Made using CamBam - http://www.cambam.co.uk )
( DE_KeyboardDiv_RearDiv 1/4/2020 12:39:51 PM )
( T18 : 3.175 )
G21 G90 G91.1 G64 G40
G0 Z12.0
( T18 : 3.175 )
T18 M6
( Pocket1 )
G17
M3 S12000
G0 X631.825 Y600.075
G0 Z0.1
G1 F120.0 Z-1.0
G1 F3000.0 Y306.3875
G1 Y600.075
G0 Z12.0
G0 Y601.6625
G0 Z0.1
G1 F120.0 Z-1.0
G1 F3000.0 X633.4125
G1 Y304.8
G1 X630.2375
G1 Y601.6625
G1 X631.825
G0 Z12.0
G0 X561.975 Y600.075
G0 Z0.1
G1 F120.0 Z-1.0
G1 F3000.0 Y306.3875
G1 Y600.075
G0 Z12.0
G0 Y601.6625
G0 Z0.1
G1 F120.0 Z-1.0
G1 F3000.0 X563.5625
G1 Y304.8
G1 X560.3875
G1 Y601.6625
G1 X561.975
G0 Z12.0
G0 X492.125 Y600.075
G0 Z0.1
G1 F120.0 Z-1.0
G1 F3000.0 Y306.3875
G0 Z12.0
G0 X490.5375
G0 Z0.1
G1 F120.0 Z-1.0
G1 F3000.0 Y601.6625
G1 X493.7125
G1 Y304.8
G1 X490.5375
G1 Y306.3875
G0 Z12.0
G0 X492.125 Y296.8625
G0 Z0.1
G1 F120.0 Z-1.0
G1 F3000.0 Y3.175
G1 Y296.8625
G0 Z12.0
G0 X490.5375
G0 Z0.1
G1 F120.0 Z-1.0
G1 F3000.0 Y298.45
G1 X493.7125
G1 Y1.5875
G1 X490.5375
G1 Y296.8625
G0 Z12.0
G0 X422.275
G0 Z0.1
G1 F120.0 Z-1.0
G1 F3000.0 Y3.175
G1 Y296.8625
G0 Z12.0
G0 Y298.45
G0 Z0.1
G1 F120.0 Z-1.0
G1 F3000.0 X423.8625
G1 Y1.5875
G1 X420.6875
G1 Y298.45
G1 X422.275
G0 Z12.0
G0 Y306.3875
G0 Z0.1
G1 F120.0 Z-1.0
G1 F3000.0 Y600.075
G1 Y306.3875
G0 Z12.0
G0 Y304.8
G0 Z0.1
G1 F120.0 Z-1.0
G1 F3000.0 X420.6875
G1 Y601.6625
G1 X423.8625
G1 Y304.8
G1 X422.275
G0 Z12.0
G0 X352.425 Y296.8625
G0 Z0.1
G1 F120.0 Z-1.0
G1 F3000.0 Y3.175
G1 Y296.8625
G0 Z12.0
G0 X350.8375
G0 Z0.1
G1 F120.0 Z-1.0
G1 F3000.0 Y298.45
G1 X354.0125
G1 Y1.5875
G1 X350.8375
G1 Y296.8625
G0 Z12.0
G0 X282.575
G0 Z0.1
G1 F120.0 Z-1.0
G1 F3000.0 Y3.175
G1 Y296.8625
G0 Z12.0
G0 Y298.45
G0 Z0.1
G1 F120.0 Z-1.0
G1 F3000.0 X284.1625
G1 Y1.5875
G1 X280.9875
G1 Y298.45
G1 X282.575
G0 Z12.0
G0 X212.725 Y296.8625
G0 Z0.1
G1 F120.0 Z-1.0
G1 F3000.0 Y3.175
G1 Y296.8625
G0 Z12.0
G0 Y298.45
G0 Z0.1
G1 F120.0 Z-1.0
G1 F3000.0 X214.3125
G1 Y1.5875
G1 X211.1375
G1 Y298.45
G1 X212.725
G0 Z12.0
G0 Y306.3875
G0 Z0.1
G1 F120.0 Z-1.0
G1 F3000.0 Y600.075
G1 Y306.3875
G0 Z12.0
G0 X214.3125
G0 Z0.1
G1 F120.0 Z-1.0
G1 F3000.0 Y304.8
G1 X211.1375
G1 Y601.6625
G1 X214.3125
G1 Y306.3875
G0 Z12.0
G0 X142.875
G0 Z0.1
G1 F120.0 Z-1.0
G1 F3000.0 Y600.075
G1 Y306.3875
G0 Z12.0
G0 Y304.8
G0 Z0.1
G1 F120.0 Z-1.0
G1 F3000.0 X141.2875
G1 Y601.6625
G1 X144.4625
G1 Y304.8
G1 X142.875
G0 Z12.0
G0 Y296.8625
G0 Z0.1
G1 F120.0 Z-1.0
G1 F3000.0 Y3.175
G1 Y296.8625
G0 Z12.0
G0 X144.4625
G0 Z0.1
G1 F120.0 Z-1.0
G1 F3000.0 Y1.5875
G1 X141.2875
G1 Y298.45
G1 X144.4625
G1 Y296.8625
G0 Z12.0
G0 X73.025 Y306.3875
G0 Z0.1
G1 F120.0 Z-1.0
G1 F3000.0 Y600.075
G0 Z12.0
G0 Y601.6625
G0 Z0.1
G1 F120.0 Z-1.0
G1 F3000.0 X74.6125
G1 Y304.8
G1 X71.4375
G1 Y601.6625
G1 X73.025
G0 Z12.0
G0 X282.575 Y600.075
G0 Z0.1
G1 F120.0 Z-1.0
G1 F3000.0 Y306.3875
G0 Z12.0
G0 Y304.8
G0 Z0.1
G1 F120.0 Z-1.0
G1 F3000.0 X280.9875
G1 Y601.6625
G1 X284.1625
G1 Y304.8
G1 X282.575
G0 Z12.0
G0 X561.975 Y296.8625
G0 Z0.1
G1 F120.0 Z-1.0
G1 F3000.0 Y3.175
G1 Y296.8625
G0 Z12.0
G0 X563.5625
G0 Z0.1
G1 F120.0 Z-1.0
G1 F3000.0 Y1.5875
G1 X560.3875
G1 Y298.45
G1 X563.5625
G1 Y296.8625
G0 Z12.0
G0 X631.825
G0 Z0.1
G1 F120.0 Z-1.0
G1 F3000.0 Y3.175
G1 Y296.8625
G0 Z12.0
G0 X633.4125
G0 Z0.1
G1 F120.0 Z-1.0
G1 F3000.0 Y1.5875
G1 X630.2375
G1 Y298.45
G1 X633.4125
G1 Y296.8625
G0 Z12.0
G0 X352.425 Y600.075
G0 Z0.1
G1 F120.0 Z-1.0
G1 F3000.0 Y306.3875
G0 Z12.0
G0 X350.8375
G0 Z0.1
G1 F120.0 Z-1.0
G1 F3000.0 Y601.6625
G1 X354.0125
G1 Y304.8
G1 X350.8375
G1 Y306.3875
G0 Z12.0
G0 X73.025 Y3.175
G0 Z0.1
G1 F120.0 Z-1.0
G1 F3000.0 Y296.8625
G0 Z12.0
G0 Y298.45
G0 Z0.1
G1 F120.0 Z-1.0
G1 F3000.0 X74.6125
G1 Y1.5875
G1 X71.4375
G1 Y298.45
G1 X73.025
G0 Z12.0
G0 Y306.3875
G0 Z-0.9
G1 F120.0 Z-2.0
G1 F3000.0 Y600.075
G0 Z12.0
G0 Y601.6625
G0 Z-0.9
G1 F120.0 Z-2.0
G1 F3000.0 X74.6125
G1 Y304.8
G1 X71.4375
G1 Y601.6625
G1 X73.025
G0 Z12.0
G0 X142.875 Y600.075
G0 Z-0.9
G1 F120.0 Z-2.0
G1 F3000.0 Y306.3875
G1 Y600.075
G0 Z12.0
G0 Y601.6625
G0 Z-0.9
G1 F120.0 Z-2.0
G1 F3000.0 X144.4625
G1 Y304.8
G1 X141.2875
G1 Y601.6625
G1 X142.875
G0 Z12.0
G0 X212.725 Y600.075
G0 Z-0.9
G1 F120.0 Z-2.0
G1 F3000.0 Y306.3875
G1 Y600.075
G0 Z12.0
G0 X211.1375
G0 Z-0.9
G1 F120.0 Z-2.0
G1 F3000.0 Y601.6625
G1 X214.3125
G1 Y304.8
G1 X211.1375
G1 Y600.075
G0 Z12.0
G0 X282.575
G0 Z-0.9
G1 F120.0 Z-2.0
G1 F3000.0 Y306.3875
G0 Z12.0
G0 Y304.8
G0 Z-0.9
G1 F120.0 Z-2.0
G1 F3000.0 X280.9875
G1 Y601.6625
G1 X284.1625
G1 Y304.8
G1 X282.575
G0 Z12.0
G0 Y296.8625
G0 Z-0.9
G1 F120.0 Z-2.0
G1 F3000.0 Y3.175
G1 Y296.8625
G0 Z12.0
G0 Y298.45
G0 Z-0.9
G1 F120.0 Z-2.0
G1 F3000.0 X284.1625
G1 Y1.5875
G1 X280.9875
G1 Y298.45
G1 X282.575
G0 Z12.0
G0 X212.725 Y296.8625
G0 Z-0.9
G1 F120.0 Z-2.0
G1 F3000.0 Y3.175
G1 Y296.8625
G0 Z12.0
G0 Y298.45
G0 Z-0.9
G1 F120.0 Z-2.0
G1 F3000.0 X214.3125
G1 Y1.5875
G1 X211.1375
G1 Y298.45
G1 X212.725
G0 Z12.0
G0 X142.875 Y296.8625
G0 Z-0.9
G1 F120.0 Z-2.0
G1 F3000.0 Y3.175
G1 Y296.8625
G0 Z12.0
G0 X144.4625
G0 Z-0.9
G1 F120.0 Z-2.0
G1 F3000.0 Y1.5875
G1 X141.2875
G1 Y298.45
G1 X144.4625
G1 Y296.8625
G0 Z12.0
G0 X352.425
G0 Z-0.9
G1 F120.0 Z-2.0
G1 F3000.0 Y3.175
G1 Y296.8625
G0 Z12.0
G0 X350.8375
G0 Z-0.9
G1 F120.0 Z-2.0
G1 F3000.0 Y298.45
G1 X354.0125
G1 Y1.5875
G1 X350.8375
G1 Y296.8625
G0 Z12.0
G0 X422.275
G0 Z-0.9
G1 F120.0 Z-2.0
G1 F3000.0 Y3.175
G1 Y296.8625
G0 Z12.0
G0 Y298.45
G0 Z-0.9
G1 F120.0 Z-2.0
G1 F3000.0 X423.8625
G1 Y1.5875
G1 X420.6875
G1 Y298.45
G1 X422.275
G0 Z12.0
G0 Y306.3875
G0 Z-0.9
G1 F120.0 Z-2.0
G1 F3000.0 Y600.075
G1 Y306.3875
G0 Z12.0
G0 Y304.8
G0 Z-0.9
G1 F120.0 Z-2.0
G1 F3000.0 X420.6875
G1 Y601.6625
G1 X423.8625
G1 Y304.8
G1 X422.275
G0 Z12.0
G0 X492.125 Y296.8625
G0 Z-0.9
G1 F120.0 Z-2.0
G1 F3000.0 Y3.175
G1 Y296.8625
G0 Z12.0
G0 X490.5375
G0 Z-0.9
G1 F120.0 Z-2.0
G1 F3000.0 Y298.45
G1 X493.7125
G1 Y1.5875
G1 X490.5375
G1 Y296.8625
G0 Z12.0
G0 X561.975
G0 Z-0.9
G1 F120.0 Z-2.0
G1 F3000.0 Y3.175
G1 Y296.8625
G0 Z12.0
G0 X563.5625
G0 Z-0.9
G1 F120.0 Z-2.0
G1 F3000.0 Y1.5875
G1 X560.3875
G1 Y298.45
G1 X563.5625
G1 Y296.8625
G0 Z12.0
G0 X561.975 Y306.3875
G0 Z-0.9
G1 F120.0 Z-2.0
G1 F3000.0 Y600.075
G1 Y306.3875
G0 Z12.0
G0 Y304.8
G0 Z-0.9
G1 F120.0 Z-2.0
G1 F3000.0 X560.3875
G1 Y601.6625
G1 X563.5625
G1 Y304.8
G1 X561.975
G0 Z12.0
G0 X631.825 Y306.3875
G0 Z-0.9
G1 F120.0 Z-2.0
G1 F3000.0 Y600.075
G1 Y306.3875
G0 Z12.0
G0 X633.4125
G0 Z-0.9
G1 F120.0 Z-2.0
G1 F3000.0 Y304.8
G1 X630.2375
G1 Y601.6625
G1 X633.4125
G1 Y306.3875
G0 Z12.0
G0 X631.825 Y296.8625
G0 Z-0.9
G1 F120.0 Z-2.0
G1 F3000.0 Y3.175
G1 Y296.8625
G0 Z12.0
G0 X633.4125
G0 Z-0.9
G1 F120.0 Z-2.0
G1 F3000.0 Y1.5875
G1 X630.2375
G1 Y298.45
G1 X633.4125
G1 Y296.8625
G0 Z12.0
G0 X492.125 Y600.075
G0 Z-0.9
G1 F120.0 Z-2.0
G1 F3000.0 Y306.3875
G0 Z12.0
G0 X490.5375
G0 Z-0.9
G1 F120.0 Z-2.0
G1 F3000.0 Y601.6625
G1 X493.7125
G1 Y304.8
G1 X490.5375
G1 Y306.3875
G0 Z12.0
G0 X352.425 Y600.075
G0 Z-0.9
G1 F120.0 Z-2.0
G1 F3000.0 Y306.3875
G0 Z12.0
G0 X350.8375
G0 Z-0.9
G1 F120.0 Z-2.0
G1 F3000.0 Y601.6625
G1 X354.0125
G1 Y304.8
G1 X350.8375
G1 Y306.3875
G0 Z12.0
G0 X73.025 Y3.175
G0 Z-0.9
G1 F120.0 Z-2.0
G1 F3000.0 Y296.8625
G0 Z12.0
G0 Y298.45
G0 Z-0.9
G1 F120.0 Z-2.0
G1 F3000.0 X74.6125
G1 Y1.5875
G1 X71.4375
G1 Y298.45
G1 X73.025
G0 Z12.0
G0 Y306.3875
G0 Z-1.9
G1 F120.0 Z-3.0
G1 F3000.0 Y600.075
G0 Z12.0
G0 Y601.6625
G0 Z-1.9
G1 F120.0 Z-3.0
G1 F3000.0 X74.6125
G1 Y304.8
G1 X71.4375
G1 Y601.6625
G1 X73.025
G0 Z12.0
G0 X142.875 Y600.075
G0 Z-1.9
G1 F120.0 Z-3.0
G1 F3000.0 Y306.3875
G1 Y600.075
G0 Z12.0
G0 Y601.6625
G0 Z-1.9
G1 F120.0 Z-3.0
G1 F3000.0 X144.4625
G1 Y304.8
G1 X141.2875
G1 Y601.6625
G1 X142.875
G0 Z12.0
G0 X212.725 Y600.075
G0 Z-1.9
G1 F120.0 Z-3.0
G1 F3000.0 Y306.3875
G1 Y600.075
G0 Z12.0
G0 X211.1375
G0 Z-1.9
G1 F120.0 Z-3.0
G1 F3000.0 Y601.6625
G1 X214.3125
G1 Y304.8
G1 X211.1375
G1 Y600.075
G0 Z12.0
G0 X282.575
G0 Z-1.9
G1 F120.0 Z-3.0
G1 F3000.0 Y306.3875
G0 Z12.0
G0 Y304.8
G0 Z-1.9
G1 F120.0 Z-3.0
G1 F3000.0 X280.9875
G1 Y601.6625
G1 X284.1625
G1 Y304.8
G1 X282.575
G0 Z12.0
G0 Y296.8625
G0 Z-1.9
G1 F120.0 Z-3.0
G1 F3000.0 Y3.175
G1 Y296.8625
G0 Z12.0
G0 Y298.45
G0 Z-1.9
G1 F120.0 Z-3.0
G1 F3000.0 X284.1625
G1 Y1.5875
G1 X280.9875
G1 Y298.45
G1 X282.575
G0 Z12.0
G0 X212.725 Y296.8625
G0 Z-1.9
G1 F120.0 Z-3.0
G1 F3000.0 Y3.175
G1 Y296.8625
G0 Z12.0
G0 Y298.45
G0 Z-1.9
G1 F120.0 Z-3.0
G1 F3000.0 X214.3125
G1 Y1.5875
G1 X211.1375
G1 Y298.45
G1 X212.725
G0 Z12.0
G0 X142.875 Y296.8625
G0 Z-1.9
G1 F120.0 Z-3.0
G1 F3000.0 Y3.175
G1 Y296.8625
G0 Z12.0
G0 X144.4625
G0 Z-1.9
G1 F120.0 Z-3.0
G1 F3000.0 Y1.5875
G1 X141.2875
G1 Y298.45
G1 X144.4625
G1 Y296.8625
G0 Z12.0
G0 X352.425
G0 Z-1.9
G1 F120.0 Z-3.0
G1 F3000.0 Y3.175
G1 Y296.8625
G0 Z12.0
G0 X350.8375
G0 Z-1.9
G1 F120.0 Z-3.0
G1 F3000.0 Y298.45
G1 X354.0125
G1 Y1.5875
G1 X350.8375
G1 Y296.8625
G0 Z12.0
G0 X422.275
G0 Z-1.9
G1 F120.0 Z-3.0
G1 F3000.0 Y3.175
G1 Y296.8625
G0 Z12.0
G0 Y298.45
G0 Z-1.9
G1 F120.0 Z-3.0
G1 F3000.0 X423.8625
G1 Y1.5875
G1 X420.6875
G1 Y298.45
G1 X422.275
G0 Z12.0
G0 Y306.3875
G0 Z-1.9
G1 F120.0 Z-3.0
G1 F3000.0 Y600.075
G1 Y306.3875
G0 Z12.0
G0 Y304.8
G0 Z-1.9
G1 F120.0 Z-3.0
G1 F3000.0 X420.6875
G1 Y601.6625
G1 X423.8625
G1 Y304.8
G1 X422.275
G0 Z12.0
G0 X492.125 Y296.8625
G0 Z-1.9
G1 F120.0 Z-3.0
G1 F3000.0 Y3.175
G1 Y296.8625
G0 Z12.0
G0 X490.5375
G0 Z-1.9
G1 F120.0 Z-3.0
G1 F3000.0 Y298.45
G1 X493.7125
G1 Y1.5875
G1 X490.5375
G1 Y296.8625
G0 Z12.0
G0 X561.975
G0 Z-1.9
G1 F120.0 Z-3.0
G1 F3000.0 Y3.175
G1 Y296.8625
G0 Z12.0
G0 X563.5625
G0 Z-1.9
G1 F120.0 Z-3.0
G1 F3000.0 Y1.5875
G1 X560.3875
G1 Y298.45
G1 X563.5625
G1 Y296.8625
G0 Z12.0
G0 X561.975 Y306.3875
G0 Z-1.9
G1 F120.0 Z-3.0
G1 F3000.0 Y600.075
G1 Y306.3875
G0 Z12.0
G0 Y304.8
G0 Z-1.9
G1 F120.0 Z-3.0
G1 F3000.0 X560.3875
G1 Y601.6625
G1 X563.5625
G1 Y304.8
G1 X561.975
G0 Z12.0
G0 X631.825 Y306.3875
G0 Z-1.9
G1 F120.0 Z-3.0
G1 F3000.0 Y600.075
G1 Y306.3875
G0 Z12.0
G0 X633.4125
G0 Z-1.9
G1 F120.0 Z-3.0
G1 F3000.0 Y304.8
G1 X630.2375
G1 Y601.6625
G1 X633.4125
G1 Y306.3875
G0 Z12.0
G0 X631.825 Y296.8625
G0 Z-1.9
G1 F120.0 Z-3.0
G1 F3000.0 Y3.175
G1 Y296.8625
G0 Z12.0
G0 X633.4125
G0 Z-1.9
G1 F120.0 Z-3.0
G1 F3000.0 Y1.5875
G1 X630.2375
G1 Y298.45
G1 X633.4125
G1 Y296.8625
G0 Z12.0
G0 X492.125 Y600.075
G0 Z-1.9
G1 F120.0 Z-3.0
G1 F3000.0 Y306.3875
G0 Z12.0
G0 X490.5375
G0 Z-1.9
G1 F120.0 Z-3.0
G1 F3000.0 Y601.6625
G1 X493.7125
G1 Y304.8
G1 X490.5375
G1 Y306.3875
G0 Z12.0
G0 X352.425 Y600.075
G0 Z-1.9
G1 F120.0 Z-3.0
G1 F3000.0 Y306.3875
G0 Z12.0
G0 X350.8375
G0 Z-1.9
G1 F120.0 Z-3.0
G1 F3000.0 Y601.6625
G1 X354.0125
G1 Y304.8
G1 X350.8375
G1 Y306.3875
G0 Z12.0
G0 X73.025 Y3.175
G0 Z-1.9
G1 F120.0 Z-3.0
G1 F3000.0 Y296.8625
G0 Z12.0
G0 Y298.45
G0 Z-1.9
G1 F120.0 Z-3.0
G1 F3000.0 X74.6125
G1 Y1.5875
G1 X71.4375
G1 Y298.45
G1 X73.025
G0 Z12.0
G0 Y306.3875
G0 Z-2.9
G1 F120.0 Z-4.0
G1 F3000.0 Y600.075
G0 Z12.0
G0 Y601.6625
G0 Z-2.9
G1 F120.0 Z-4.0
G1 F3000.0 X74.6125
G1 Y304.8
G1 X71.4375
G1 Y601.6625
G1 X73.025
G0 Z12.0
G0 X142.875 Y600.075
G0 Z-2.9
G1 F120.0 Z-4.0
G1 F3000.0 Y306.3875
G1 Y600.075
G0 Z12.0
G0 Y601.6625
G0 Z-2.9
G1 F120.0 Z-4.0
G1 F3000.0 X144.4625
G1 Y304.8
G1 X141.2875
G1 Y601.6625
G1 X142.875
G0 Z12.0
G0 X212.725 Y600.075
G0 Z-2.9
G1 F120.0 Z-4.0
G1 F3000.0 Y306.3875
G1 Y600.075
G0 Z12.0
G0 X211.1375
G0 Z-2.9
G1 F120.0 Z-4.0
G1 F3000.0 Y601.6625
G1 X214.3125
G1 Y304.8
G1 X211.1375
G1 Y600.075
G0 Z12.0
G0 X282.575
G0 Z-2.9
G1 F120.0 Z-4.0
G1 F3000.0 Y306.3875
G0 Z12.0
G0 Y304.8
G0 Z-2.9
G1 F120.0 Z-4.0
G1 F3000.0 X280.9875
G1 Y601.6625
G1 X284.1625
G1 Y304.8
G1 X282.575
G0 Z12.0
G0 Y296.8625
G0 Z-2.9
G1 F120.0 Z-4.0
G1 F3000.0 Y3.175
G1 Y296.8625
G0 Z12.0
G0 Y298.45
G0 Z-2.9
G1 F120.0 Z-4.0
G1 F3000.0 X284.1625
G1 Y1.5875
G1 X280.9875
G1 Y298.45
G1 X282.575
G0 Z12.0
G0 X212.725 Y296.8625
G0 Z-2.9
G1 F120.0 Z-4.0
G1 F3000.0 Y3.175
G1 Y296.8625
G0 Z12.0
G0 Y298.45
G0 Z-2.9
G1 F120.0 Z-4.0
G1 F3000.0 X214.3125
G1 Y1.5875
G1 X211.1375
G1 Y298.45
G1 X212.725
G0 Z12.0
G0 X142.875 Y296.8625
G0 Z-2.9
G1 F120.0 Z-4.0
G1 F3000.0 Y3.175
G1 Y296.8625
G0 Z12.0
G0 X144.4625
G0 Z-2.9
G1 F120.0 Z-4.0
G1 F3000.0 Y1.5875
G1 X141.2875
G1 Y298.45
G1 X144.4625
G1 Y296.8625
G0 Z12.0
G0 X352.425
G0 Z-2.9
G1 F120.0 Z-4.0
G1 F3000.0 Y3.175
G1 Y296.8625
G0 Z12.0
G0 X350.8375
G0 Z-2.9
G1 F120.0 Z-4.0
G1 F3000.0 Y298.45
G1 X354.0125
G1 Y1.5875
G1 X350.8375
G1 Y296.8625
G0 Z12.0
G0 X422.275
G0 Z-2.9
G1 F120.0 Z-4.0
G1 F3000.0 Y3.175
G1 Y296.8625
G0 Z12.0
G0 Y298.45
G0 Z-2.9
G1 F120.0 Z-4.0
G1 F3000.0 X423.8625
G1 Y1.5875
G1 X420.6875
G1 Y298.45
G1 X422.275
G0 Z12.0
G0 Y306.3875
G0 Z-2.9
G1 F120.0 Z-4.0
G1 F3000.0 Y600.075
G1 Y306.3875
G0 Z12.0
G0 Y304.8
G0 Z-2.9
G1 F120.0 Z-4.0
G1 F3000.0 X420.6875
G1 Y601.6625
G1 X423.8625
G1 Y304.8
G1 X422.275
G0 Z12.0
G0 X492.125 Y296.8625
G0 Z-2.9
G1 F120.0 Z-4.0
G1 F3000.0 Y3.175
G1 Y296.8625
G0 Z12.0
G0 X490.5375
G0 Z-2.9
G1 F120.0 Z-4.0
G1 F3000.0 Y298.45
G1 X493.7125
G1 Y1.5875
G1 X490.5375
G1 Y296.8625
G0 Z12.0
G0 X561.975
G0 Z-2.9
G1 F120.0 Z-4.0
G1 F3000.0 Y3.175
G1 Y296.8625
G0 Z12.0
G0 X563.5625
G0 Z-2.9
G1 F120.0 Z-4.0
G1 F3000.0 Y1.5875
G1 X560.3875
G1 Y298.45
G1 X563.5625
G1 Y296.8625
G0 Z12.0
G0 X561.975 Y306.3875
G0 Z-2.9
G1 F120.0 Z-4.0
G1 F3000.0 Y600.075
G1 Y306.3875
G0 Z12.0
G0 Y304.8
G0 Z-2.9
G1 F120.0 Z-4.0
G1 F3000.0 X560.3875
G1 Y601.6625
G1 X563.5625
G1 Y304.8
G1 X561.975
G0 Z12.0
G0 X631.825 Y306.3875
G0 Z-2.9
G1 F120.0 Z-4.0
G1 F3000.0 Y600.075
G1 Y306.3875
G0 Z12.0
G0 X633.4125
G0 Z-2.9
G1 F120.0 Z-4.0
G1 F3000.0 Y304.8
G1 X630.2375
G1 Y601.6625
G1 X633.4125
G1 Y306.3875
G0 Z12.0
G0 X631.825 Y296.8625
G0 Z-2.9
G1 F120.0 Z-4.0
G1 F3000.0 Y3.175
G1 Y296.8625
G0 Z12.0
G0 X633.4125
G0 Z-2.9
G1 F120.0 Z-4.0
G1 F3000.0 Y1.5875
G1 X630.2375
G1 Y298.45
G1 X633.4125
G1 Y296.8625
G0 Z12.0
G0 X492.125 Y600.075
G0 Z-2.9
G1 F120.0 Z-4.0
G1 F3000.0 Y306.3875
G0 Z12.0
G0 X490.5375
G0 Z-2.9
G1 F120.0 Z-4.0
G1 F3000.0 Y601.6625
G1 X493.7125
G1 Y304.8
G1 X490.5375
G1 Y306.3875
G0 Z12.0
G0 X352.425 Y600.075
G0 Z-2.9
G1 F120.0 Z-4.0
G1 F3000.0 Y306.3875
G0 Z12.0
G0 X350.8375
G0 Z-2.9
G1 F120.0 Z-4.0
G1 F3000.0 Y601.6625
G1 X354.0125
G1 Y304.8
G1 X350.8375
G1 Y306.3875
G0 Z12.0
G0 X73.025 Y3.175
G0 Z-2.9
G1 F120.0 Z-4.0
G1 F3000.0 Y296.8625
G0 Z12.0
G0 Y298.45
G0 Z-2.9
G1 F120.0 Z-4.0
G1 F3000.0 X74.6125
G1 Y1.5875
G1 X71.4375
G1 Y298.45
G1 X73.025
G0 Z12.0
G0 Y306.3875
G0 Z-3.9
G1 F120.0 Z-5.0
G1 F3000.0 Y600.075
G0 Z12.0
G0 Y601.6625
G0 Z-3.9
G1 F120.0 Z-5.0
G1 F3000.0 X74.6125
G1 Y304.8
G1 X71.4375
G1 Y601.6625
G1 X73.025
G0 Z12.0
G0 X142.875 Y600.075
G0 Z-3.9
G1 F120.0 Z-5.0
G1 F3000.0 Y306.3875
G1 Y600.075
G0 Z12.0
G0 Y601.6625
G0 Z-3.9
G1 F120.0 Z-5.0
G1 F3000.0 X144.4625
G1 Y304.8
G1 X141.2875
G1 Y601.6625
G1 X142.875
G0 Z12.0
G0 X212.725 Y600.075
G0 Z-3.9
G1 F120.0 Z-5.0
G1 F3000.0 Y306.3875
G1 Y600.075
G0 Z12.0
G0 X211.1375
G0 Z-3.9
G1 F120.0 Z-5.0
G1 F3000.0 Y601.6625
G1 X214.3125
G1 Y304.8
G1 X211.1375
G1 Y600.075
G0 Z12.0
G0 X282.575
G0 Z-3.9
G1 F120.0 Z-5.0
G1 F3000.0 Y306.3875
G0 Z12.0
G0 Y304.8
G0 Z-3.9
G1 F120.0 Z-5.0
G1 F3000.0 X280.9875
G1 Y601.6625
G1 X284.1625
G1 Y304.8
G1 X282.575
G0 Z12.0
G0 Y296.8625
G0 Z-3.9
G1 F120.0 Z-5.0
G1 F3000.0 Y3.175
G1 Y296.8625
G0 Z12.0
G0 Y298.45
G0 Z-3.9
G1 F120.0 Z-5.0
G1 F3000.0 X284.1625
G1 Y1.5875
G1 X280.9875
G1 Y298.45
G1 X282.575
G0 Z12.0
G0 X212.725 Y296.8625
G0 Z-3.9
G1 F120.0 Z-5.0
G1 F3000.0 Y3.175
G1 Y296.8625
G0 Z12.0
G0 Y298.45
G0 Z-3.9
G1 F120.0 Z-5.0
G1 F3000.0 X214.3125
G1 Y1.5875
G1 X211.1375
G1 Y298.45
G1 X212.725
G0 Z12.0
G0 X142.875 Y296.8625
G0 Z-3.9
G1 F120.0 Z-5.0
G1 F3000.0 Y3.175
G1 Y296.8625
G0 Z12.0
G0 X144.4625
G0 Z-3.9
G1 F120.0 Z-5.0
G1 F3000.0 Y1.5875
G1 X141.2875
G1 Y298.45
G1 X144.4625
G1 Y296.8625
G0 Z12.0
G0 X352.425
G0 Z-3.9
G1 F120.0 Z-5.0
G1 F3000.0 Y3.175
G1 Y296.8625
G0 Z12.0
G0 X350.8375
G0 Z-3.9
G1 F120.0 Z-5.0
G1 F3000.0 Y298.45
G1 X354.0125
G1 Y1.5875
G1 X350.8375
G1 Y296.8625
G0 Z12.0
G0 X422.275
G0 Z-3.9
G1 F120.0 Z-5.0
G1 F3000.0 Y3.175
G1 Y296.8625
G0 Z12.0
G0 Y298.45
G0 Z-3.9
G1 F120.0 Z-5.0
G1 F3000.0 X423.8625
G1 Y1.5875
G1 X420.6875
G1 Y298.45
G1 X422.275
G0 Z12.0
G0 Y306.3875
G0 Z-3.9
G1 F120.0 Z-5.0
G1 F3000.0 Y600.075
G1 Y306.3875
G0 Z12.0
G0 Y304.8
G0 Z-3.9
G1 F120.0 Z-5.0
G1 F3000.0 X420.6875
G1 Y601.6625
G1 X423.8625
G1 Y304.8
G1 X422.275
G0 Z12.0
G0 X492.125 Y296.8625
G0 Z-3.9
G1 F120.0 Z-5.0
G1 F3000.0 Y3.175
G1 Y296.8625
G0 Z12.0
G0 X490.5375
G0 Z-3.9
G1 F120.0 Z-5.0
G1 F3000.0 Y298.45
G1 X493.7125
G1 Y1.5875
G1 X490.5375
G1 Y296.8625
G0 Z12.0
G0 X561.975
G0 Z-3.9
G1 F120.0 Z-5.0
G1 F3000.0 Y3.175
G1 Y296.8625
G0 Z12.0
G0 X563.5625
G0 Z-3.9
G1 F120.0 Z-5.0
G1 F3000.0 Y1.5875
G1 X560.3875
G1 Y298.45
G1 X563.5625
G1 Y296.8625
G0 Z12.0
G0 X561.975 Y306.3875
G0 Z-3.9
G1 F120.0 Z-5.0
G1 F3000.0 Y600.075
G1 Y306.3875
G0 Z12.0
G0 Y304.8
G0 Z-3.9
G1 F120.0 Z-5.0
G1 F3000.0 X560.3875
G1 Y601.6625
G1 X563.5625
G1 Y304.8
G1 X561.975
G0 Z12.0
G0 X631.825 Y306.3875
G0 Z-3.9
G1 F120.0 Z-5.0
G1 F3000.0 Y600.075
G1 Y306.3875
G0 Z12.0
G0 X633.4125
G0 Z-3.9
G1 F120.0 Z-5.0
G1 F3000.0 Y304.8
G1 X630.2375
G1 Y601.6625
G1 X633.4125
G1 Y306.3875
G0 Z12.0
G0 X631.825 Y296.8625
G0 Z-3.9
G1 F120.0 Z-5.0
G1 F3000.0 Y3.175
G1 Y296.8625
G0 Z12.0
G0 X633.4125
G0 Z-3.9
G1 F120.0 Z-5.0
G1 F3000.0 Y1.5875
G1 X630.2375
G1 Y298.45
G1 X633.4125
G1 Y296.8625
G0 Z12.0
G0 X492.125 Y600.075
G0 Z-3.9
G1 F120.0 Z-5.0
G1 F3000.0 Y306.3875
G0 Z12.0
G0 X490.5375
G0 Z-3.9
G1 F120.0 Z-5.0
G1 F3000.0 Y601.6625
G1 X493.7125
G1 Y304.8
G1 X490.5375
G1 Y306.3875
G0 Z12.0
G0 X352.425 Y600.075
G0 Z-3.9
G1 F120.0 Z-5.0
G1 F3000.0 Y306.3875
G0 Z12.0
G0 X350.8375
G0 Z-3.9
G1 F120.0 Z-5.0
G1 F3000.0 Y601.6625
G1 X354.0125
G1 Y304.8
G1 X350.8375
G1 Y306.3875
G0 Z12.0
G0 X73.025 Y3.175
G0 Z-3.9
G1 F120.0 Z-5.0
G1 F3000.0 Y296.8625
G0 Z12.0
G0 Y298.45
G0 Z-3.9
G1 F120.0 Z-5.0
G1 F3000.0 X74.6125
G1 Y1.5875
G1 X71.4375
G1 Y298.45
G1 X73.025
G0 Z12.0
G0 Y306.3875
G0 Z-4.9
G1 F120.0 Z-6.0
G1 F3000.0 Y600.075
G0 Z12.0
G0 Y601.6625
G0 Z-4.9
G1 F120.0 Z-6.0
G1 F3000.0 X74.6125
G1 Y304.8
G1 X71.4375
G1 Y601.6625
G1 X73.025
G0 Z12.0
G0 X142.875 Y600.075
G0 Z-4.9
G1 F120.0 Z-6.0
G1 F3000.0 Y306.3875
G1 Y600.075
G0 Z12.0
G0 Y601.6625
G0 Z-4.9
G1 F120.0 Z-6.0
G1 F3000.0 X144.4625
G1 Y304.8
G1 X141.2875
G1 Y601.6625
G1 X142.875
G0 Z12.0
G0 X212.725 Y600.075
G0 Z-4.9
G1 F120.0 Z-6.0
G1 F3000.0 Y306.3875
G1 Y600.075
G0 Z12.0
G0 X211.1375
G0 Z-4.9
G1 F120.0 Z-6.0
G1 F3000.0 Y601.6625
G1 X214.3125
G1 Y304.8
G1 X211.1375
G1 Y600.075
G0 Z12.0
G0 X282.575
G0 Z-4.9
G1 F120.0 Z-6.0
G1 F3000.0 Y306.3875
G0 Z12.0
G0 Y304.8
G0 Z-4.9
G1 F120.0 Z-6.0
G1 F3000.0 X280.9875
G1 Y601.6625
G1 X284.1625
G1 Y304.8
G1 X282.575
G0 Z12.0
G0 Y296.8625
G0 Z-4.9
G1 F120.0 Z-6.0
G1 F3000.0 Y3.175
G1 Y296.8625
G0 Z12.0
G0 Y298.45
G0 Z-4.9
G1 F120.0 Z-6.0
G1 F3000.0 X284.1625
G1 Y1.5875
G1 X280.9875
G1 Y298.45
G1 X282.575
G0 Z12.0
G0 X212.725 Y296.8625
G0 Z-4.9
G1 F120.0 Z-6.0
G1 F3000.0 Y3.175
G1 Y296.8625
G0 Z12.0
G0 Y298.45
G0 Z-4.9
G1 F120.0 Z-6.0
G1 F3000.0 X214.3125
G1 Y1.5875
G1 X211.1375
G1 Y298.45
G1 X212.725
G0 Z12.0
G0 X142.875 Y296.8625
G0 Z-4.9
G1 F120.0 Z-6.0
G1 F3000.0 Y3.175
G1 Y296.8625
G0 Z12.0
G0 X144.4625
G0 Z-4.9
G1 F120.0 Z-6.0
G1 F3000.0 Y1.5875
G1 X141.2875
G1 Y298.45
G1 X144.4625
G1 Y296.8625
G0 Z12.0
G0 X352.425
G0 Z-4.9
G1 F120.0 Z-6.0
G1 F3000.0 Y3.175
G1 Y296.8625
G0 Z12.0
G0 X350.8375
G0 Z-4.9
G1 F120.0 Z-6.0
G1 F3000.0 Y298.45
G1 X354.0125
G1 Y1.5875
G1 X350.8375
G1 Y296.8625
G0 Z12.0
G0 X422.275
G0 Z-4.9
G1 F120.0 Z-6.0
G1 F3000.0 Y3.175
G1 Y296.8625
G0 Z12.0
G0 Y298.45
G0 Z-4.9
G1 F120.0 Z-6.0
G1 F3000.0 X423.8625
G1 Y1.5875
G1 X420.6875
G1 Y298.45
G1 X422.275
G0 Z12.0
G0 Y306.3875
G0 Z-4.9
G1 F120.0 Z-6.0
G1 F3000.0 Y600.075
G1 Y306.3875
G0 Z12.0
G0 Y304.8
G0 Z-4.9
G1 F120.0 Z-6.0
G1 F3000.0 X420.6875
G1 Y601.6625
G1 X423.8625
G1 Y304.8
G1 X422.275
G0 Z12.0
G0 X492.125 Y296.8625
G0 Z-4.9
G1 F120.0 Z-6.0
G1 F3000.0 Y3.175
G1 Y296.8625
G0 Z12.0
G0 X490.5375
G0 Z-4.9
G1 F120.0 Z-6.0
G1 F3000.0 Y298.45
G1 X493.7125
G1 Y1.5875
G1 X490.5375
G1 Y296.8625
G0 Z12.0
G0 X561.975
G0 Z-4.9
G1 F120.0 Z-6.0
G1 F3000.0 Y3.175
G1 Y296.8625
G0 Z12.0
G0 X563.5625
G0 Z-4.9
G1 F120.0 Z-6.0
G1 F3000.0 Y1.5875
G1 X560.3875
G1 Y298.45
G1 X563.5625
G1 Y296.8625
G0 Z12.0
G0 X561.975 Y306.3875
G0 Z-4.9
G1 F120.0 Z-6.0
G1 F3000.0 Y600.075
G1 Y306.3875
G0 Z12.0
G0 Y304.8
G0 Z-4.9
G1 F120.0 Z-6.0
G1 F3000.0 X560.3875
G1 Y601.6625
G1 X563.5625
G1 Y304.8
G1 X561.975
G0 Z12.0
G0 X631.825 Y306.3875
G0 Z-4.9
G1 F120.0 Z-6.0
G1 F3000.0 Y600.075
G1 Y306.3875
G0 Z12.0
G0 X633.4125
G0 Z-4.9
G1 F120.0 Z-6.0
G1 F3000.0 Y304.8
G1 X630.2375
G1 Y601.6625
G1 X633.4125
G1 Y306.3875
G0 Z12.0
G0 X631.825 Y296.8625
G0 Z-4.9
G1 F120.0 Z-6.0
G1 F3000.0 Y3.175
G1 Y296.8625
G0 Z12.0
G0 X633.4125
G0 Z-4.9
G1 F120.0 Z-6.0
G1 F3000.0 Y1.5875
G1 X630.2375
G1 Y298.45
G1 X633.4125
G1 Y296.8625
G0 Z12.0
G0 X492.125 Y600.075
G0 Z-4.9
G1 F120.0 Z-6.0
G1 F3000.0 Y306.3875
G0 Z12.0
G0 X490.5375
G0 Z-4.9
G1 F120.0 Z-6.0
G1 F3000.0 Y601.6625
G1 X493.7125
G1 Y304.8
G1 X490.5375
G1 Y306.3875
G0 Z12.0
G0 X352.425 Y600.075
G0 Z-4.9
G1 F120.0 Z-6.0
G1 F3000.0 Y306.3875
G0 Z12.0
G0 X350.8375
G0 Z-4.9
G1 F120.0 Z-6.0
G1 F3000.0 Y601.6625
G1 X354.0125
G1 Y304.8
G1 X350.8375
G1 Y306.3875
G0 Z12.0
G0 X73.025 Y3.175
G0 Z-4.9
G1 F120.0 Z-6.0
G1 F3000.0 Y296.8625
G0 Z12.0
G0 Y298.45
G0 Z-4.9
G1 F120.0 Z-6.0
G1 F3000.0 X74.6125
G1 Y1.5875
G1 X71.4375
G1 Y298.45
G1 X73.025
G0 Z12.0
G0 Y306.3875
G0 Z-5.9
G1 F120.0 Z-7.0
G1 F3000.0 Y600.075
G0 Z12.0
G0 Y601.6625
G0 Z-5.9
G1 F120.0 Z-7.0
G1 F3000.0 X74.6125
G1 Y304.8
G1 X71.4375
G1 Y601.6625
G1 X73.025
G0 Z12.0
G0 X142.875 Y600.075
G0 Z-5.9
G1 F120.0 Z-7.0
G1 F3000.0 Y306.3875
G1 Y600.075
G0 Z12.0
G0 Y601.6625
G0 Z-5.9
G1 F120.0 Z-7.0
G1 F3000.0 X144.4625
G1 Y304.8
G1 X141.2875
G1 Y601.6625
G1 X142.875
G0 Z12.0
G0 X212.725 Y600.075
G0 Z-5.9
G1 F120.0 Z-7.0
G1 F3000.0 Y306.3875
G1 Y600.075
G0 Z12.0
G0 X211.1375
G0 Z-5.9
G1 F120.0 Z-7.0
G1 F3000.0 Y601.6625
G1 X214.3125
G1 Y304.8
G1 X211.1375
G1 Y600.075
G0 Z12.0
G0 X282.575
G0 Z-5.9
G1 F120.0 Z-7.0
G1 F3000.0 Y306.3875
G0 Z12.0
G0 Y304.8
G0 Z-5.9
G1 F120.0 Z-7.0
G1 F3000.0 X280.9875
G1 Y601.6625
G1 X284.1625
G1 Y304.8
G1 X282.575
G0 Z12.0
G0 Y296.8625
G0 Z-5.9
G1 F120.0 Z-7.0
G1 F3000.0 Y3.175
G1 Y296.8625
G0 Z12.0
G0 Y298.45
G0 Z-5.9
G1 F120.0 Z-7.0
G1 F3000.0 X284.1625
G1 Y1.5875
G1 X280.9875
G1 Y298.45
G1 X282.575
G0 Z12.0
G0 X212.725 Y296.8625
G0 Z-5.9
G1 F120.0 Z-7.0
G1 F3000.0 Y3.175
G1 Y296.8625
G0 Z12.0
G0 Y298.45
G0 Z-5.9
G1 F120.0 Z-7.0
G1 F3000.0 X214.3125
G1 Y1.5875
G1 X211.1375
G1 Y298.45
G1 X212.725
G0 Z12.0
G0 X142.875 Y296.8625
G0 Z-5.9
G1 F120.0 Z-7.0
G1 F3000.0 Y3.175
G1 Y296.8625
G0 Z12.0
G0 X144.4625
G0 Z-5.9
G1 F120.0 Z-7.0
G1 F3000.0 Y1.5875
G1 X141.2875
G1 Y298.45
G1 X144.4625
G1 Y296.8625
G0 Z12.0
G0 X352.425
G0 Z-5.9
G1 F120.0 Z-7.0
G1 F3000.0 Y3.175
G1 Y296.8625
G0 Z12.0
G0 X350.8375
G0 Z-5.9
G1 F120.0 Z-7.0
G1 F3000.0 Y298.45
G1 X354.0125
G1 Y1.5875
G1 X350.8375
G1 Y296.8625
G0 Z12.0
G0 X422.275
G0 Z-5.9
G1 F120.0 Z-7.0
G1 F3000.0 Y3.175
G1 Y296.8625
G0 Z12.0
G0 Y298.45
G0 Z-5.9
G1 F120.0 Z-7.0
G1 F3000.0 X423.8625
G1 Y1.5875
G1 X420.6875
G1 Y298.45
G1 X422.275
G0 Z12.0
G0 Y306.3875
G0 Z-5.9
G1 F120.0 Z-7.0
G1 F3000.0 Y600.075
G1 Y306.3875
G0 Z12.0
G0 Y304.8
G0 Z-5.9
G1 F120.0 Z-7.0
G1 F3000.0 X420.6875
G1 Y601.6625
G1 X423.8625
G1 Y304.8
G1 X422.275
G0 Z12.0
G0 X492.125 Y296.8625
G0 Z-5.9
G1 F120.0 Z-7.0
G1 F3000.0 Y3.175
G1 Y296.8625
G0 Z12.0
G0 X490.5375
G0 Z-5.9
G1 F120.0 Z-7.0
G1 F3000.0 Y298.45
G1 X493.7125
G1 Y1.5875
G1 X490.5375
G1 Y296.8625
G0 Z12.0
G0 X561.975
G0 Z-5.9
G1 F120.0 Z-7.0
G1 F3000.0 Y3.175
G1 Y296.8625
G0 Z12.0
G0 X563.5625
G0 Z-5.9
G1 F120.0 Z-7.0
G1 F3000.0 Y1.5875
G1 X560.3875
G1 Y298.45
G1 X563.5625
G1 Y296.8625
G0 Z12.0
G0 X561.975 Y306.3875
G0 Z-5.9
G1 F120.0 Z-7.0
G1 F3000.0 Y600.075
G1 Y306.3875
G0 Z12.0
G0 Y304.8
G0 Z-5.9
G1 F120.0 Z-7.0
G1 F3000.0 X560.3875
G1 Y601.6625
G1 X563.5625
G1 Y304.8
G1 X561.975
G0 Z12.0
G0 X631.825 Y306.3875
G0 Z-5.9
G1 F120.0 Z-7.0
G1 F3000.0 Y600.075
G1 Y306.3875
G0 Z12.0
G0 X633.4125
G0 Z-5.9
G1 F120.0 Z-7.0
G1 F3000.0 Y304.8
G1 X630.2375
G1 Y601.6625
G1 X633.4125
G1 Y306.3875
G0 Z12.0
G0 X631.825 Y296.8625
G0 Z-5.9
G1 F120.0 Z-7.0
G1 F3000.0 Y3.175
G1 Y296.8625
G0 Z12.0
G0 X633.4125
G0 Z-5.9
G1 F120.0 Z-7.0
G1 F3000.0 Y1.5875
G1 X630.2375
G1 Y298.45
G1 X633.4125
G1 Y296.8625
G0 Z12.0
G0 X492.125 Y600.075
G0 Z-5.9
G1 F120.0 Z-7.0
G1 F3000.0 Y306.3875
G0 Z12.0
G0 X490.5375
G0 Z-5.9
G1 F120.0 Z-7.0
G1 F3000.0 Y601.6625
G1 X493.7125
G1 Y304.8
G1 X490.5375
G1 Y306.3875
G0 Z12.0
G0 X352.425 Y600.075
G0 Z-5.9
G1 F120.0 Z-7.0
G1 F3000.0 Y306.3875
G0 Z12.0
G0 X350.8375
G0 Z-5.9
G1 F120.0 Z-7.0
G1 F3000.0 Y601.6625
G1 X354.0125
G1 Y304.8
G1 X350.8375
G1 Y306.3875
G0 Z12.0
G0 X73.025 Y3.175
G0 Z-5.9
G1 F120.0 Z-7.0
G1 F3000.0 Y296.8625
G0 Z12.0
G0 Y298.45
G0 Z-5.9
G1 F120.0 Z-7.0
G1 F3000.0 X74.6125
G1 Y1.5875
G1 X71.4375
G1 Y298.45
G1 X73.025
( Profile1 )
S12000
G0 Z12.0
G0 X0.0 Y301.625
G0 Z0.1
G1 F120.0 Z-1.0
G1 F3000.0 X730.25
G3 X731.8375 Y303.2125 I0.0 J1.5875
G1 Y603.25
G0 Z12.0
G0 X636.5875 Y0.0
G0 Z0.1
G1 F120.0 Z-1.0
G1 F3000.0 Y300.0375
G0 Z12.0
G0 Y0.0
G0 Z-0.9
G1 F120.0 Z-2.0
G1 F3000.0 Y300.0375
G0 Z12.0
G0 X0.0 Y301.625
G0 Z-0.9
G1 F120.0 Z-2.0
G1 F3000.0 X730.25
G3 X731.8375 Y303.2125 I0.0 J1.5875
G1 Y603.25
G0 Z12.0
G0 X636.5875 Y0.0
G0 Z-1.9
G1 F120.0 Z-3.0
G1 F3000.0 Y300.0375
G0 Z12.0
G0 X0.0 Y301.625
G0 Z-1.9
G1 F120.0 Z-3.0
G1 F3000.0 X730.25
G3 X731.8375 Y303.2125 I0.0 J1.5875
G1 Y603.25
G0 Z12.0
G0 X636.5875 Y0.0
G0 Z-2.9
G1 F120.0 Z-4.0
G1 F3000.0 Y300.0375
G0 Z12.0
G0 X0.0 Y301.625
G0 Z-2.9
G1 F120.0 Z-4.0
G1 F3000.0 X730.25
G3 X731.8375 Y303.2125 I0.0 J1.5875
G1 Y603.25
G0 Z12.0
G0 X636.5875 Y0.0
G0 Z-3.9
G1 F120.0 Z-5.0
G1 F3000.0 Y300.0375
G0 Z12.0
G0 X0.0 Y301.625
G0 Z-3.9
G1 F120.0 Z-5.0
G1 F3000.0 X730.25
G3 X731.8375 Y303.2125 I0.0 J1.5875
G1 Y603.25
G0 Z12.0
G0 X636.5875 Y0.0
G0 Z-4.9
G1 F120.0 Z-6.0
G1 F3000.0 Y300.0375
G0 Z12.0
G0 X0.0 Y301.625
G0 Z-4.9
G1 F120.0 Z-6.0
G1 F3000.0 X730.25
G3 X731.8375 Y303.2125 I0.0 J1.5875
G1 Y603.25
G0 Z12.0
G0 X636.5875 Y0.0
G0 Z-5.9
G1 F120.0 Z-7.0
G1 F3000.0 Y300.0375
G0 Z12.0
G0 X0.0 Y301.625
G0 Z-5.9
G1 F120.0 Z-7.0
G1 F3000.0 X730.25
G3 X731.8375 Y303.2125 I0.0 J1.5875
G1 Y603.25
G0 Z12.0
G0 X636.5875 Y0.0
G0 Z-6.9
G1 F120.0 Z-8.0
G1 F3000.0 Y300.0375
G0 Z12.0
G0 X0.0 Y301.625
G0 Z-6.9
G1 F120.0 Z-8.0
G1 F3000.0 X730.25
G3 X731.8375 Y303.2125 I0.0 J1.5875
G1 Y603.25
G0 Z12.0
G0 X636.5875 Y0.0
G0 Z-7.9
G1 F120.0 Z-9.0
G1 F3000.0 Y300.0375
G0 Z12.0
G0 X0.0 Y301.625
G0 Z-7.9
G1 F120.0 Z-9.0
G1 F3000.0 X730.25
G3 X731.8375 Y303.2125 I0.0 J1.5875
G1 Y603.25
G0 Z12.0
G0 X636.5875 Y0.0
G0 Z-8.9
G1 F120.0 Z-10.0
G1 F3000.0 Y300.0375
G0 Z12.0
G0 X0.0 Y301.625
G0 Z-8.9
G1 F120.0 Z-10.0
G1 F3000.0 X730.25
G3 X731.8375 Y303.2125 I0.0 J1.5875
G1 Y603.25
G0 Z12.0
G0 X636.5875 Y0.0
G0 Z-9.9
G1 F120.0 Z-11.0
G1 F3000.0 Y300.0375
G0 Z12.0
G0 X0.0 Y301.625
G0 Z-9.9
G1 F120.0 Z-11.0
G1 F3000.0 X730.25
G3 X731.8375 Y303.2125 I0.0 J1.5875
G1 Y603.25
G0 Z12.0
G0 X636.5875 Y0.0
G0 Z-10.9
G1 F120.0 Z-12.0
G1 F3000.0 Y300.0375
G0 Z12.0
G0 X0.0 Y301.625
G0 Z-10.9
G1 F120.0 Z-12.0
G1 F3000.0 X730.25
G3 X731.8375 Y303.2125 I0.0 J1.5875
G1 Y603.25
G0 Z12.0
G0 X636.5875 Y0.0
G0 Z-11.9
G1 F120.0 Z-13.0
G1 F3000.0 Y300.0375
G0 Z12.0
G0 X0.0 Y301.625
G0 Z-11.9
G1 F120.0 Z-13.0
G1 F3000.0 X730.25
G3 X731.8375 Y303.2125 I0.0 J1.5875
G1 Y603.25
G0 Z12.0
G0 X636.5875 Y0.0
G0 Z-12.9
G1 F120.0 Z-14.0
G1 F3000.0 Y300.0375
G0 Z12.0
G0 X0.0 Y301.625
G0 Z-12.9
G1 F120.0 Z-14.0
G1 F3000.0 X730.25
G3 X731.8375 Y303.2125 I0.0 J1.5875
G1 Y603.25
G0 Z12.0
G0 X636.5875 Y0.0
G0 Z-13.9
G1 F120.0 Z-15.0
G1 F3000.0 Y34.4172
G1 Y35.9172 Z-14.0
G1 Y39.0922
G1 Y40.5922 Z-15.0
G1 Y109.4266
G1 Y110.9266 Z-14.0
G1 Y114.1016
G1 Y115.6016 Z-15.0
G1 Y184.4359
G1 Y185.9359 Z-14.0
G1 Y189.1109
G1 Y190.6109 Z-15.0
G1 Y259.4453
G1 Y260.9453 Z-14.0
G1 Y264.1203
G1 Y265.6203 Z-15.0
G1 Y300.0375
G0 Z12.0
G0 X0.0 Y301.625
G0 Z-13.9
G1 F120.0 Z-15.0
G1 F3000.0 X34.4125
G1 X35.9125 Z-14.0
G1 X39.0875
G1 X40.5875 Z-15.0
G1 X109.4125
G1 X110.9125 Z-14.0
G1 X114.0875
G1 X115.5875 Z-15.0
G1 X184.4125
G1 X185.9125 Z-14.0
G1 X189.0875
G1 X190.5875 Z-15.0
G1 X259.4125
G1 X260.9125 Z-14.0
G1 X264.0875
G1 X265.5875 Z-15.0
G1 X334.4125
G1 X335.9125 Z-14.0
G1 X339.0875
G1 X340.5875 Z-15.0
G1 X409.4125
G1 X410.9125 Z-14.0
G1 X414.0875
G1 X415.5875 Z-15.0
G1 X484.4125
G1 X485.9125 Z-14.0
G1 X489.0875
G1 X490.5875 Z-15.0
G1 X559.4125
G1 X560.9125 Z-14.0
G1 X564.0875
G1 X565.5875 Z-15.0
G1 X634.4125
G1 X635.9125 Z-14.0
G1 X639.0875
G1 X640.5875 Z-15.0
G1 X709.4125
G1 X710.9125 Z-14.0
G1 X714.0875
G1 X715.5875 Z-15.0
G1 X730.25
G3 X731.8375 Y303.2125 I0.0 J1.5875
G1 Y357.375
G1 Y358.875 Z-14.0
G1 Y362.05
G1 Y363.55 Z-15.0
G1 Y432.375
G1 Y433.875 Z-14.0
G1 Y437.05
G1 Y438.55 Z-15.0
G1 Y507.375
G1 Y508.875 Z-14.0
G1 Y512.05
G1 Y513.55 Z-15.0
G1 Y582.375
G1 Y583.875 Z-14.0
G1 Y587.05
G1 Y588.55 Z-15.0
G1 Y603.25
G0 Z12.0
G0 X636.5875 Y0.0
G0 Z-14.9
G1 F120.0 Z-16.0
G1 F3000.0 Y34.4172
G1 Y35.9172 Z-14.0
G1 Y39.0922
G1 Y40.5922 Z-16.0
G1 Y109.4266
G1 Y110.9266 Z-14.0
G1 Y114.1016
G1 Y115.6016 Z-16.0
G1 Y184.4359
G1 Y185.9359 Z-14.0
G1 Y189.1109
G1 Y190.6109 Z-16.0
G1 Y259.4453
G1 Y260.9453 Z-14.0
G1 Y264.1203
G1 Y265.6203 Z-16.0
G1 Y300.0375
G0 Z12.0
G0 X0.0 Y301.625
G0 Z-14.9
G1 F120.0 Z-16.0
G1 F3000.0 X34.4125
G1 X35.9125 Z-14.0
G1 X39.0875
G1 X40.5875 Z-16.0
G1 X109.4125
G1 X110.9125 Z-14.0
G1 X114.0875
G1 X115.5875 Z-16.0
G1 X184.4125
G1 X185.9125 Z-14.0
G1 X189.0875
G1 X190.5875 Z-16.0
G1 X259.4125
G1 X260.9125 Z-14.0
G1 X264.0875
G1 X265.5875 Z-16.0
G1 X334.4125
G1 X335.9125 Z-14.0
G1 X339.0875
G1 X340.5875 Z-16.0
G1 X409.4125
G1 X410.9125 Z-14.0
G1 X414.0875
G1 X415.5875 Z-16.0
G1 X484.4125
G1 X485.9125 Z-14.0
G1 X489.0875
G1 X490.5875 Z-16.0
G1 X559.4125
G1 X560.9125 Z-14.0
G1 X564.0875
G1 X565.5875 Z-16.0
G1 X634.4125
G1 X635.9125 Z-14.0
G1 X639.0875
G1 X640.5875 Z-16.0
G1 X709.4125
G1 X710.9125 Z-14.0
G1 X714.0875
G1 X715.5875 Z-16.0
G1 X730.25
G3 X731.8375 Y303.2125 I0.0 J1.5875
G1 Y357.375
G1 Y358.875 Z-14.0
G1 Y362.05
G1 Y363.55 Z-16.0
G1 Y432.375
G1 Y433.875 Z-14.0
G1 Y437.05
G1 Y438.55 Z-16.0
G1 Y507.375
G1 Y508.875 Z-14.0
G1 Y512.05
G1 Y513.55 Z-16.0
G1 Y582.375
G1 Y583.875 Z-14.0
G1 Y587.05
G1 Y588.55 Z-16.0
G1 Y603.25
G0 Z12.0
G0 X636.5875 Y0.0
G0 Z-15.9
G1 F120.0 Z-17.0
G1 F3000.0 Y34.4172
G1 Y35.9172 Z-14.0
G1 Y39.0922
G1 Y40.5922 Z-17.0
G1 Y109.4266
G1 Y110.9266 Z-14.0
G1 Y114.1016
G1 Y115.6016 Z-17.0
G1 Y184.4359
G1 Y185.9359 Z-14.0
G1 Y189.1109
G1 Y190.6109 Z-17.0
G1 Y259.4453
G1 Y260.9453 Z-14.0
G1 Y264.1203
G1 Y265.6203 Z-17.0
G1 Y300.0375
G0 Z12.0
G0 X0.0 Y301.625
G0 Z-15.9
G1 F120.0 Z-17.0
G1 F3000.0 X34.4125
G1 X35.9125 Z-14.0
G1 X39.0875
G1 X40.5875 Z-17.0
G1 X109.4125
G1 X110.9125 Z-14.0
G1 X114.0875
G1 X115.5875 Z-17.0
G1 X184.4125
G1 X185.9125 Z-14.0
G1 X189.0875
G1 X190.5875 Z-17.0
G1 X259.4125
G1 X260.9125 Z-14.0
G1 X264.0875
G1 X265.5875 Z-17.0
G1 X334.4125
G1 X335.9125 Z-14.0
G1 X339.0875
G1 X340.5875 Z-17.0
G1 X409.4125
G1 X410.9125 Z-14.0
G1 X414.0875
G1 X415.5875 Z-17.0
G1 X484.4125
G1 X485.9125 Z-14.0
G1 X489.0875
G1 X490.5875 Z-17.0
G1 X559.4125
G1 X560.9125 Z-14.0
G1 X564.0875
G1 X565.5875 Z-17.0
G1 X634.4125
G1 X635.9125 Z-14.0
G1 X639.0875
G1 X640.5875 Z-17.0
G1 X709.4125
G1 X710.9125 Z-14.0
G1 X714.0875
G1 X715.5875 Z-17.0
G1 X730.25
G3 X731.8375 Y303.2125 I0.0 J1.5875
G1 Y357.375
G1 Y358.875 Z-14.0
G1 Y362.05
G1 Y363.55 Z-17.0
G1 Y432.375
G1 Y433.875 Z-14.0
G1 Y437.05
G1 Y438.55 Z-17.0
G1 Y507.375
G1 Y508.875 Z-14.0
G1 Y512.05
G1 Y513.55 Z-17.0
G1 Y582.375
G1 Y583.875 Z-14.0
G1 Y587.05
G1 Y588.55 Z-17.0
G1 Y603.25
G0 Z12.0
G0 X636.5875 Y0.0
G0 Z-16.9
G1 F120.0 Z-18.0
G1 F3000.0 Y34.4172
G1 Y35.9172 Z-14.0
G1 Y39.0922
G1 Y40.5922 Z-18.0
G1 Y109.4266
G1 Y110.9266 Z-14.0
G1 Y114.1016
G1 Y115.6016 Z-18.0
G1 Y184.4359
G1 Y185.9359 Z-14.0
G1 Y189.1109
G1 Y190.6109 Z-18.0
G1 Y259.4453
G1 Y260.9453 Z-14.0
G1 Y264.1203
G1 Y265.6203 Z-18.0
G1 Y300.0375
G0 Z12.0
G0 X0.0 Y301.625
G0 Z-16.9
G1 F120.0 Z-18.0
G1 F3000.0 X34.4125
G1 X35.9125 Z-14.0
G1 X39.0875
G1 X40.5875 Z-18.0
G1 X109.4125
G1 X110.9125 Z-14.0
G1 X114.0875
G1 X115.5875 Z-18.0
G1 X184.4125
G1 X185.9125 Z-14.0
G1 X189.0875
G1 X190.5875 Z-18.0
G1 X259.4125
G1 X260.9125 Z-14.0
G1 X264.0875
G1 X265.5875 Z-18.0
G1 X334.4125
G1 X335.9125 Z-14.0
G1 X339.0875
G1 X340.5875 Z-18.0
G1 X409.4125
G1 X410.9125 Z-14.0
G1 X414.0875
G1 X415.5875 Z-18.0
G1 X484.4125
G1 X485.9125 Z-14.0
G1 X489.0875
G1 X490.5875 Z-18.0
G1 X559.4125
G1 X560.9125 Z-14.0
G1 X564.0875
G1 X565.5875 Z-18.0
G1 X634.4125
G1 X635.9125 Z-14.0
G1 X639.0875
G1 X640.5875 Z-18.0
G1 X709.4125
G1 X710.9125 Z-14.0
G1 X714.0875
G1 X715.5875 Z-18.0
G1 X730.25
G3 X731.8375 Y303.2125 I0.0 J1.5875
G1 Y357.375
G1 Y358.875 Z-14.0
G1 Y362.05
G1 Y363.55 Z-18.0
G1 Y432.375
G1 Y433.875 Z-14.0
G1 Y437.05
G1 Y438.55 Z-18.0
G1 Y507.375
G1 Y508.875 Z-14.0
G1 Y512.05
G1 Y513.55 Z-18.0
G1 Y582.375
G1 Y583.875 Z-14.0
G1 Y587.05
G1 Y588.55 Z-18.0
G1 Y603.25
G0 Z12.0
G0 X636.5875 Y0.0
G0 Z-17.9
G1 F120.0 Z-19.0
G1 F3000.0 Y34.4172
G1 Y35.9172 Z-14.0
G1 Y39.0922
G1 Y40.5922 Z-19.0
G1 Y109.4266
G1 Y110.9266 Z-14.0
G1 Y114.1016
G1 Y115.6016 Z-19.0
G1 Y184.4359
G1 Y185.9359 Z-14.0
G1 Y189.1109
G1 Y190.6109 Z-19.0
G1 Y259.4453
G1 Y260.9453 Z-14.0
G1 Y264.1203
G1 Y265.6203 Z-19.0
G1 Y300.0375
G0 Z12.0
G0 X0.0 Y301.625
G0 Z-17.9
G1 F120.0 Z-19.0
G1 F3000.0 X34.4125
G1 X35.9125 Z-14.0
G1 X39.0875
G1 X40.5875 Z-19.0
G1 X109.4125
G1 X110.9125 Z-14.0
G1 X114.0875
G1 X115.5875 Z-19.0
G1 X184.4125
G1 X185.9125 Z-14.0
G1 X189.0875
G1 X190.5875 Z-19.0
G1 X259.4125
G1 X260.9125 Z-14.0
G1 X264.0875
G1 X265.5875 Z-19.0
G1 X334.4125
G1 X335.9125 Z-14.0
G1 X339.0875
G1 X340.5875 Z-19.0
G1 X409.4125
G1 X410.9125 Z-14.0
G1 X414.0875
G1 X415.5875 Z-19.0
G1 X484.4125
G1 X485.9125 Z-14.0
G1 X489.0875
G1 X490.5875 Z-19.0
G1 X559.4125
G1 X560.9125 Z-14.0
G1 X564.0875
G1 X565.5875 Z-19.0
G1 X634.4125
G1 X635.9125 Z-14.0
G1 X639.0875
G1 X640.5875 Z-19.0
G1 X709.4125
G1 X710.9125 Z-14.0
G1 X714.0875
G1 X715.5875 Z-19.0
G1 X730.25
G3 X731.8375 Y303.2125 I0.0 J1.5875
G1 Y357.375
G1 Y358.875 Z-14.0
G1 Y362.05
G1 Y363.55 Z-19.0
G1 Y432.375
G1 Y433.875 Z-14.0
G1 Y437.05
G1 Y438.55 Z-19.0
G1 Y507.375
G1 Y508.875 Z-14.0
G1 Y512.05
G1 Y513.55 Z-19.0
G1 Y582.375
G1 Y583.875 Z-14.0
G1 Y587.05
G1 Y588.55 Z-19.0
G1 Y603.25
G0 Z12.0
G0 X636.5875 Y0.0
G0 Z-18.9
G1 F120.0 Z-20.0
G1 F3000.0 Y34.4172
G1 Y35.9172 Z-14.0
G1 Y39.0922
G1 Y40.5922 Z-20.0
G1 Y109.4266
G1 Y110.9266 Z-14.0
G1 Y114.1016
G1 Y115.6016 Z-20.0
G1 Y184.4359
G1 Y185.9359 Z-14.0
G1 Y189.1109
G1 Y190.6109 Z-20.0
G1 Y259.4453
G1 Y260.9453 Z-14.0
G1 Y264.1203
G1 Y265.6203 Z-20.0
G1 Y300.0375
G0 Z12.0
G0 X0.0 Y301.625
G0 Z-18.9
G1 F120.0 Z-20.0
G1 F3000.0 X34.4125
G1 X35.9125 Z-14.0
G1 X39.0875
G1 X40.5875 Z-20.0
G1 X109.4125
G1 X110.9125 Z-14.0
G1 X114.0875
G1 X115.5875 Z-20.0
G1 X184.4125
G1 X185.9125 Z-14.0
G1 X189.0875
G1 X190.5875 Z-20.0
G1 X259.4125
G1 X260.9125 Z-14.0
G1 X264.0875
G1 X265.5875 Z-20.0
G1 X334.4125
G1 X335.9125 Z-14.0
G1 X339.0875
G1 X340.5875 Z-20.0
G1 X409.4125
G1 X410.9125 Z-14.0
G1 X414.0875
G1 X415.5875 Z-20.0
G1 X484.4125
G1 X485.9125 Z-14.0
G1 X489.0875
G1 X490.5875 Z-20.0
G1 X559.4125
G1 X560.9125 Z-14.0
G1 X564.0875
G1 X565.5875 Z-20.0
G1 X634.4125
G1 X635.9125 Z-14.0
G1 X639.0875
G1 X640.5875 Z-20.0
G1 X709.4125
G1 X710.9125 Z-14.0
G1 X714.0875
G1 X715.5875 Z-20.0
G1 X730.25
G3 X731.8375 Y303.2125 I0.0 J1.5875
G1 Y357.375
G1 Y358.875 Z-14.0
G1 Y362.05
G1 Y363.55 Z-20.0
G1 Y432.375
G1 Y433.875 Z-14.0
G1 Y437.05
G1 Y438.55 Z-20.0
G1 Y507.375
G1 Y508.875 Z-14.0
G1 Y512.05
G1 Y513.55 Z-20.0
G1 Y582.375
G1 Y583.875 Z-14.0
G1 Y587.05
G1 Y588.55 Z-20.0
G1 Y603.25
G0 Z12.0
M5
M30
