( Made using CamBam - http://www.cambam.co.uk )
( E_RearDiv_Back 1/4/2020 5:33:14 PM )
( T18 : 3.175 )
G21 G90 G91.1 G64 G40
G0 Z25.0
( T18 : 3.175 )
T18 M6
( Pocket1 )
G17
M3 S12000
G0 X630.2375 Y298.45
G0 Z0.1
G1 F120.0 Z-1.0
G1 F3000.0 X633.4125
G1 Y1.5875
G1 X630.2375
G1 Y298.45
G0 Z25.0
G0 X563.5625
G0 Z0.1
G1 F120.0 Z-1.0
G1 F3000.0 Y1.5875
G1 X560.3875
G1 Y298.45
G1 X563.5625
G0 Z25.0
G0 X493.7125
G0 Z0.1
G1 F120.0 Z-1.0
G1 F3000.0 Y1.5875
G1 X490.5375
G1 Y298.45
G1 X493.7125
G0 Z25.0
G0 X423.8625
G0 Z0.1
G1 F120.0 Z-1.0
G1 F3000.0 Y1.5875
G1 X420.6875
G1 Y298.45
G1 X423.8625
G0 Z25.0
G0 X354.0125
G0 Z0.1
G1 F120.0 Z-1.0
G1 F3000.0 Y1.5875
G1 X350.8375
G1 Y298.45
G1 X354.0125
G0 Z25.0
G0 X284.1625
G0 Z0.1
G1 F120.0 Z-1.0
G1 F3000.0 Y1.5875
G1 X280.9875
G1 Y298.45
G1 X284.1625
G0 Z25.0
G0 X214.3125
G0 Z0.1
G1 F120.0 Z-1.0
G1 F3000.0 Y1.5875
G1 X211.1375
G1 Y298.45
G1 X214.3125
G0 Z25.0
G0 X144.4625
G0 Z0.1
G1 F120.0 Z-1.0
G1 F3000.0 Y1.5875
G1 X141.2875
G1 Y298.45
G1 X144.4625
G0 Z25.0
G0 X74.6125
G0 Z0.1
G1 F120.0 Z-1.0
G1 F3000.0 Y1.5875
G1 X71.4375
G1 Y298.45
G1 X74.6125
G1 F120.0 Z-2.0
G1 F3000.0 Y1.5875
G1 X71.4375
G1 Y298.45
G1 X74.6125
G0 Z25.0
G0 X141.2875
G0 Z-0.9
G1 F120.0 Z-2.0
G1 F3000.0 X144.4625
G1 Y1.5875
G1 X141.2875
G1 Y298.45
G0 Z25.0
G0 X211.1375
G0 Z-0.9
G1 F120.0 Z-2.0
G1 F3000.0 X214.3125
G1 Y1.5875
G1 X211.1375
G1 Y298.45
G0 Z25.0
G0 X280.9875
G0 Z-0.9
G1 F120.0 Z-2.0
G1 F3000.0 X284.1625
G1 Y1.5875
G1 X280.9875
G1 Y298.45
G0 Z25.0
G0 X350.8375
G0 Z-0.9
G1 F120.0 Z-2.0
G1 F3000.0 X354.0125
G1 Y1.5875
G1 X350.8375
G1 Y298.45
G0 Z25.0
G0 X420.6875
G0 Z-0.9
G1 F120.0 Z-2.0
G1 F3000.0 X423.8625
G1 Y1.5875
G1 X420.6875
G1 Y298.45
G0 Z25.0
G0 X490.5375
G0 Z-0.9
G1 F120.0 Z-2.0
G1 F3000.0 X493.7125
G1 Y1.5875
G1 X490.5375
G1 Y298.45
G0 Z25.0
G0 X560.3875
G0 Z-0.9
G1 F120.0 Z-2.0
G1 F3000.0 X563.5625
G1 Y1.5875
G1 X560.3875
G1 Y298.45
G0 Z25.0
G0 X630.2375
G0 Z-0.9
G1 F120.0 Z-2.0
G1 F3000.0 X633.4125
G1 Y1.5875
G1 X630.2375
G1 Y298.45
G1 F120.0 Z-3.0
G1 F3000.0 X633.4125
G1 Y1.5875
G1 X630.2375
G1 Y298.45
G0 Z25.0
G0 X563.5625
G0 Z-1.9
G1 F120.0 Z-3.0
G1 F3000.0 Y1.5875
G1 X560.3875
G1 Y298.45
G1 X563.5625
G0 Z25.0
G0 X493.7125
G0 Z-1.9
G1 F120.0 Z-3.0
G1 F3000.0 Y1.5875
G1 X490.5375
G1 Y298.45
G1 X493.7125
G0 Z25.0
G0 X423.8625
G0 Z-1.9
G1 F120.0 Z-3.0
G1 F3000.0 Y1.5875
G1 X420.6875
G1 Y298.45
G1 X423.8625
G0 Z25.0
G0 X354.0125
G0 Z-1.9
G1 F120.0 Z-3.0
G1 F3000.0 Y1.5875
G1 X350.8375
G1 Y298.45
G1 X354.0125
G0 Z25.0
G0 X284.1625
G0 Z-1.9
G1 F120.0 Z-3.0
G1 F3000.0 Y1.5875
G1 X280.9875
G1 Y298.45
G1 X284.1625
G0 Z25.0
G0 X214.3125
G0 Z-1.9
G1 F120.0 Z-3.0
G1 F3000.0 Y1.5875
G1 X211.1375
G1 Y298.45
G1 X214.3125
G0 Z25.0
G0 X144.4625
G0 Z-1.9
G1 F120.0 Z-3.0
G1 F3000.0 Y1.5875
G1 X141.2875
G1 Y298.45
G1 X144.4625
G0 Z25.0
G0 X74.6125
G0 Z-1.9
G1 F120.0 Z-3.0
G1 F3000.0 Y1.5875
G1 X71.4375
G1 Y298.45
G1 X74.6125
G1 F120.0 Z-4.0
G1 F3000.0 Y1.5875
G1 X71.4375
G1 Y298.45
G1 X74.6125
G0 Z25.0
G0 X141.2875
G0 Z-2.9
G1 F120.0 Z-4.0
G1 F3000.0 X144.4625
G1 Y1.5875
G1 X141.2875
G1 Y298.45
G0 Z25.0
G0 X211.1375
G0 Z-2.9
G1 F120.0 Z-4.0
G1 F3000.0 X214.3125
G1 Y1.5875
G1 X211.1375
G1 Y298.45
G0 Z25.0
G0 X280.9875
G0 Z-2.9
G1 F120.0 Z-4.0
G1 F3000.0 X284.1625
G1 Y1.5875
G1 X280.9875
G1 Y298.45
G0 Z25.0
G0 X350.8375
G0 Z-2.9
G1 F120.0 Z-4.0
G1 F3000.0 X354.0125
G1 Y1.5875
G1 X350.8375
G1 Y298.45
G0 Z25.0
G0 X420.6875
G0 Z-2.9
G1 F120.0 Z-4.0
G1 F3000.0 X423.8625
G1 Y1.5875
G1 X420.6875
G1 Y298.45
G0 Z25.0
G0 X490.5375
G0 Z-2.9
G1 F120.0 Z-4.0
G1 F3000.0 X493.7125
G1 Y1.5875
G1 X490.5375
G1 Y298.45
G0 Z25.0
G0 X560.3875
G0 Z-2.9
G1 F120.0 Z-4.0
G1 F3000.0 X563.5625
G1 Y1.5875
G1 X560.3875
G1 Y298.45
G0 Z25.0
G0 X630.2375
G0 Z-2.9
G1 F120.0 Z-4.0
G1 F3000.0 X633.4125
G1 Y1.5875
G1 X630.2375
G1 Y298.45
G1 F120.0 Z-5.0
G1 F3000.0 X633.4125
G1 Y1.5875
G1 X630.2375
G1 Y298.45
G0 Z25.0
G0 X563.5625
G0 Z-3.9
G1 F120.0 Z-5.0
G1 F3000.0 Y1.5875
G1 X560.3875
G1 Y298.45
G1 X563.5625
G0 Z25.0
G0 X493.7125
G0 Z-3.9
G1 F120.0 Z-5.0
G1 F3000.0 Y1.5875
G1 X490.5375
G1 Y298.45
G1 X493.7125
G0 Z25.0
G0 X423.8625
G0 Z-3.9
G1 F120.0 Z-5.0
G1 F3000.0 Y1.5875
G1 X420.6875
G1 Y298.45
G1 X423.8625
G0 Z25.0
G0 X354.0125
G0 Z-3.9
G1 F120.0 Z-5.0
G1 F3000.0 Y1.5875
G1 X350.8375
G1 Y298.45
G1 X354.0125
G0 Z25.0
G0 X284.1625
G0 Z-3.9
G1 F120.0 Z-5.0
G1 F3000.0 Y1.5875
G1 X280.9875
G1 Y298.45
G1 X284.1625
G0 Z25.0
G0 X214.3125
G0 Z-3.9
G1 F120.0 Z-5.0
G1 F3000.0 Y1.5875
G1 X211.1375
G1 Y298.45
G1 X214.3125
G0 Z25.0
G0 X144.4625
G0 Z-3.9
G1 F120.0 Z-5.0
G1 F3000.0 Y1.5875
G1 X141.2875
G1 Y298.45
G1 X144.4625
G0 Z25.0
G0 X74.6125
G0 Z-3.9
G1 F120.0 Z-5.0
G1 F3000.0 Y1.5875
G1 X71.4375
G1 Y298.45
G1 X74.6125
G1 F120.0 Z-6.0
G1 F3000.0 Y1.5875
G1 X71.4375
G1 Y298.45
G1 X74.6125
G0 Z25.0
G0 X141.2875
G0 Z-4.9
G1 F120.0 Z-6.0
G1 F3000.0 X144.4625
G1 Y1.5875
G1 X141.2875
G1 Y298.45
G0 Z25.0
G0 X211.1375
G0 Z-4.9
G1 F120.0 Z-6.0
G1 F3000.0 X214.3125
G1 Y1.5875
G1 X211.1375
G1 Y298.45
G0 Z25.0
G0 X280.9875
G0 Z-4.9
G1 F120.0 Z-6.0
G1 F3000.0 X284.1625
G1 Y1.5875
G1 X280.9875
G1 Y298.45
G0 Z25.0
G0 X350.8375
G0 Z-4.9
G1 F120.0 Z-6.0
G1 F3000.0 X354.0125
G1 Y1.5875
G1 X350.8375
G1 Y298.45
G0 Z25.0
G0 X420.6875
G0 Z-4.9
G1 F120.0 Z-6.0
G1 F3000.0 X423.8625
G1 Y1.5875
G1 X420.6875
G1 Y298.45
G0 Z25.0
G0 X490.5375
G0 Z-4.9
G1 F120.0 Z-6.0
G1 F3000.0 X493.7125
G1 Y1.5875
G1 X490.5375
G1 Y298.45
G0 Z25.0
G0 X560.3875
G0 Z-4.9
G1 F120.0 Z-6.0
G1 F3000.0 X563.5625
G1 Y1.5875
G1 X560.3875
G1 Y298.45
G0 Z25.0
G0 X630.2375
G0 Z-4.9
G1 F120.0 Z-6.0
G1 F3000.0 X633.4125
G1 Y1.5875
G1 X630.2375
G1 Y298.45
G1 F120.0 Z-7.0
G1 F3000.0 X633.4125
G1 Y1.5875
G1 X630.2375
G1 Y298.45
G0 Z25.0
G0 X563.5625
G0 Z-5.9
G1 F120.0 Z-7.0
G1 F3000.0 Y1.5875
G1 X560.3875
G1 Y298.45
G1 X563.5625
G0 Z25.0
G0 X493.7125
G0 Z-5.9
G1 F120.0 Z-7.0
G1 F3000.0 Y1.5875
G1 X490.5375
G1 Y298.45
G1 X493.7125
G0 Z25.0
G0 X423.8625
G0 Z-5.9
G1 F120.0 Z-7.0
G1 F3000.0 Y1.5875
G1 X420.6875
G1 Y298.45
G1 X423.8625
G0 Z25.0
G0 X354.0125
G0 Z-5.9
G1 F120.0 Z-7.0
G1 F3000.0 Y1.5875
G1 X350.8375
G1 Y298.45
G1 X354.0125
G0 Z25.0
G0 X284.1625
G0 Z-5.9
G1 F120.0 Z-7.0
G1 F3000.0 Y1.5875
G1 X280.9875
G1 Y298.45
G1 X284.1625
G0 Z25.0
G0 X214.3125
G0 Z-5.9
G1 F120.0 Z-7.0
G1 F3000.0 Y1.5875
G1 X211.1375
G1 Y298.45
G1 X214.3125
G0 Z25.0
G0 X144.4625
G0 Z-5.9
G1 F120.0 Z-7.0
G1 F3000.0 Y1.5875
G1 X141.2875
G1 Y298.45
G1 X144.4625
G0 Z25.0
G0 X74.6125
G0 Z-5.9
G1 F120.0 Z-7.0
G1 F3000.0 Y1.5875
G1 X71.4375
G1 Y298.45
G1 X74.6125
( Pocket2 )
S12000
G0 Z25.0
G0 X631.5075 Y297.18
G0 Z-5.9
G1 F120.0 Z-7.0
G1 F3000.0 X632.1425
G1 Y2.8575
G1 X631.5075
G1 Y297.18
G0 Z25.0
G0 X630.2375
G0 Z-5.9
G1 F120.0 Z-7.0
G1 F3000.0 Y298.45
G1 X633.4125
G1 Y1.5875
G1 X630.2375
G1 Y297.18
G0 Z25.0
G0 X562.2925
G0 Z-5.9
G1 F120.0 Z-7.0
G1 F3000.0 Y2.8575
G1 X561.6575
G1 Y297.18
G1 X562.2925
G0 Z25.0
G0 Y298.45
G0 Z-5.9
G1 F120.0 Z-7.0
G1 F3000.0 X563.5625
G1 Y1.5875
G1 X560.3875
G1 Y298.45
G1 X562.2925
G0 Z25.0
G0 X492.4425 Y297.18
G0 Z-5.9
G1 F120.0 Z-7.0
G1 F3000.0 Y2.8575
G1 X491.8075
G1 Y297.18
G1 X492.4425
G0 Z25.0
G0 X493.7125
G0 Z-5.9
G1 F120.0 Z-7.0
G1 F3000.0 Y1.5875
G1 X490.5375
G1 Y298.45
G1 X493.7125
G1 Y297.18
G0 Z25.0
G0 X422.5925
G0 Z-5.9
G1 F120.0 Z-7.0
G1 F3000.0 Y2.8575
G1 X421.9575
G1 Y297.18
G1 X422.5925
G0 Z25.0
G0 X423.8625
G0 Z-5.9
G1 F120.0 Z-7.0
G1 F3000.0 Y1.5875
G1 X420.6875
G1 Y298.45
G1 X423.8625
G1 Y297.18
G0 Z25.0
G0 X352.7425
G0 Z-5.9
G1 F120.0 Z-7.0
G1 F3000.0 Y2.8575
G1 X352.1075
G1 Y297.18
G1 X352.7425
G0 Z25.0
G0 Y298.45
G0 Z-5.9
G1 F120.0 Z-7.0
G1 F3000.0 X354.0125
G1 Y1.5875
G1 X350.8375
G1 Y298.45
G1 X352.7425
G0 Z25.0
G0 X282.8925 Y297.18
G0 Z-5.9
G1 F120.0 Z-7.0
G1 F3000.0 Y2.8575
G1 X282.2575
G1 Y297.18
G1 X282.8925
G0 Z25.0
G0 X284.1625
G0 Z-5.9
G1 F120.0 Z-7.0
G1 F3000.0 Y1.5875
G1 X280.9875
G1 Y298.45
G1 X284.1625
G1 Y297.18
G0 Z25.0
G0 X213.0425
G0 Z-5.9
G1 F120.0 Z-7.0
G1 F3000.0 Y2.8575
G1 X212.4075
G1 Y297.18
G1 X213.0425
G0 Z25.0
G0 Y298.45
G0 Z-5.9
G1 F120.0 Z-7.0
G1 F3000.0 X214.3125
G1 Y1.5875
G1 X211.1375
G1 Y298.45
G1 X213.0425
G0 Z25.0
G0 X143.1925 Y297.18
G0 Z-5.9
G1 F120.0 Z-7.0
G1 F3000.0 Y2.8575
G1 X142.5575
G1 Y297.18
G1 X143.1925
G0 Z25.0
G0 Y298.45
G0 Z-5.9
G1 F120.0 Z-7.0
G1 F3000.0 X144.4625
G1 Y1.5875
G1 X141.2875
G1 Y298.45
G1 X143.1925
G0 Z25.0
G0 X73.3425 Y297.18
G0 Z-5.9
G1 F120.0 Z-7.0
G1 F3000.0 Y2.8575
G1 X72.7075
G1 Y297.18
G1 X73.3425
G0 Z25.0
G0 Y298.45
G0 Z-5.9
G1 F120.0 Z-7.0
G1 F3000.0 X74.6125
G1 Y1.5875
G1 X71.4375
G1 Y298.45
G1 X73.3425
G0 Z25.0
M5
M30
