( Made using CamBam - http://www.cambam.co.uk )
( HI_KeyboardTray_SideDiv 1/3/2020 1:19:29 AM )
( T18 : 3.175 )
G21 G90 G91.1 G64 G40
G0 Z25.0
( T18 : 3.175 )
T18 M6
( Pocket1 )
G17
M3 S12000
G0 X303.4085 Y142.875
G0 Z0.1
G1 F120.0 Z-1.0
G3 F3000.0 X304.0063 Y146.05 I-8.1335 J3.175
G1 Y209.55
G3 X303.4085 Y212.725 I-8.7312 J0.0
G3 X304.0063 Y215.9 I-8.1335 J3.175
G1 Y279.4
G3 X303.4085 Y282.575 I-8.7312 J0.0
G3 X304.0063 Y285.75 I-8.1335 J3.175
G1 Y349.25
G3 X303.4085 Y352.425 I-8.7312 J0.0
G3 X304.0063 Y355.6 I-8.1335 J3.175
G1 Y419.1
G3 X303.4085 Y422.275 I-8.7312 J0.0
G3 X304.0063 Y425.45 I-8.1335 J3.175
G1 Y488.95
G3 X303.4085 Y492.125 I-8.7312 J0.0
G3 X304.0063 Y495.3 I-8.1335 J3.175
G1 Y558.8
G3 X303.4085 Y561.975 I-8.7312 J0.0
G3 X304.0063 Y565.15 I-8.1335 J3.175
G1 Y628.65
G3 X303.4085 Y631.825 I-8.7312 J0.0
G3 X304.0063 Y635.0 I-8.1335 J3.175
G1 Y721.5188
G1 X305.5938
G1 Y635.0
G3 X306.1915 Y631.825 I8.7312 J0.0
G3 X305.5938 Y628.65 I8.1335 J-3.175
G1 Y565.15
G3 X306.1915 Y561.975 I8.7313 J0.0
G3 X305.5938 Y558.8 I8.1335 J-3.175
G1 Y495.3
G3 X306.1915 Y492.125 I8.7313 J0.0
G3 X305.5938 Y488.95 I8.1335 J-3.175
G1 Y425.45
G3 X306.1915 Y422.275 I8.7313 J0.0
G3 X305.5938 Y419.1 I8.1335 J-3.175
G1 Y355.6
G3 X306.1915 Y352.425 I8.7313 J0.0
G3 X305.5938 Y349.25 I8.1335 J-3.175
G1 Y285.75
G3 X306.1915 Y282.575 I8.7313 J0.0
G3 X305.5938 Y279.4 I8.1335 J-3.175
G1 Y215.9
G3 X306.1915 Y212.725 I8.7312 J0.0
G3 X305.5938 Y209.55 I8.1335 J-3.175
G1 Y146.05
G3 X306.1915 Y142.875 I8.7313 J0.0
G3 X305.5938 Y139.7 I8.1335 J-3.175
G1 Y76.2
G3 X306.1915 Y73.025 I8.7313 J0.0
G3 X305.5938 Y69.85 I8.1335 J-3.175
G1 Y8.7312
G1 X304.0063
G1 Y69.85
G3 X303.4085 Y73.025 I-8.7312 J0.0
G3 X304.0063 Y76.2 I-8.1335 J3.175
G1 Y139.7
G3 X303.4085 Y142.875 I-8.7312 J0.0
G0 Z25.0
G0 X302.0776 Y143.3945
G0 Z0.1
G1 F120.0 Z-1.0
G3 F3000.0 X302.5775 Y146.05 I-6.8026 J2.6555
G1 Y209.55
G3 X301.8512 Y212.725 I-7.3025 J0.0
G3 X302.5775 Y215.9 I-6.5762 J3.175
G1 Y279.4
G3 X301.8512 Y282.575 I-7.3025 J0.0
G3 X302.5775 Y285.75 I-6.5762 J3.175
G1 Y349.25
G3 X301.8512 Y352.425 I-7.3025 J0.0
G3 X302.5775 Y355.6 I-6.5762 J3.175
G1 Y419.1
G3 X301.8512 Y422.275 I-7.3025 J0.0
G3 X302.5775 Y425.45 I-6.5762 J3.175
G1 Y488.95
G3 X301.8512 Y492.125 I-7.3025 J0.0
G3 X302.5775 Y495.3 I-6.5762 J3.175
G1 Y558.8
G3 X301.8512 Y561.975 I-7.3025 J0.0
G3 X302.5775 Y565.15 I-6.5762 J3.175
G1 Y628.65
G3 X301.8512 Y631.825 I-7.3025 J0.0
G3 X302.5775 Y635.0 I-6.5762 J3.175
G1 Y722.9475
G1 X307.0225
G1 Y635.0
G3 X307.7488 Y631.825 I7.3025 J0.0
G3 X307.0225 Y628.65 I6.5762 J-3.175
G1 Y565.15
G3 X307.7488 Y561.975 I7.3025 J0.0
G3 X307.0225 Y558.8 I6.5762 J-3.175
G1 Y495.3
G3 X307.7488 Y492.125 I7.3025 J0.0
G3 X307.0225 Y488.95 I6.5762 J-3.175
G1 Y425.45
G3 X307.7488 Y422.275 I7.3025 J0.0
G3 X307.0225 Y419.1 I6.5762 J-3.175
G1 Y355.6
G3 X307.7488 Y352.425 I7.3025 J0.0
G3 X307.0225 Y349.25 I6.5762 J-3.175
G1 Y285.75
G3 X307.7488 Y282.575 I7.3025 J0.0
G3 X307.0225 Y279.4 I6.5762 J-3.175
G1 Y215.9
G3 X307.7488 Y212.725 I7.3025 J0.0
G3 X307.0225 Y209.55 I6.5762 J-3.175
G1 Y146.05
G3 X307.7488 Y142.875 I7.3025 J0.0
G3 X307.0225 Y139.7 I6.5762 J-3.175
G1 Y76.2
G3 X307.7488 Y73.025 I7.3025 J0.0
G3 X307.0225 Y69.85 I6.5762 J-3.175
G1 Y7.3025
G1 X302.5775
G1 Y69.85
G3 X301.8512 Y73.025 I-7.3025 J0.0
G3 X302.5775 Y76.2 I-6.5762 J3.175
G1 Y139.7
G3 X301.8512 Y142.875 I-7.3025 J0.0
G3 X302.0776 Y143.3945 I-6.5762 J3.175
G0 Z25.0
G0 X299.4157 Y144.4336
G0 Z0.1
G1 F120.0 Z-1.0
G3 F3000.0 X299.72 Y146.05 I-4.1407 J1.6164
G1 Y209.55
G3 X298.3859 Y212.725 I-4.445 J0.0
G3 X299.72 Y215.9 I-3.1109 J3.175
G1 Y279.4
G3 X298.3859 Y282.575 I-4.445 J0.0
G3 X299.72 Y285.75 I-3.1109 J3.175
G1 Y349.25
G3 X298.3859 Y352.425 I-4.445 J0.0
G3 X299.72 Y355.6 I-3.1109 J3.175
G1 Y419.1
G3 X298.3859 Y422.275 I-4.445 J0.0
G3 X299.72 Y425.45 I-3.1109 J3.175
G1 Y488.95
G3 X298.3859 Y492.125 I-4.445 J0.0
G3 X299.72 Y495.3 I-3.1109 J3.175
G1 Y558.8
G3 X298.3859 Y561.975 I-4.445 J0.0
G3 X299.72 Y565.15 I-3.1109 J3.175
G1 Y628.65
G3 X298.3859 Y631.825 I-4.445 J0.0
G3 X299.72 Y635.0 I-3.1109 J3.175
G1 Y725.805
G1 X309.88
G1 Y635.0
G3 X311.2141 Y631.825 I4.445 J0.0
G3 X309.88 Y628.65 I3.1109 J-3.175
G1 Y565.15
G3 X311.2141 Y561.975 I4.445 J0.0
G3 X309.88 Y558.8 I3.1109 J-3.175
G1 Y495.3
G3 X311.2141 Y492.125 I4.445 J0.0
G3 X309.88 Y488.95 I3.1109 J-3.175
G1 Y425.45
G3 X311.2141 Y422.275 I4.445 J0.0
G3 X309.88 Y419.1 I3.1109 J-3.175
G1 Y355.6
G3 X311.2141 Y352.425 I4.445 J0.0
G3 X309.88 Y349.25 I3.1109 J-3.175
G1 Y285.75
G3 X311.2141 Y282.575 I4.445 J0.0
G3 X309.88 Y279.4 I3.1109 J-3.175
G1 Y215.9
G3 X311.2141 Y212.725 I4.445 J0.0
G3 X309.88 Y209.55 I3.1109 J-3.175
G1 Y146.05
G3 X311.2141 Y142.875 I4.445 J0.0
G3 X309.88 Y139.7 I3.1109 J-3.175
G1 Y76.2
G3 X311.2141 Y73.025 I4.445 J0.0
G3 X309.88 Y69.85 I3.1109 J-3.175
G1 Y4.445
G1 X299.72
G1 Y69.85
G3 X298.3859 Y73.025 I-4.445 J0.0
G3 X299.72 Y76.2 I-3.1109 J3.175
G1 Y139.7
G3 X298.3859 Y142.875 I-4.445 J0.0
G3 X299.4157 Y144.4336 I-3.1109 J3.175
G0 Z25.0
G0 X296.7538 Y145.4727
G0 Z0.1
G1 F120.0 Z-1.0
G3 F3000.0 X296.8625 Y146.05 I-1.4788 J0.5773
G1 Y209.55
G3 X295.275 Y211.1375 I-1.5875 J0.0
G1 X1.5875
G1 Y214.3125
G1 X295.275
G3 X296.8625 Y215.9 I0.0 J1.5875
G1 Y279.4
G3 X295.275 Y280.9875 I-1.5875 J0.0
G1 X1.5875
G1 Y284.1625
G1 X295.275
G3 X296.8625 Y285.75 I0.0 J1.5875
G1 Y349.25
G3 X295.275 Y350.8375 I-1.5875 J0.0
G1 X1.5875
G1 Y354.0125
G1 X295.275
G3 X296.8625 Y355.6 I0.0 J1.5875
G1 Y419.1
G3 X295.275 Y420.6875 I-1.5875 J0.0
G1 X1.5875
G1 Y423.8625
G1 X295.275
G3 X296.8625 Y425.45 I0.0 J1.5875
G1 Y488.95
G3 X295.275 Y490.5375 I-1.5875 J0.0
G1 X1.5875
G1 Y493.7125
G1 X295.275
G3 X296.8625 Y495.3 I0.0 J1.5875
G1 Y558.8
G3 X295.275 Y560.3875 I-1.5875 J0.0
G1 X1.5875
G1 Y563.5625
G1 X295.275
G3 X296.8625 Y565.15 I0.0 J1.5875
G1 Y628.65
G3 X295.275 Y630.2375 I-1.5875 J0.0
G1 X1.5875
G1 Y633.4125
G1 X295.275
G3 X296.8625 Y635.0 I0.0 J1.5875
G1 Y728.6625
G1 X312.7375
G1 Y635.0
G3 X314.325 Y633.4125 I1.5875 J0.0
G1 X608.0125
G1 Y630.2375
G1 X314.325
G3 X312.7375 Y628.65 I0.0 J-1.5875
G1 Y565.15
G3 X314.325 Y563.5625 I1.5875 J0.0
G1 X608.0125
G1 Y560.3875
G1 X314.325
G3 X312.7375 Y558.8 I0.0 J-1.5875
G1 Y495.3
G3 X314.325 Y493.7125 I1.5875 J0.0
G1 X608.0125
G1 Y490.5375
G1 X314.325
G3 X312.7375 Y488.95 I0.0 J-1.5875
G1 Y425.45
G3 X314.325 Y423.8625 I1.5875 J0.0
G1 X608.0125
G1 Y420.6875
G1 X314.325
G3 X312.7375 Y419.1 I0.0 J-1.5875
G1 Y355.6
G3 X314.325 Y354.0125 I1.5875 J0.0
G1 X608.0125
G1 Y350.8375
G1 X314.325
G3 X312.7375 Y349.25 I0.0 J-1.5875
G1 Y285.75
G3 X314.325 Y284.1625 I1.5875 J0.0
G1 X608.0125
G1 Y280.9875
G1 X314.325
G3 X312.7375 Y279.4 I0.0 J-1.5875
G1 Y215.9
G3 X314.325 Y214.3125 I1.5875 J0.0
G1 X608.0125
G1 Y211.1375
G1 X314.325
G3 X312.7375 Y209.55 I0.0 J-1.5875
G1 Y146.05
G3 X314.325 Y144.4625 I1.5875 J0.0
G1 X608.0125
G1 Y141.2875
G1 X314.325
G3 X312.7375 Y139.7 I0.0 J-1.5875
G1 Y76.2
G3 X314.325 Y74.6125 I1.5875 J0.0
G1 X608.0125
G1 Y71.4375
G1 X314.325
G3 X312.7375 Y69.85 I0.0 J-1.5875
G1 Y1.5875
G1 X296.8625
G1 Y69.85
G3 X295.275 Y71.4375 I-1.5875 J0.0
G1 X1.5875
G1 Y74.6125
G1 X295.275
G3 X296.8625 Y76.2 I0.0 J1.5875
G1 Y139.7
G3 X295.275 Y141.2875 I-1.5875 J0.0
G1 X1.5875
G1 Y144.4625
G1 X295.275
G3 X296.7538 Y145.4727 I0.0 J1.5875
G0 Z25.0
G0 X303.4085 Y142.875
G0 Z-0.9
G1 F120.0 Z-2.0
G3 F3000.0 X304.0063 Y146.05 I-8.1335 J3.175
G1 Y209.55
G3 X303.4085 Y212.725 I-8.7312 J0.0
G3 X304.0063 Y215.9 I-8.1335 J3.175
G1 Y279.4
G3 X303.4085 Y282.575 I-8.7312 J0.0
G3 X304.0063 Y285.75 I-8.1335 J3.175
G1 Y349.25
G3 X303.4085 Y352.425 I-8.7312 J0.0
G3 X304.0063 Y355.6 I-8.1335 J3.175
G1 Y419.1
G3 X303.4085 Y422.275 I-8.7312 J0.0
G3 X304.0063 Y425.45 I-8.1335 J3.175
G1 Y488.95
G3 X303.4085 Y492.125 I-8.7312 J0.0
G3 X304.0063 Y495.3 I-8.1335 J3.175
G1 Y558.8
G3 X303.4085 Y561.975 I-8.7312 J0.0
G3 X304.0063 Y565.15 I-8.1335 J3.175
G1 Y628.65
G3 X303.4085 Y631.825 I-8.7312 J0.0
G3 X304.0063 Y635.0 I-8.1335 J3.175
G1 Y721.5188
G1 X305.5938
G1 Y635.0
G3 X306.1915 Y631.825 I8.7312 J0.0
G3 X305.5938 Y628.65 I8.1335 J-3.175
G1 Y565.15
G3 X306.1915 Y561.975 I8.7313 J0.0
G3 X305.5938 Y558.8 I8.1335 J-3.175
G1 Y495.3
G3 X306.1915 Y492.125 I8.7313 J0.0
G3 X305.5938 Y488.95 I8.1335 J-3.175
G1 Y425.45
G3 X306.1915 Y422.275 I8.7313 J0.0
G3 X305.5938 Y419.1 I8.1335 J-3.175
G1 Y355.6
G3 X306.1915 Y352.425 I8.7313 J0.0
G3 X305.5938 Y349.25 I8.1335 J-3.175
G1 Y285.75
G3 X306.1915 Y282.575 I8.7313 J0.0
G3 X305.5938 Y279.4 I8.1335 J-3.175
G1 Y215.9
G3 X306.1915 Y212.725 I8.7312 J0.0
G3 X305.5938 Y209.55 I8.1335 J-3.175
G1 Y146.05
G3 X306.1915 Y142.875 I8.7313 J0.0
G3 X305.5938 Y139.7 I8.1335 J-3.175
G1 Y76.2
G3 X306.1915 Y73.025 I8.7313 J0.0
G3 X305.5938 Y69.85 I8.1335 J-3.175
G1 Y8.7312
G1 X304.0063
G1 Y69.85
G3 X303.4085 Y73.025 I-8.7312 J0.0
G3 X304.0063 Y76.2 I-8.1335 J3.175
G1 Y139.7
G3 X303.4085 Y142.875 I-8.7312 J0.0
G0 Z25.0
G0 X302.0776 Y143.3945
G0 Z-0.9
G1 F120.0 Z-2.0
G3 F3000.0 X302.5775 Y146.05 I-6.8026 J2.6555
G1 Y209.55
G3 X301.8512 Y212.725 I-7.3025 J0.0
G3 X302.5775 Y215.9 I-6.5762 J3.175
G1 Y279.4
G3 X301.8512 Y282.575 I-7.3025 J0.0
G3 X302.5775 Y285.75 I-6.5762 J3.175
G1 Y349.25
G3 X301.8512 Y352.425 I-7.3025 J0.0
G3 X302.5775 Y355.6 I-6.5762 J3.175
G1 Y419.1
G3 X301.8512 Y422.275 I-7.3025 J0.0
G3 X302.5775 Y425.45 I-6.5762 J3.175
G1 Y488.95
G3 X301.8512 Y492.125 I-7.3025 J0.0
G3 X302.5775 Y495.3 I-6.5762 J3.175
G1 Y558.8
G3 X301.8512 Y561.975 I-7.3025 J0.0
G3 X302.5775 Y565.15 I-6.5762 J3.175
G1 Y628.65
G3 X301.8512 Y631.825 I-7.3025 J0.0
G3 X302.5775 Y635.0 I-6.5762 J3.175
G1 Y722.9475
G1 X307.0225
G1 Y635.0
G3 X307.7488 Y631.825 I7.3025 J0.0
G3 X307.0225 Y628.65 I6.5762 J-3.175
G1 Y565.15
G3 X307.7488 Y561.975 I7.3025 J0.0
G3 X307.0225 Y558.8 I6.5762 J-3.175
G1 Y495.3
G3 X307.7488 Y492.125 I7.3025 J0.0
G3 X307.0225 Y488.95 I6.5762 J-3.175
G1 Y425.45
G3 X307.7488 Y422.275 I7.3025 J0.0
G3 X307.0225 Y419.1 I6.5762 J-3.175
G1 Y355.6
G3 X307.7488 Y352.425 I7.3025 J0.0
G3 X307.0225 Y349.25 I6.5762 J-3.175
G1 Y285.75
G3 X307.7488 Y282.575 I7.3025 J0.0
G3 X307.0225 Y279.4 I6.5762 J-3.175
G1 Y215.9
G3 X307.7488 Y212.725 I7.3025 J0.0
G3 X307.0225 Y209.55 I6.5762 J-3.175
G1 Y146.05
G3 X307.7488 Y142.875 I7.3025 J0.0
G3 X307.0225 Y139.7 I6.5762 J-3.175
G1 Y76.2
G3 X307.7488 Y73.025 I7.3025 J0.0
G3 X307.0225 Y69.85 I6.5762 J-3.175
G1 Y7.3025
G1 X302.5775
G1 Y69.85
G3 X301.8512 Y73.025 I-7.3025 J0.0
G3 X302.5775 Y76.2 I-6.5762 J3.175
G1 Y139.7
G3 X301.8512 Y142.875 I-7.3025 J0.0
G3 X302.0776 Y143.3945 I-6.5762 J3.175
G0 Z25.0
G0 X299.4157 Y144.4336
G0 Z-0.9
G1 F120.0 Z-2.0
G3 F3000.0 X299.72 Y146.05 I-4.1407 J1.6164
G1 Y209.55
G3 X298.3859 Y212.725 I-4.445 J0.0
G3 X299.72 Y215.9 I-3.1109 J3.175
G1 Y279.4
G3 X298.3859 Y282.575 I-4.445 J0.0
G3 X299.72 Y285.75 I-3.1109 J3.175
G1 Y349.25
G3 X298.3859 Y352.425 I-4.445 J0.0
G3 X299.72 Y355.6 I-3.1109 J3.175
G1 Y419.1
G3 X298.3859 Y422.275 I-4.445 J0.0
G3 X299.72 Y425.45 I-3.1109 J3.175
G1 Y488.95
G3 X298.3859 Y492.125 I-4.445 J0.0
G3 X299.72 Y495.3 I-3.1109 J3.175
G1 Y558.8
G3 X298.3859 Y561.975 I-4.445 J0.0
G3 X299.72 Y565.15 I-3.1109 J3.175
G1 Y628.65
G3 X298.3859 Y631.825 I-4.445 J0.0
G3 X299.72 Y635.0 I-3.1109 J3.175
G1 Y725.805
G1 X309.88
G1 Y635.0
G3 X311.2141 Y631.825 I4.445 J0.0
G3 X309.88 Y628.65 I3.1109 J-3.175
G1 Y565.15
G3 X311.2141 Y561.975 I4.445 J0.0
G3 X309.88 Y558.8 I3.1109 J-3.175
G1 Y495.3
G3 X311.2141 Y492.125 I4.445 J0.0
G3 X309.88 Y488.95 I3.1109 J-3.175
G1 Y425.45
G3 X311.2141 Y422.275 I4.445 J0.0
G3 X309.88 Y419.1 I3.1109 J-3.175
G1 Y355.6
G3 X311.2141 Y352.425 I4.445 J0.0
G3 X309.88 Y349.25 I3.1109 J-3.175
G1 Y285.75
G3 X311.2141 Y282.575 I4.445 J0.0
G3 X309.88 Y279.4 I3.1109 J-3.175
G1 Y215.9
G3 X311.2141 Y212.725 I4.445 J0.0
G3 X309.88 Y209.55 I3.1109 J-3.175
G1 Y146.05
G3 X311.2141 Y142.875 I4.445 J0.0
G3 X309.88 Y139.7 I3.1109 J-3.175
G1 Y76.2
G3 X311.2141 Y73.025 I4.445 J0.0
G3 X309.88 Y69.85 I3.1109 J-3.175
G1 Y4.445
G1 X299.72
G1 Y69.85
G3 X298.3859 Y73.025 I-4.445 J0.0
G3 X299.72 Y76.2 I-3.1109 J3.175
G1 Y139.7
G3 X298.3859 Y142.875 I-4.445 J0.0
G3 X299.4157 Y144.4336 I-3.1109 J3.175
G0 Z25.0
G0 X296.7538 Y145.4727
G0 Z-0.9
G1 F120.0 Z-2.0
G3 F3000.0 X296.8625 Y146.05 I-1.4788 J0.5773
G1 Y209.55
G3 X295.275 Y211.1375 I-1.5875 J0.0
G1 X1.5875
G1 Y214.3125
G1 X295.275
G3 X296.8625 Y215.9 I0.0 J1.5875
G1 Y279.4
G3 X295.275 Y280.9875 I-1.5875 J0.0
G1 X1.5875
G1 Y284.1625
G1 X295.275
G3 X296.8625 Y285.75 I0.0 J1.5875
G1 Y349.25
G3 X295.275 Y350.8375 I-1.5875 J0.0
G1 X1.5875
G1 Y354.0125
G1 X295.275
G3 X296.8625 Y355.6 I0.0 J1.5875
G1 Y419.1
G3 X295.275 Y420.6875 I-1.5875 J0.0
G1 X1.5875
G1 Y423.8625
G1 X295.275
G3 X296.8625 Y425.45 I0.0 J1.5875
G1 Y488.95
G3 X295.275 Y490.5375 I-1.5875 J0.0
G1 X1.5875
G1 Y493.7125
G1 X295.275
G3 X296.8625 Y495.3 I0.0 J1.5875
G1 Y558.8
G3 X295.275 Y560.3875 I-1.5875 J0.0
G1 X1.5875
G1 Y563.5625
G1 X295.275
G3 X296.8625 Y565.15 I0.0 J1.5875
G1 Y628.65
G3 X295.275 Y630.2375 I-1.5875 J0.0
G1 X1.5875
G1 Y633.4125
G1 X295.275
G3 X296.8625 Y635.0 I0.0 J1.5875
G1 Y728.6625
G1 X312.7375
G1 Y635.0
G3 X314.325 Y633.4125 I1.5875 J0.0
G1 X608.0125
G1 Y630.2375
G1 X314.325
G3 X312.7375 Y628.65 I0.0 J-1.5875
G1 Y565.15
G3 X314.325 Y563.5625 I1.5875 J0.0
G1 X608.0125
G1 Y560.3875
G1 X314.325
G3 X312.7375 Y558.8 I0.0 J-1.5875
G1 Y495.3
G3 X314.325 Y493.7125 I1.5875 J0.0
G1 X608.0125
G1 Y490.5375
G1 X314.325
G3 X312.7375 Y488.95 I0.0 J-1.5875
G1 Y425.45
G3 X314.325 Y423.8625 I1.5875 J0.0
G1 X608.0125
G1 Y420.6875
G1 X314.325
G3 X312.7375 Y419.1 I0.0 J-1.5875
G1 Y355.6
G3 X314.325 Y354.0125 I1.5875 J0.0
G1 X608.0125
G1 Y350.8375
G1 X314.325
G3 X312.7375 Y349.25 I0.0 J-1.5875
G1 Y285.75
G3 X314.325 Y284.1625 I1.5875 J0.0
G1 X608.0125
G1 Y280.9875
G1 X314.325
G3 X312.7375 Y279.4 I0.0 J-1.5875
G1 Y215.9
G3 X314.325 Y214.3125 I1.5875 J0.0
G1 X608.0125
G1 Y211.1375
G1 X314.325
G3 X312.7375 Y209.55 I0.0 J-1.5875
G1 Y146.05
G3 X314.325 Y144.4625 I1.5875 J0.0
G1 X608.0125
G1 Y141.2875
G1 X314.325
G3 X312.7375 Y139.7 I0.0 J-1.5875
G1 Y76.2
G3 X314.325 Y74.6125 I1.5875 J0.0
G1 X608.0125
G1 Y71.4375
G1 X314.325
G3 X312.7375 Y69.85 I0.0 J-1.5875
G1 Y1.5875
G1 X296.8625
G1 Y69.85
G3 X295.275 Y71.4375 I-1.5875 J0.0
G1 X1.5875
G1 Y74.6125
G1 X295.275
G3 X296.8625 Y76.2 I0.0 J1.5875
G1 Y139.7
G3 X295.275 Y141.2875 I-1.5875 J0.0
G1 X1.5875
G1 Y144.4625
G1 X295.275
G3 X296.7538 Y145.4727 I0.0 J1.5875
G0 Z25.0
G0 X303.4085 Y142.875
G0 Z-1.9
G1 F120.0 Z-3.0
G3 F3000.0 X304.0063 Y146.05 I-8.1335 J3.175
G1 Y209.55
G3 X303.4085 Y212.725 I-8.7312 J0.0
G3 X304.0063 Y215.9 I-8.1335 J3.175
G1 Y279.4
G3 X303.4085 Y282.575 I-8.7312 J0.0
G3 X304.0063 Y285.75 I-8.1335 J3.175
G1 Y349.25
G3 X303.4085 Y352.425 I-8.7312 J0.0
G3 X304.0063 Y355.6 I-8.1335 J3.175
G1 Y419.1
G3 X303.4085 Y422.275 I-8.7312 J0.0
G3 X304.0063 Y425.45 I-8.1335 J3.175
G1 Y488.95
G3 X303.4085 Y492.125 I-8.7312 J0.0
G3 X304.0063 Y495.3 I-8.1335 J3.175
G1 Y558.8
G3 X303.4085 Y561.975 I-8.7312 J0.0
G3 X304.0063 Y565.15 I-8.1335 J3.175
G1 Y628.65
G3 X303.4085 Y631.825 I-8.7312 J0.0
G3 X304.0063 Y635.0 I-8.1335 J3.175
G1 Y721.5188
G1 X305.5938
G1 Y635.0
G3 X306.1915 Y631.825 I8.7312 J0.0
G3 X305.5938 Y628.65 I8.1335 J-3.175
G1 Y565.15
G3 X306.1915 Y561.975 I8.7313 J0.0
G3 X305.5938 Y558.8 I8.1335 J-3.175
G1 Y495.3
G3 X306.1915 Y492.125 I8.7313 J0.0
G3 X305.5938 Y488.95 I8.1335 J-3.175
G1 Y425.45
G3 X306.1915 Y422.275 I8.7313 J0.0
G3 X305.5938 Y419.1 I8.1335 J-3.175
G1 Y355.6
G3 X306.1915 Y352.425 I8.7313 J0.0
G3 X305.5938 Y349.25 I8.1335 J-3.175
G1 Y285.75
G3 X306.1915 Y282.575 I8.7313 J0.0
G3 X305.5938 Y279.4 I8.1335 J-3.175
G1 Y215.9
G3 X306.1915 Y212.725 I8.7312 J0.0
G3 X305.5938 Y209.55 I8.1335 J-3.175
G1 Y146.05
G3 X306.1915 Y142.875 I8.7313 J0.0
G3 X305.5938 Y139.7 I8.1335 J-3.175
G1 Y76.2
G3 X306.1915 Y73.025 I8.7313 J0.0
G3 X305.5938 Y69.85 I8.1335 J-3.175
G1 Y8.7312
G1 X304.0063
G1 Y69.85
G3 X303.4085 Y73.025 I-8.7312 J0.0
G3 X304.0063 Y76.2 I-8.1335 J3.175
G1 Y139.7
G3 X303.4085 Y142.875 I-8.7312 J0.0
G0 Z25.0
G0 X302.0776 Y143.3945
G0 Z-1.9
G1 F120.0 Z-3.0
G3 F3000.0 X302.5775 Y146.05 I-6.8026 J2.6555
G1 Y209.55
G3 X301.8512 Y212.725 I-7.3025 J0.0
G3 X302.5775 Y215.9 I-6.5762 J3.175
G1 Y279.4
G3 X301.8512 Y282.575 I-7.3025 J0.0
G3 X302.5775 Y285.75 I-6.5762 J3.175
G1 Y349.25
G3 X301.8512 Y352.425 I-7.3025 J0.0
G3 X302.5775 Y355.6 I-6.5762 J3.175
G1 Y419.1
G3 X301.8512 Y422.275 I-7.3025 J0.0
G3 X302.5775 Y425.45 I-6.5762 J3.175
G1 Y488.95
G3 X301.8512 Y492.125 I-7.3025 J0.0
G3 X302.5775 Y495.3 I-6.5762 J3.175
G1 Y558.8
G3 X301.8512 Y561.975 I-7.3025 J0.0
G3 X302.5775 Y565.15 I-6.5762 J3.175
G1 Y628.65
G3 X301.8512 Y631.825 I-7.3025 J0.0
G3 X302.5775 Y635.0 I-6.5762 J3.175
G1 Y722.9475
G1 X307.0225
G1 Y635.0
G3 X307.7488 Y631.825 I7.3025 J0.0
G3 X307.0225 Y628.65 I6.5762 J-3.175
G1 Y565.15
G3 X307.7488 Y561.975 I7.3025 J0.0
G3 X307.0225 Y558.8 I6.5762 J-3.175
G1 Y495.3
G3 X307.7488 Y492.125 I7.3025 J0.0
G3 X307.0225 Y488.95 I6.5762 J-3.175
G1 Y425.45
G3 X307.7488 Y422.275 I7.3025 J0.0
G3 X307.0225 Y419.1 I6.5762 J-3.175
G1 Y355.6
G3 X307.7488 Y352.425 I7.3025 J0.0
G3 X307.0225 Y349.25 I6.5762 J-3.175
G1 Y285.75
G3 X307.7488 Y282.575 I7.3025 J0.0
G3 X307.0225 Y279.4 I6.5762 J-3.175
G1 Y215.9
G3 X307.7488 Y212.725 I7.3025 J0.0
G3 X307.0225 Y209.55 I6.5762 J-3.175
G1 Y146.05
G3 X307.7488 Y142.875 I7.3025 J0.0
G3 X307.0225 Y139.7 I6.5762 J-3.175
G1 Y76.2
G3 X307.7488 Y73.025 I7.3025 J0.0
G3 X307.0225 Y69.85 I6.5762 J-3.175
G1 Y7.3025
G1 X302.5775
G1 Y69.85
G3 X301.8512 Y73.025 I-7.3025 J0.0
G3 X302.5775 Y76.2 I-6.5762 J3.175
G1 Y139.7
G3 X301.8512 Y142.875 I-7.3025 J0.0
G3 X302.0776 Y143.3945 I-6.5762 J3.175
G0 Z25.0
G0 X299.4157 Y144.4336
G0 Z-1.9
G1 F120.0 Z-3.0
G3 F3000.0 X299.72 Y146.05 I-4.1407 J1.6164
G1 Y209.55
G3 X298.3859 Y212.725 I-4.445 J0.0
G3 X299.72 Y215.9 I-3.1109 J3.175
G1 Y279.4
G3 X298.3859 Y282.575 I-4.445 J0.0
G3 X299.72 Y285.75 I-3.1109 J3.175
G1 Y349.25
G3 X298.3859 Y352.425 I-4.445 J0.0
G3 X299.72 Y355.6 I-3.1109 J3.175
G1 Y419.1
G3 X298.3859 Y422.275 I-4.445 J0.0
G3 X299.72 Y425.45 I-3.1109 J3.175
G1 Y488.95
G3 X298.3859 Y492.125 I-4.445 J0.0
G3 X299.72 Y495.3 I-3.1109 J3.175
G1 Y558.8
G3 X298.3859 Y561.975 I-4.445 J0.0
G3 X299.72 Y565.15 I-3.1109 J3.175
G1 Y628.65
G3 X298.3859 Y631.825 I-4.445 J0.0
G3 X299.72 Y635.0 I-3.1109 J3.175
G1 Y725.805
G1 X309.88
G1 Y635.0
G3 X311.2141 Y631.825 I4.445 J0.0
G3 X309.88 Y628.65 I3.1109 J-3.175
G1 Y565.15
G3 X311.2141 Y561.975 I4.445 J0.0
G3 X309.88 Y558.8 I3.1109 J-3.175
G1 Y495.3
G3 X311.2141 Y492.125 I4.445 J0.0
G3 X309.88 Y488.95 I3.1109 J-3.175
G1 Y425.45
G3 X311.2141 Y422.275 I4.445 J0.0
G3 X309.88 Y419.1 I3.1109 J-3.175
G1 Y355.6
G3 X311.2141 Y352.425 I4.445 J0.0
G3 X309.88 Y349.25 I3.1109 J-3.175
G1 Y285.75
G3 X311.2141 Y282.575 I4.445 J0.0
G3 X309.88 Y279.4 I3.1109 J-3.175
G1 Y215.9
G3 X311.2141 Y212.725 I4.445 J0.0
G3 X309.88 Y209.55 I3.1109 J-3.175
G1 Y146.05
G3 X311.2141 Y142.875 I4.445 J0.0
G3 X309.88 Y139.7 I3.1109 J-3.175
G1 Y76.2
G3 X311.2141 Y73.025 I4.445 J0.0
G3 X309.88 Y69.85 I3.1109 J-3.175
G1 Y4.445
G1 X299.72
G1 Y69.85
G3 X298.3859 Y73.025 I-4.445 J0.0
G3 X299.72 Y76.2 I-3.1109 J3.175
G1 Y139.7
G3 X298.3859 Y142.875 I-4.445 J0.0
G3 X299.4157 Y144.4336 I-3.1109 J3.175
G0 Z25.0
G0 X296.7538 Y145.4727
G0 Z-1.9
G1 F120.0 Z-3.0
G3 F3000.0 X296.8625 Y146.05 I-1.4788 J0.5773
G1 Y209.55
G3 X295.275 Y211.1375 I-1.5875 J0.0
G1 X1.5875
G1 Y214.3125
G1 X295.275
G3 X296.8625 Y215.9 I0.0 J1.5875
G1 Y279.4
G3 X295.275 Y280.9875 I-1.5875 J0.0
G1 X1.5875
G1 Y284.1625
G1 X295.275
G3 X296.8625 Y285.75 I0.0 J1.5875
G1 Y349.25
G3 X295.275 Y350.8375 I-1.5875 J0.0
G1 X1.5875
G1 Y354.0125
G1 X295.275
G3 X296.8625 Y355.6 I0.0 J1.5875
G1 Y419.1
G3 X295.275 Y420.6875 I-1.5875 J0.0
G1 X1.5875
G1 Y423.8625
G1 X295.275
G3 X296.8625 Y425.45 I0.0 J1.5875
G1 Y488.95
G3 X295.275 Y490.5375 I-1.5875 J0.0
G1 X1.5875
G1 Y493.7125
G1 X295.275
G3 X296.8625 Y495.3 I0.0 J1.5875
G1 Y558.8
G3 X295.275 Y560.3875 I-1.5875 J0.0
G1 X1.5875
G1 Y563.5625
G1 X295.275
G3 X296.8625 Y565.15 I0.0 J1.5875
G1 Y628.65
G3 X295.275 Y630.2375 I-1.5875 J0.0
G1 X1.5875
G1 Y633.4125
G1 X295.275
G3 X296.8625 Y635.0 I0.0 J1.5875
G1 Y728.6625
G1 X312.7375
G1 Y635.0
G3 X314.325 Y633.4125 I1.5875 J0.0
G1 X608.0125
G1 Y630.2375
G1 X314.325
G3 X312.7375 Y628.65 I0.0 J-1.5875
G1 Y565.15
G3 X314.325 Y563.5625 I1.5875 J0.0
G1 X608.0125
G1 Y560.3875
G1 X314.325
G3 X312.7375 Y558.8 I0.0 J-1.5875
G1 Y495.3
G3 X314.325 Y493.7125 I1.5875 J0.0
G1 X608.0125
G1 Y490.5375
G1 X314.325
G3 X312.7375 Y488.95 I0.0 J-1.5875
G1 Y425.45
G3 X314.325 Y423.8625 I1.5875 J0.0
G1 X608.0125
G1 Y420.6875
G1 X314.325
G3 X312.7375 Y419.1 I0.0 J-1.5875
G1 Y355.6
G3 X314.325 Y354.0125 I1.5875 J0.0
G1 X608.0125
G1 Y350.8375
G1 X314.325
G3 X312.7375 Y349.25 I0.0 J-1.5875
G1 Y285.75
G3 X314.325 Y284.1625 I1.5875 J0.0
G1 X608.0125
G1 Y280.9875
G1 X314.325
G3 X312.7375 Y279.4 I0.0 J-1.5875
G1 Y215.9
G3 X314.325 Y214.3125 I1.5875 J0.0
G1 X608.0125
G1 Y211.1375
G1 X314.325
G3 X312.7375 Y209.55 I0.0 J-1.5875
G1 Y146.05
G3 X314.325 Y144.4625 I1.5875 J0.0
G1 X608.0125
G1 Y141.2875
G1 X314.325
G3 X312.7375 Y139.7 I0.0 J-1.5875
G1 Y76.2
G3 X314.325 Y74.6125 I1.5875 J0.0
G1 X608.0125
G1 Y71.4375
G1 X314.325
G3 X312.7375 Y69.85 I0.0 J-1.5875
G1 Y1.5875
G1 X296.8625
G1 Y69.85
G3 X295.275 Y71.4375 I-1.5875 J0.0
G1 X1.5875
G1 Y74.6125
G1 X295.275
G3 X296.8625 Y76.2 I0.0 J1.5875
G1 Y139.7
G3 X295.275 Y141.2875 I-1.5875 J0.0
G1 X1.5875
G1 Y144.4625
G1 X295.275
G3 X296.7538 Y145.4727 I0.0 J1.5875
G0 Z25.0
G0 X303.4085 Y142.875
G0 Z-2.9
G1 F120.0 Z-4.0
G3 F3000.0 X304.0063 Y146.05 I-8.1335 J3.175
G1 Y209.55
G3 X303.4085 Y212.725 I-8.7312 J0.0
G3 X304.0063 Y215.9 I-8.1335 J3.175
G1 Y279.4
G3 X303.4085 Y282.575 I-8.7312 J0.0
G3 X304.0063 Y285.75 I-8.1335 J3.175
G1 Y349.25
G3 X303.4085 Y352.425 I-8.7312 J0.0
G3 X304.0063 Y355.6 I-8.1335 J3.175
G1 Y419.1
G3 X303.4085 Y422.275 I-8.7312 J0.0
G3 X304.0063 Y425.45 I-8.1335 J3.175
G1 Y488.95
G3 X303.4085 Y492.125 I-8.7312 J0.0
G3 X304.0063 Y495.3 I-8.1335 J3.175
G1 Y558.8
G3 X303.4085 Y561.975 I-8.7312 J0.0
G3 X304.0063 Y565.15 I-8.1335 J3.175
G1 Y628.65
G3 X303.4085 Y631.825 I-8.7312 J0.0
G3 X304.0063 Y635.0 I-8.1335 J3.175
G1 Y721.5188
G1 X305.5938
G1 Y635.0
G3 X306.1915 Y631.825 I8.7312 J0.0
G3 X305.5938 Y628.65 I8.1335 J-3.175
G1 Y565.15
G3 X306.1915 Y561.975 I8.7313 J0.0
G3 X305.5938 Y558.8 I8.1335 J-3.175
G1 Y495.3
G3 X306.1915 Y492.125 I8.7313 J0.0
G3 X305.5938 Y488.95 I8.1335 J-3.175
G1 Y425.45
G3 X306.1915 Y422.275 I8.7313 J0.0
G3 X305.5938 Y419.1 I8.1335 J-3.175
G1 Y355.6
G3 X306.1915 Y352.425 I8.7313 J0.0
G3 X305.5938 Y349.25 I8.1335 J-3.175
G1 Y285.75
G3 X306.1915 Y282.575 I8.7313 J0.0
G3 X305.5938 Y279.4 I8.1335 J-3.175
G1 Y215.9
G3 X306.1915 Y212.725 I8.7312 J0.0
G3 X305.5938 Y209.55 I8.1335 J-3.175
G1 Y146.05
G3 X306.1915 Y142.875 I8.7313 J0.0
G3 X305.5938 Y139.7 I8.1335 J-3.175
G1 Y76.2
G3 X306.1915 Y73.025 I8.7313 J0.0
G3 X305.5938 Y69.85 I8.1335 J-3.175
G1 Y8.7312
G1 X304.0063
G1 Y69.85
G3 X303.4085 Y73.025 I-8.7312 J0.0
G3 X304.0063 Y76.2 I-8.1335 J3.175
G1 Y139.7
G3 X303.4085 Y142.875 I-8.7312 J0.0
G0 Z25.0
G0 X302.0776 Y143.3945
G0 Z-2.9
G1 F120.0 Z-4.0
G3 F3000.0 X302.5775 Y146.05 I-6.8026 J2.6555
G1 Y209.55
G3 X301.8512 Y212.725 I-7.3025 J0.0
G3 X302.5775 Y215.9 I-6.5762 J3.175
G1 Y279.4
G3 X301.8512 Y282.575 I-7.3025 J0.0
G3 X302.5775 Y285.75 I-6.5762 J3.175
G1 Y349.25
G3 X301.8512 Y352.425 I-7.3025 J0.0
G3 X302.5775 Y355.6 I-6.5762 J3.175
G1 Y419.1
G3 X301.8512 Y422.275 I-7.3025 J0.0
G3 X302.5775 Y425.45 I-6.5762 J3.175
G1 Y488.95
G3 X301.8512 Y492.125 I-7.3025 J0.0
G3 X302.5775 Y495.3 I-6.5762 J3.175
G1 Y558.8
G3 X301.8512 Y561.975 I-7.3025 J0.0
G3 X302.5775 Y565.15 I-6.5762 J3.175
G1 Y628.65
G3 X301.8512 Y631.825 I-7.3025 J0.0
G3 X302.5775 Y635.0 I-6.5762 J3.175
G1 Y722.9475
G1 X307.0225
G1 Y635.0
G3 X307.7488 Y631.825 I7.3025 J0.0
G3 X307.0225 Y628.65 I6.5762 J-3.175
G1 Y565.15
G3 X307.7488 Y561.975 I7.3025 J0.0
G3 X307.0225 Y558.8 I6.5762 J-3.175
G1 Y495.3
G3 X307.7488 Y492.125 I7.3025 J0.0
G3 X307.0225 Y488.95 I6.5762 J-3.175
G1 Y425.45
G3 X307.7488 Y422.275 I7.3025 J0.0
G3 X307.0225 Y419.1 I6.5762 J-3.175
G1 Y355.6
G3 X307.7488 Y352.425 I7.3025 J0.0
G3 X307.0225 Y349.25 I6.5762 J-3.175
G1 Y285.75
G3 X307.7488 Y282.575 I7.3025 J0.0
G3 X307.0225 Y279.4 I6.5762 J-3.175
G1 Y215.9
G3 X307.7488 Y212.725 I7.3025 J0.0
G3 X307.0225 Y209.55 I6.5762 J-3.175
G1 Y146.05
G3 X307.7488 Y142.875 I7.3025 J0.0
G3 X307.0225 Y139.7 I6.5762 J-3.175
G1 Y76.2
G3 X307.7488 Y73.025 I7.3025 J0.0
G3 X307.0225 Y69.85 I6.5762 J-3.175
G1 Y7.3025
G1 X302.5775
G1 Y69.85
G3 X301.8512 Y73.025 I-7.3025 J0.0
G3 X302.5775 Y76.2 I-6.5762 J3.175
G1 Y139.7
G3 X301.8512 Y142.875 I-7.3025 J0.0
G3 X302.0776 Y143.3945 I-6.5762 J3.175
G0 Z25.0
G0 X299.4157 Y144.4336
G0 Z-2.9
G1 F120.0 Z-4.0
G3 F3000.0 X299.72 Y146.05 I-4.1407 J1.6164
G1 Y209.55
G3 X298.3859 Y212.725 I-4.445 J0.0
G3 X299.72 Y215.9 I-3.1109 J3.175
G1 Y279.4
G3 X298.3859 Y282.575 I-4.445 J0.0
G3 X299.72 Y285.75 I-3.1109 J3.175
G1 Y349.25
G3 X298.3859 Y352.425 I-4.445 J0.0
G3 X299.72 Y355.6 I-3.1109 J3.175
G1 Y419.1
G3 X298.3859 Y422.275 I-4.445 J0.0
G3 X299.72 Y425.45 I-3.1109 J3.175
G1 Y488.95
G3 X298.3859 Y492.125 I-4.445 J0.0
G3 X299.72 Y495.3 I-3.1109 J3.175
G1 Y558.8
G3 X298.3859 Y561.975 I-4.445 J0.0
G3 X299.72 Y565.15 I-3.1109 J3.175
G1 Y628.65
G3 X298.3859 Y631.825 I-4.445 J0.0
G3 X299.72 Y635.0 I-3.1109 J3.175
G1 Y725.805
G1 X309.88
G1 Y635.0
G3 X311.2141 Y631.825 I4.445 J0.0
G3 X309.88 Y628.65 I3.1109 J-3.175
G1 Y565.15
G3 X311.2141 Y561.975 I4.445 J0.0
G3 X309.88 Y558.8 I3.1109 J-3.175
G1 Y495.3
G3 X311.2141 Y492.125 I4.445 J0.0
G3 X309.88 Y488.95 I3.1109 J-3.175
G1 Y425.45
G3 X311.2141 Y422.275 I4.445 J0.0
G3 X309.88 Y419.1 I3.1109 J-3.175
G1 Y355.6
G3 X311.2141 Y352.425 I4.445 J0.0
G3 X309.88 Y349.25 I3.1109 J-3.175
G1 Y285.75
G3 X311.2141 Y282.575 I4.445 J0.0
G3 X309.88 Y279.4 I3.1109 J-3.175
G1 Y215.9
G3 X311.2141 Y212.725 I4.445 J0.0
G3 X309.88 Y209.55 I3.1109 J-3.175
G1 Y146.05
G3 X311.2141 Y142.875 I4.445 J0.0
G3 X309.88 Y139.7 I3.1109 J-3.175
G1 Y76.2
G3 X311.2141 Y73.025 I4.445 J0.0
G3 X309.88 Y69.85 I3.1109 J-3.175
G1 Y4.445
G1 X299.72
G1 Y69.85
G3 X298.3859 Y73.025 I-4.445 J0.0
G3 X299.72 Y76.2 I-3.1109 J3.175
G1 Y139.7
G3 X298.3859 Y142.875 I-4.445 J0.0
G3 X299.4157 Y144.4336 I-3.1109 J3.175
G0 Z25.0
G0 X296.7538 Y145.4727
G0 Z-2.9
G1 F120.0 Z-4.0
G3 F3000.0 X296.8625 Y146.05 I-1.4788 J0.5773
G1 Y209.55
G3 X295.275 Y211.1375 I-1.5875 J0.0
G1 X1.5875
G1 Y214.3125
G1 X295.275
G3 X296.8625 Y215.9 I0.0 J1.5875
G1 Y279.4
G3 X295.275 Y280.9875 I-1.5875 J0.0
G1 X1.5875
G1 Y284.1625
G1 X295.275
G3 X296.8625 Y285.75 I0.0 J1.5875
G1 Y349.25
G3 X295.275 Y350.8375 I-1.5875 J0.0
G1 X1.5875
G1 Y354.0125
G1 X295.275
G3 X296.8625 Y355.6 I0.0 J1.5875
G1 Y419.1
G3 X295.275 Y420.6875 I-1.5875 J0.0
G1 X1.5875
G1 Y423.8625
G1 X295.275
G3 X296.8625 Y425.45 I0.0 J1.5875
G1 Y488.95
G3 X295.275 Y490.5375 I-1.5875 J0.0
G1 X1.5875
G1 Y493.7125
G1 X295.275
G3 X296.8625 Y495.3 I0.0 J1.5875
G1 Y558.8
G3 X295.275 Y560.3875 I-1.5875 J0.0
G1 X1.5875
G1 Y563.5625
G1 X295.275
G3 X296.8625 Y565.15 I0.0 J1.5875
G1 Y628.65
G3 X295.275 Y630.2375 I-1.5875 J0.0
G1 X1.5875
G1 Y633.4125
G1 X295.275
G3 X296.8625 Y635.0 I0.0 J1.5875
G1 Y728.6625
G1 X312.7375
G1 Y635.0
G3 X314.325 Y633.4125 I1.5875 J0.0
G1 X608.0125
G1 Y630.2375
G1 X314.325
G3 X312.7375 Y628.65 I0.0 J-1.5875
G1 Y565.15
G3 X314.325 Y563.5625 I1.5875 J0.0
G1 X608.0125
G1 Y560.3875
G1 X314.325
G3 X312.7375 Y558.8 I0.0 J-1.5875
G1 Y495.3
G3 X314.325 Y493.7125 I1.5875 J0.0
G1 X608.0125
G1 Y490.5375
G1 X314.325
G3 X312.7375 Y488.95 I0.0 J-1.5875
G1 Y425.45
G3 X314.325 Y423.8625 I1.5875 J0.0
G1 X608.0125
G1 Y420.6875
G1 X314.325
G3 X312.7375 Y419.1 I0.0 J-1.5875
G1 Y355.6
G3 X314.325 Y354.0125 I1.5875 J0.0
G1 X608.0125
G1 Y350.8375
G1 X314.325
G3 X312.7375 Y349.25 I0.0 J-1.5875
G1 Y285.75
G3 X314.325 Y284.1625 I1.5875 J0.0
G1 X608.0125
G1 Y280.9875
G1 X314.325
G3 X312.7375 Y279.4 I0.0 J-1.5875
G1 Y215.9
G3 X314.325 Y214.3125 I1.5875 J0.0
G1 X608.0125
G1 Y211.1375
G1 X314.325
G3 X312.7375 Y209.55 I0.0 J-1.5875
G1 Y146.05
G3 X314.325 Y144.4625 I1.5875 J0.0
G1 X608.0125
G1 Y141.2875
G1 X314.325
G3 X312.7375 Y139.7 I0.0 J-1.5875
G1 Y76.2
G3 X314.325 Y74.6125 I1.5875 J0.0
G1 X608.0125
G1 Y71.4375
G1 X314.325
G3 X312.7375 Y69.85 I0.0 J-1.5875
G1 Y1.5875
G1 X296.8625
G1 Y69.85
G3 X295.275 Y71.4375 I-1.5875 J0.0
G1 X1.5875
G1 Y74.6125
G1 X295.275
G3 X296.8625 Y76.2 I0.0 J1.5875
G1 Y139.7
G3 X295.275 Y141.2875 I-1.5875 J0.0
G1 X1.5875
G1 Y144.4625
G1 X295.275
G3 X296.7538 Y145.4727 I0.0 J1.5875
G0 Z25.0
G0 X303.4085 Y142.875
G0 Z-3.9
G1 F120.0 Z-5.0
G3 F3000.0 X304.0063 Y146.05 I-8.1335 J3.175
G1 Y209.55
G3 X303.4085 Y212.725 I-8.7312 J0.0
G3 X304.0063 Y215.9 I-8.1335 J3.175
G1 Y279.4
G3 X303.4085 Y282.575 I-8.7312 J0.0
G3 X304.0063 Y285.75 I-8.1335 J3.175
G1 Y349.25
G3 X303.4085 Y352.425 I-8.7312 J0.0
G3 X304.0063 Y355.6 I-8.1335 J3.175
G1 Y419.1
G3 X303.4085 Y422.275 I-8.7312 J0.0
G3 X304.0063 Y425.45 I-8.1335 J3.175
G1 Y488.95
G3 X303.4085 Y492.125 I-8.7312 J0.0
G3 X304.0063 Y495.3 I-8.1335 J3.175
G1 Y558.8
G3 X303.4085 Y561.975 I-8.7312 J0.0
G3 X304.0063 Y565.15 I-8.1335 J3.175
G1 Y628.65
G3 X303.4085 Y631.825 I-8.7312 J0.0
G3 X304.0063 Y635.0 I-8.1335 J3.175
G1 Y721.5188
G1 X305.5938
G1 Y635.0
G3 X306.1915 Y631.825 I8.7312 J0.0
G3 X305.5938 Y628.65 I8.1335 J-3.175
G1 Y565.15
G3 X306.1915 Y561.975 I8.7313 J0.0
G3 X305.5938 Y558.8 I8.1335 J-3.175
G1 Y495.3
G3 X306.1915 Y492.125 I8.7313 J0.0
G3 X305.5938 Y488.95 I8.1335 J-3.175
G1 Y425.45
G3 X306.1915 Y422.275 I8.7313 J0.0
G3 X305.5938 Y419.1 I8.1335 J-3.175
G1 Y355.6
G3 X306.1915 Y352.425 I8.7313 J0.0
G3 X305.5938 Y349.25 I8.1335 J-3.175
G1 Y285.75
G3 X306.1915 Y282.575 I8.7313 J0.0
G3 X305.5938 Y279.4 I8.1335 J-3.175
G1 Y215.9
G3 X306.1915 Y212.725 I8.7312 J0.0
G3 X305.5938 Y209.55 I8.1335 J-3.175
G1 Y146.05
G3 X306.1915 Y142.875 I8.7313 J0.0
G3 X305.5938 Y139.7 I8.1335 J-3.175
G1 Y76.2
G3 X306.1915 Y73.025 I8.7313 J0.0
G3 X305.5938 Y69.85 I8.1335 J-3.175
G1 Y8.7312
G1 X304.0063
G1 Y69.85
G3 X303.4085 Y73.025 I-8.7312 J0.0
G3 X304.0063 Y76.2 I-8.1335 J3.175
G1 Y139.7
G3 X303.4085 Y142.875 I-8.7312 J0.0
G0 Z25.0
G0 X302.0776 Y143.3945
G0 Z-3.9
G1 F120.0 Z-5.0
G3 F3000.0 X302.5775 Y146.05 I-6.8026 J2.6555
G1 Y209.55
G3 X301.8512 Y212.725 I-7.3025 J0.0
G3 X302.5775 Y215.9 I-6.5762 J3.175
G1 Y279.4
G3 X301.8512 Y282.575 I-7.3025 J0.0
G3 X302.5775 Y285.75 I-6.5762 J3.175
G1 Y349.25
G3 X301.8512 Y352.425 I-7.3025 J0.0
G3 X302.5775 Y355.6 I-6.5762 J3.175
G1 Y419.1
G3 X301.8512 Y422.275 I-7.3025 J0.0
G3 X302.5775 Y425.45 I-6.5762 J3.175
G1 Y488.95
G3 X301.8512 Y492.125 I-7.3025 J0.0
G3 X302.5775 Y495.3 I-6.5762 J3.175
G1 Y558.8
G3 X301.8512 Y561.975 I-7.3025 J0.0
G3 X302.5775 Y565.15 I-6.5762 J3.175
G1 Y628.65
G3 X301.8512 Y631.825 I-7.3025 J0.0
G3 X302.5775 Y635.0 I-6.5762 J3.175
G1 Y722.9475
G1 X307.0225
G1 Y635.0
G3 X307.7488 Y631.825 I7.3025 J0.0
G3 X307.0225 Y628.65 I6.5762 J-3.175
G1 Y565.15
G3 X307.7488 Y561.975 I7.3025 J0.0
G3 X307.0225 Y558.8 I6.5762 J-3.175
G1 Y495.3
G3 X307.7488 Y492.125 I7.3025 J0.0
G3 X307.0225 Y488.95 I6.5762 J-3.175
G1 Y425.45
G3 X307.7488 Y422.275 I7.3025 J0.0
G3 X307.0225 Y419.1 I6.5762 J-3.175
G1 Y355.6
G3 X307.7488 Y352.425 I7.3025 J0.0
G3 X307.0225 Y349.25 I6.5762 J-3.175
G1 Y285.75
G3 X307.7488 Y282.575 I7.3025 J0.0
G3 X307.0225 Y279.4 I6.5762 J-3.175
G1 Y215.9
G3 X307.7488 Y212.725 I7.3025 J0.0
G3 X307.0225 Y209.55 I6.5762 J-3.175
G1 Y146.05
G3 X307.7488 Y142.875 I7.3025 J0.0
G3 X307.0225 Y139.7 I6.5762 J-3.175
G1 Y76.2
G3 X307.7488 Y73.025 I7.3025 J0.0
G3 X307.0225 Y69.85 I6.5762 J-3.175
G1 Y7.3025
G1 X302.5775
G1 Y69.85
G3 X301.8512 Y73.025 I-7.3025 J0.0
G3 X302.5775 Y76.2 I-6.5762 J3.175
G1 Y139.7
G3 X301.8512 Y142.875 I-7.3025 J0.0
G3 X302.0776 Y143.3945 I-6.5762 J3.175
G0 Z25.0
G0 X299.4157 Y144.4336
G0 Z-3.9
G1 F120.0 Z-5.0
G3 F3000.0 X299.72 Y146.05 I-4.1407 J1.6164
G1 Y209.55
G3 X298.3859 Y212.725 I-4.445 J0.0
G3 X299.72 Y215.9 I-3.1109 J3.175
G1 Y279.4
G3 X298.3859 Y282.575 I-4.445 J0.0
G3 X299.72 Y285.75 I-3.1109 J3.175
G1 Y349.25
G3 X298.3859 Y352.425 I-4.445 J0.0
G3 X299.72 Y355.6 I-3.1109 J3.175
G1 Y419.1
G3 X298.3859 Y422.275 I-4.445 J0.0
G3 X299.72 Y425.45 I-3.1109 J3.175
G1 Y488.95
G3 X298.3859 Y492.125 I-4.445 J0.0
G3 X299.72 Y495.3 I-3.1109 J3.175
G1 Y558.8
G3 X298.3859 Y561.975 I-4.445 J0.0
G3 X299.72 Y565.15 I-3.1109 J3.175
G1 Y628.65
G3 X298.3859 Y631.825 I-4.445 J0.0
G3 X299.72 Y635.0 I-3.1109 J3.175
G1 Y725.805
G1 X309.88
G1 Y635.0
G3 X311.2141 Y631.825 I4.445 J0.0
G3 X309.88 Y628.65 I3.1109 J-3.175
G1 Y565.15
G3 X311.2141 Y561.975 I4.445 J0.0
G3 X309.88 Y558.8 I3.1109 J-3.175
G1 Y495.3
G3 X311.2141 Y492.125 I4.445 J0.0
G3 X309.88 Y488.95 I3.1109 J-3.175
G1 Y425.45
G3 X311.2141 Y422.275 I4.445 J0.0
G3 X309.88 Y419.1 I3.1109 J-3.175
G1 Y355.6
G3 X311.2141 Y352.425 I4.445 J0.0
G3 X309.88 Y349.25 I3.1109 J-3.175
G1 Y285.75
G3 X311.2141 Y282.575 I4.445 J0.0
G3 X309.88 Y279.4 I3.1109 J-3.175
G1 Y215.9
G3 X311.2141 Y212.725 I4.445 J0.0
G3 X309.88 Y209.55 I3.1109 J-3.175
G1 Y146.05
G3 X311.2141 Y142.875 I4.445 J0.0
G3 X309.88 Y139.7 I3.1109 J-3.175
G1 Y76.2
G3 X311.2141 Y73.025 I4.445 J0.0
G3 X309.88 Y69.85 I3.1109 J-3.175
G1 Y4.445
G1 X299.72
G1 Y69.85
G3 X298.3859 Y73.025 I-4.445 J0.0
G3 X299.72 Y76.2 I-3.1109 J3.175
G1 Y139.7
G3 X298.3859 Y142.875 I-4.445 J0.0
G3 X299.4157 Y144.4336 I-3.1109 J3.175
G0 Z25.0
G0 X296.7538 Y145.4727
G0 Z-3.9
G1 F120.0 Z-5.0
G3 F3000.0 X296.8625 Y146.05 I-1.4788 J0.5773
G1 Y209.55
G3 X295.275 Y211.1375 I-1.5875 J0.0
G1 X1.5875
G1 Y214.3125
G1 X295.275
G3 X296.8625 Y215.9 I0.0 J1.5875
G1 Y279.4
G3 X295.275 Y280.9875 I-1.5875 J0.0
G1 X1.5875
G1 Y284.1625
G1 X295.275
G3 X296.8625 Y285.75 I0.0 J1.5875
G1 Y349.25
G3 X295.275 Y350.8375 I-1.5875 J0.0
G1 X1.5875
G1 Y354.0125
G1 X295.275
G3 X296.8625 Y355.6 I0.0 J1.5875
G1 Y419.1
G3 X295.275 Y420.6875 I-1.5875 J0.0
G1 X1.5875
G1 Y423.8625
G1 X295.275
G3 X296.8625 Y425.45 I0.0 J1.5875
G1 Y488.95
G3 X295.275 Y490.5375 I-1.5875 J0.0
G1 X1.5875
G1 Y493.7125
G1 X295.275
G3 X296.8625 Y495.3 I0.0 J1.5875
G1 Y558.8
G3 X295.275 Y560.3875 I-1.5875 J0.0
G1 X1.5875
G1 Y563.5625
G1 X295.275
G3 X296.8625 Y565.15 I0.0 J1.5875
G1 Y628.65
G3 X295.275 Y630.2375 I-1.5875 J0.0
G1 X1.5875
G1 Y633.4125
G1 X295.275
G3 X296.8625 Y635.0 I0.0 J1.5875
G1 Y728.6625
G1 X312.7375
G1 Y635.0
G3 X314.325 Y633.4125 I1.5875 J0.0
G1 X608.0125
G1 Y630.2375
G1 X314.325
G3 X312.7375 Y628.65 I0.0 J-1.5875
G1 Y565.15
G3 X314.325 Y563.5625 I1.5875 J0.0
G1 X608.0125
G1 Y560.3875
G1 X314.325
G3 X312.7375 Y558.8 I0.0 J-1.5875
G1 Y495.3
G3 X314.325 Y493.7125 I1.5875 J0.0
G1 X608.0125
G1 Y490.5375
G1 X314.325
G3 X312.7375 Y488.95 I0.0 J-1.5875
G1 Y425.45
G3 X314.325 Y423.8625 I1.5875 J0.0
G1 X608.0125
G1 Y420.6875
G1 X314.325
G3 X312.7375 Y419.1 I0.0 J-1.5875
G1 Y355.6
G3 X314.325 Y354.0125 I1.5875 J0.0
G1 X608.0125
G1 Y350.8375
G1 X314.325
G3 X312.7375 Y349.25 I0.0 J-1.5875
G1 Y285.75
G3 X314.325 Y284.1625 I1.5875 J0.0
G1 X608.0125
G1 Y280.9875
G1 X314.325
G3 X312.7375 Y279.4 I0.0 J-1.5875
G1 Y215.9
G3 X314.325 Y214.3125 I1.5875 J0.0
G1 X608.0125
G1 Y211.1375
G1 X314.325
G3 X312.7375 Y209.55 I0.0 J-1.5875
G1 Y146.05
G3 X314.325 Y144.4625 I1.5875 J0.0
G1 X608.0125
G1 Y141.2875
G1 X314.325
G3 X312.7375 Y139.7 I0.0 J-1.5875
G1 Y76.2
G3 X314.325 Y74.6125 I1.5875 J0.0
G1 X608.0125
G1 Y71.4375
G1 X314.325
G3 X312.7375 Y69.85 I0.0 J-1.5875
G1 Y1.5875
G1 X296.8625
G1 Y69.85
G3 X295.275 Y71.4375 I-1.5875 J0.0
G1 X1.5875
G1 Y74.6125
G1 X295.275
G3 X296.8625 Y76.2 I0.0 J1.5875
G1 Y139.7
G3 X295.275 Y141.2875 I-1.5875 J0.0
G1 X1.5875
G1 Y144.4625
G1 X295.275
G3 X296.7538 Y145.4727 I0.0 J1.5875
G0 Z25.0
G0 X303.4085 Y142.875
G0 Z-4.9
G1 F120.0 Z-6.0
G3 F3000.0 X304.0063 Y146.05 I-8.1335 J3.175
G1 Y209.55
G3 X303.4085 Y212.725 I-8.7312 J0.0
G3 X304.0063 Y215.9 I-8.1335 J3.175
G1 Y279.4
G3 X303.4085 Y282.575 I-8.7312 J0.0
G3 X304.0063 Y285.75 I-8.1335 J3.175
G1 Y349.25
G3 X303.4085 Y352.425 I-8.7312 J0.0
G3 X304.0063 Y355.6 I-8.1335 J3.175
G1 Y419.1
G3 X303.4085 Y422.275 I-8.7312 J0.0
G3 X304.0063 Y425.45 I-8.1335 J3.175
G1 Y488.95
G3 X303.4085 Y492.125 I-8.7312 J0.0
G3 X304.0063 Y495.3 I-8.1335 J3.175
G1 Y558.8
G3 X303.4085 Y561.975 I-8.7312 J0.0
G3 X304.0063 Y565.15 I-8.1335 J3.175
G1 Y628.65
G3 X303.4085 Y631.825 I-8.7312 J0.0
G3 X304.0063 Y635.0 I-8.1335 J3.175
G1 Y721.5188
G1 X305.5938
G1 Y635.0
G3 X306.1915 Y631.825 I8.7312 J0.0
G3 X305.5938 Y628.65 I8.1335 J-3.175
G1 Y565.15
G3 X306.1915 Y561.975 I8.7313 J0.0
G3 X305.5938 Y558.8 I8.1335 J-3.175
G1 Y495.3
G3 X306.1915 Y492.125 I8.7313 J0.0
G3 X305.5938 Y488.95 I8.1335 J-3.175
G1 Y425.45
G3 X306.1915 Y422.275 I8.7313 J0.0
G3 X305.5938 Y419.1 I8.1335 J-3.175
G1 Y355.6
G3 X306.1915 Y352.425 I8.7313 J0.0
G3 X305.5938 Y349.25 I8.1335 J-3.175
G1 Y285.75
G3 X306.1915 Y282.575 I8.7313 J0.0
G3 X305.5938 Y279.4 I8.1335 J-3.175
G1 Y215.9
G3 X306.1915 Y212.725 I8.7312 J0.0
G3 X305.5938 Y209.55 I8.1335 J-3.175
G1 Y146.05
G3 X306.1915 Y142.875 I8.7313 J0.0
G3 X305.5938 Y139.7 I8.1335 J-3.175
G1 Y76.2
G3 X306.1915 Y73.025 I8.7313 J0.0
G3 X305.5938 Y69.85 I8.1335 J-3.175
G1 Y8.7312
G1 X304.0063
G1 Y69.85
G3 X303.4085 Y73.025 I-8.7312 J0.0
G3 X304.0063 Y76.2 I-8.1335 J3.175
G1 Y139.7
G3 X303.4085 Y142.875 I-8.7312 J0.0
G0 Z25.0
G0 X302.0776 Y143.3945
G0 Z-4.9
G1 F120.0 Z-6.0
G3 F3000.0 X302.5775 Y146.05 I-6.8026 J2.6555
G1 Y209.55
G3 X301.8512 Y212.725 I-7.3025 J0.0
G3 X302.5775 Y215.9 I-6.5762 J3.175
G1 Y279.4
G3 X301.8512 Y282.575 I-7.3025 J0.0
G3 X302.5775 Y285.75 I-6.5762 J3.175
G1 Y349.25
G3 X301.8512 Y352.425 I-7.3025 J0.0
G3 X302.5775 Y355.6 I-6.5762 J3.175
G1 Y419.1
G3 X301.8512 Y422.275 I-7.3025 J0.0
G3 X302.5775 Y425.45 I-6.5762 J3.175
G1 Y488.95
G3 X301.8512 Y492.125 I-7.3025 J0.0
G3 X302.5775 Y495.3 I-6.5762 J3.175
G1 Y558.8
G3 X301.8512 Y561.975 I-7.3025 J0.0
G3 X302.5775 Y565.15 I-6.5762 J3.175
G1 Y628.65
G3 X301.8512 Y631.825 I-7.3025 J0.0
G3 X302.5775 Y635.0 I-6.5762 J3.175
G1 Y722.9475
G1 X307.0225
G1 Y635.0
G3 X307.7488 Y631.825 I7.3025 J0.0
G3 X307.0225 Y628.65 I6.5762 J-3.175
G1 Y565.15
G3 X307.7488 Y561.975 I7.3025 J0.0
G3 X307.0225 Y558.8 I6.5762 J-3.175
G1 Y495.3
G3 X307.7488 Y492.125 I7.3025 J0.0
G3 X307.0225 Y488.95 I6.5762 J-3.175
G1 Y425.45
G3 X307.7488 Y422.275 I7.3025 J0.0
G3 X307.0225 Y419.1 I6.5762 J-3.175
G1 Y355.6
G3 X307.7488 Y352.425 I7.3025 J0.0
G3 X307.0225 Y349.25 I6.5762 J-3.175
G1 Y285.75
G3 X307.7488 Y282.575 I7.3025 J0.0
G3 X307.0225 Y279.4 I6.5762 J-3.175
G1 Y215.9
G3 X307.7488 Y212.725 I7.3025 J0.0
G3 X307.0225 Y209.55 I6.5762 J-3.175
G1 Y146.05
G3 X307.7488 Y142.875 I7.3025 J0.0
G3 X307.0225 Y139.7 I6.5762 J-3.175
G1 Y76.2
G3 X307.7488 Y73.025 I7.3025 J0.0
G3 X307.0225 Y69.85 I6.5762 J-3.175
G1 Y7.3025
G1 X302.5775
G1 Y69.85
G3 X301.8512 Y73.025 I-7.3025 J0.0
G3 X302.5775 Y76.2 I-6.5762 J3.175
G1 Y139.7
G3 X301.8512 Y142.875 I-7.3025 J0.0
G3 X302.0776 Y143.3945 I-6.5762 J3.175
G0 Z25.0
G0 X299.4157 Y144.4336
G0 Z-4.9
G1 F120.0 Z-6.0
G3 F3000.0 X299.72 Y146.05 I-4.1407 J1.6164
G1 Y209.55
G3 X298.3859 Y212.725 I-4.445 J0.0
G3 X299.72 Y215.9 I-3.1109 J3.175
G1 Y279.4
G3 X298.3859 Y282.575 I-4.445 J0.0
G3 X299.72 Y285.75 I-3.1109 J3.175
G1 Y349.25
G3 X298.3859 Y352.425 I-4.445 J0.0
G3 X299.72 Y355.6 I-3.1109 J3.175
G1 Y419.1
G3 X298.3859 Y422.275 I-4.445 J0.0
G3 X299.72 Y425.45 I-3.1109 J3.175
G1 Y488.95
G3 X298.3859 Y492.125 I-4.445 J0.0
G3 X299.72 Y495.3 I-3.1109 J3.175
G1 Y558.8
G3 X298.3859 Y561.975 I-4.445 J0.0
G3 X299.72 Y565.15 I-3.1109 J3.175
G1 Y628.65
G3 X298.3859 Y631.825 I-4.445 J0.0
G3 X299.72 Y635.0 I-3.1109 J3.175
G1 Y725.805
G1 X309.88
G1 Y635.0
G3 X311.2141 Y631.825 I4.445 J0.0
G3 X309.88 Y628.65 I3.1109 J-3.175
G1 Y565.15
G3 X311.2141 Y561.975 I4.445 J0.0
G3 X309.88 Y558.8 I3.1109 J-3.175
G1 Y495.3
G3 X311.2141 Y492.125 I4.445 J0.0
G3 X309.88 Y488.95 I3.1109 J-3.175
G1 Y425.45
G3 X311.2141 Y422.275 I4.445 J0.0
G3 X309.88 Y419.1 I3.1109 J-3.175
G1 Y355.6
G3 X311.2141 Y352.425 I4.445 J0.0
G3 X309.88 Y349.25 I3.1109 J-3.175
G1 Y285.75
G3 X311.2141 Y282.575 I4.445 J0.0
G3 X309.88 Y279.4 I3.1109 J-3.175
G1 Y215.9
G3 X311.2141 Y212.725 I4.445 J0.0
G3 X309.88 Y209.55 I3.1109 J-3.175
G1 Y146.05
G3 X311.2141 Y142.875 I4.445 J0.0
G3 X309.88 Y139.7 I3.1109 J-3.175
G1 Y76.2
G3 X311.2141 Y73.025 I4.445 J0.0
G3 X309.88 Y69.85 I3.1109 J-3.175
G1 Y4.445
G1 X299.72
G1 Y69.85
G3 X298.3859 Y73.025 I-4.445 J0.0
G3 X299.72 Y76.2 I-3.1109 J3.175
G1 Y139.7
G3 X298.3859 Y142.875 I-4.445 J0.0
G3 X299.4157 Y144.4336 I-3.1109 J3.175
G0 Z25.0
G0 X296.7538 Y145.4727
G0 Z-4.9
G1 F120.0 Z-6.0
G3 F3000.0 X296.8625 Y146.05 I-1.4788 J0.5773
G1 Y209.55
G3 X295.275 Y211.1375 I-1.5875 J0.0
G1 X1.5875
G1 Y214.3125
G1 X295.275
G3 X296.8625 Y215.9 I0.0 J1.5875
G1 Y279.4
G3 X295.275 Y280.9875 I-1.5875 J0.0
G1 X1.5875
G1 Y284.1625
G1 X295.275
G3 X296.8625 Y285.75 I0.0 J1.5875
G1 Y349.25
G3 X295.275 Y350.8375 I-1.5875 J0.0
G1 X1.5875
G1 Y354.0125
G1 X295.275
G3 X296.8625 Y355.6 I0.0 J1.5875
G1 Y419.1
G3 X295.275 Y420.6875 I-1.5875 J0.0
G1 X1.5875
G1 Y423.8625
G1 X295.275
G3 X296.8625 Y425.45 I0.0 J1.5875
G1 Y488.95
G3 X295.275 Y490.5375 I-1.5875 J0.0
G1 X1.5875
G1 Y493.7125
G1 X295.275
G3 X296.8625 Y495.3 I0.0 J1.5875
G1 Y558.8
G3 X295.275 Y560.3875 I-1.5875 J0.0
G1 X1.5875
G1 Y563.5625
G1 X295.275
G3 X296.8625 Y565.15 I0.0 J1.5875
G1 Y628.65
G3 X295.275 Y630.2375 I-1.5875 J0.0
G1 X1.5875
G1 Y633.4125
G1 X295.275
G3 X296.8625 Y635.0 I0.0 J1.5875
G1 Y728.6625
G1 X312.7375
G1 Y635.0
G3 X314.325 Y633.4125 I1.5875 J0.0
G1 X608.0125
G1 Y630.2375
G1 X314.325
G3 X312.7375 Y628.65 I0.0 J-1.5875
G1 Y565.15
G3 X314.325 Y563.5625 I1.5875 J0.0
G1 X608.0125
G1 Y560.3875
G1 X314.325
G3 X312.7375 Y558.8 I0.0 J-1.5875
G1 Y495.3
G3 X314.325 Y493.7125 I1.5875 J0.0
G1 X608.0125
G1 Y490.5375
G1 X314.325
G3 X312.7375 Y488.95 I0.0 J-1.5875
G1 Y425.45
G3 X314.325 Y423.8625 I1.5875 J0.0
G1 X608.0125
G1 Y420.6875
G1 X314.325
G3 X312.7375 Y419.1 I0.0 J-1.5875
G1 Y355.6
G3 X314.325 Y354.0125 I1.5875 J0.0
G1 X608.0125
G1 Y350.8375
G1 X314.325
G3 X312.7375 Y349.25 I0.0 J-1.5875
G1 Y285.75
G3 X314.325 Y284.1625 I1.5875 J0.0
G1 X608.0125
G1 Y280.9875
G1 X314.325
G3 X312.7375 Y279.4 I0.0 J-1.5875
G1 Y215.9
G3 X314.325 Y214.3125 I1.5875 J0.0
G1 X608.0125
G1 Y211.1375
G1 X314.325
G3 X312.7375 Y209.55 I0.0 J-1.5875
G1 Y146.05
G3 X314.325 Y144.4625 I1.5875 J0.0
G1 X608.0125
G1 Y141.2875
G1 X314.325
G3 X312.7375 Y139.7 I0.0 J-1.5875
G1 Y76.2
G3 X314.325 Y74.6125 I1.5875 J0.0
G1 X608.0125
G1 Y71.4375
G1 X314.325
G3 X312.7375 Y69.85 I0.0 J-1.5875
G1 Y1.5875
G1 X296.8625
G1 Y69.85
G3 X295.275 Y71.4375 I-1.5875 J0.0
G1 X1.5875
G1 Y74.6125
G1 X295.275
G3 X296.8625 Y76.2 I0.0 J1.5875
G1 Y139.7
G3 X295.275 Y141.2875 I-1.5875 J0.0
G1 X1.5875
G1 Y144.4625
G1 X295.275
G3 X296.7538 Y145.4727 I0.0 J1.5875
G0 Z25.0
G0 X303.4085 Y142.875
G0 Z-5.9
G1 F120.0 Z-7.0
G3 F3000.0 X304.0063 Y146.05 I-8.1335 J3.175
G1 Y209.55
G3 X303.4085 Y212.725 I-8.7312 J0.0
G3 X304.0063 Y215.9 I-8.1335 J3.175
G1 Y279.4
G3 X303.4085 Y282.575 I-8.7312 J0.0
G3 X304.0063 Y285.75 I-8.1335 J3.175
G1 Y349.25
G3 X303.4085 Y352.425 I-8.7312 J0.0
G3 X304.0063 Y355.6 I-8.1335 J3.175
G1 Y419.1
G3 X303.4085 Y422.275 I-8.7312 J0.0
G3 X304.0063 Y425.45 I-8.1335 J3.175
G1 Y488.95
G3 X303.4085 Y492.125 I-8.7312 J0.0
G3 X304.0063 Y495.3 I-8.1335 J3.175
G1 Y558.8
G3 X303.4085 Y561.975 I-8.7312 J0.0
G3 X304.0063 Y565.15 I-8.1335 J3.175
G1 Y628.65
G3 X303.4085 Y631.825 I-8.7312 J0.0
G3 X304.0063 Y635.0 I-8.1335 J3.175
G1 Y721.5188
G1 X305.5938
G1 Y635.0
G3 X306.1915 Y631.825 I8.7312 J0.0
G3 X305.5938 Y628.65 I8.1335 J-3.175
G1 Y565.15
G3 X306.1915 Y561.975 I8.7313 J0.0
G3 X305.5938 Y558.8 I8.1335 J-3.175
G1 Y495.3
G3 X306.1915 Y492.125 I8.7313 J0.0
G3 X305.5938 Y488.95 I8.1335 J-3.175
G1 Y425.45
G3 X306.1915 Y422.275 I8.7313 J0.0
G3 X305.5938 Y419.1 I8.1335 J-3.175
G1 Y355.6
G3 X306.1915 Y352.425 I8.7313 J0.0
G3 X305.5938 Y349.25 I8.1335 J-3.175
G1 Y285.75
G3 X306.1915 Y282.575 I8.7313 J0.0
G3 X305.5938 Y279.4 I8.1335 J-3.175
G1 Y215.9
G3 X306.1915 Y212.725 I8.7312 J0.0
G3 X305.5938 Y209.55 I8.1335 J-3.175
G1 Y146.05
G3 X306.1915 Y142.875 I8.7313 J0.0
G3 X305.5938 Y139.7 I8.1335 J-3.175
G1 Y76.2
G3 X306.1915 Y73.025 I8.7313 J0.0
G3 X305.5938 Y69.85 I8.1335 J-3.175
G1 Y8.7312
G1 X304.0063
G1 Y69.85
G3 X303.4085 Y73.025 I-8.7312 J0.0
G3 X304.0063 Y76.2 I-8.1335 J3.175
G1 Y139.7
G3 X303.4085 Y142.875 I-8.7312 J0.0
G0 Z25.0
G0 X302.0776 Y143.3945
G0 Z-5.9
G1 F120.0 Z-7.0
G3 F3000.0 X302.5775 Y146.05 I-6.8026 J2.6555
G1 Y209.55
G3 X301.8512 Y212.725 I-7.3025 J0.0
G3 X302.5775 Y215.9 I-6.5762 J3.175
G1 Y279.4
G3 X301.8512 Y282.575 I-7.3025 J0.0
G3 X302.5775 Y285.75 I-6.5762 J3.175
G1 Y349.25
G3 X301.8512 Y352.425 I-7.3025 J0.0
G3 X302.5775 Y355.6 I-6.5762 J3.175
G1 Y419.1
G3 X301.8512 Y422.275 I-7.3025 J0.0
G3 X302.5775 Y425.45 I-6.5762 J3.175
G1 Y488.95
G3 X301.8512 Y492.125 I-7.3025 J0.0
G3 X302.5775 Y495.3 I-6.5762 J3.175
G1 Y558.8
G3 X301.8512 Y561.975 I-7.3025 J0.0
G3 X302.5775 Y565.15 I-6.5762 J3.175
G1 Y628.65
G3 X301.8512 Y631.825 I-7.3025 J0.0
G3 X302.5775 Y635.0 I-6.5762 J3.175
G1 Y722.9475
G1 X307.0225
G1 Y635.0
G3 X307.7488 Y631.825 I7.3025 J0.0
G3 X307.0225 Y628.65 I6.5762 J-3.175
G1 Y565.15
G3 X307.7488 Y561.975 I7.3025 J0.0
G3 X307.0225 Y558.8 I6.5762 J-3.175
G1 Y495.3
G3 X307.7488 Y492.125 I7.3025 J0.0
G3 X307.0225 Y488.95 I6.5762 J-3.175
G1 Y425.45
G3 X307.7488 Y422.275 I7.3025 J0.0
G3 X307.0225 Y419.1 I6.5762 J-3.175
G1 Y355.6
G3 X307.7488 Y352.425 I7.3025 J0.0
G3 X307.0225 Y349.25 I6.5762 J-3.175
G1 Y285.75
G3 X307.7488 Y282.575 I7.3025 J0.0
G3 X307.0225 Y279.4 I6.5762 J-3.175
G1 Y215.9
G3 X307.7488 Y212.725 I7.3025 J0.0
G3 X307.0225 Y209.55 I6.5762 J-3.175
G1 Y146.05
G3 X307.7488 Y142.875 I7.3025 J0.0
G3 X307.0225 Y139.7 I6.5762 J-3.175
G1 Y76.2
G3 X307.7488 Y73.025 I7.3025 J0.0
G3 X307.0225 Y69.85 I6.5762 J-3.175
G1 Y7.3025
G1 X302.5775
G1 Y69.85
G3 X301.8512 Y73.025 I-7.3025 J0.0
G3 X302.5775 Y76.2 I-6.5762 J3.175
G1 Y139.7
G3 X301.8512 Y142.875 I-7.3025 J0.0
G3 X302.0776 Y143.3945 I-6.5762 J3.175
G0 Z25.0
G0 X299.4157 Y144.4336
G0 Z-5.9
G1 F120.0 Z-7.0
G3 F3000.0 X299.72 Y146.05 I-4.1407 J1.6164
G1 Y209.55
G3 X298.3859 Y212.725 I-4.445 J0.0
G3 X299.72 Y215.9 I-3.1109 J3.175
G1 Y279.4
G3 X298.3859 Y282.575 I-4.445 J0.0
G3 X299.72 Y285.75 I-3.1109 J3.175
G1 Y349.25
G3 X298.3859 Y352.425 I-4.445 J0.0
G3 X299.72 Y355.6 I-3.1109 J3.175
G1 Y419.1
G3 X298.3859 Y422.275 I-4.445 J0.0
G3 X299.72 Y425.45 I-3.1109 J3.175
G1 Y488.95
G3 X298.3859 Y492.125 I-4.445 J0.0
G3 X299.72 Y495.3 I-3.1109 J3.175
G1 Y558.8
G3 X298.3859 Y561.975 I-4.445 J0.0
G3 X299.72 Y565.15 I-3.1109 J3.175
G1 Y628.65
G3 X298.3859 Y631.825 I-4.445 J0.0
G3 X299.72 Y635.0 I-3.1109 J3.175
G1 Y725.805
G1 X309.88
G1 Y635.0
G3 X311.2141 Y631.825 I4.445 J0.0
G3 X309.88 Y628.65 I3.1109 J-3.175
G1 Y565.15
G3 X311.2141 Y561.975 I4.445 J0.0
G3 X309.88 Y558.8 I3.1109 J-3.175
G1 Y495.3
G3 X311.2141 Y492.125 I4.445 J0.0
G3 X309.88 Y488.95 I3.1109 J-3.175
G1 Y425.45
G3 X311.2141 Y422.275 I4.445 J0.0
G3 X309.88 Y419.1 I3.1109 J-3.175
G1 Y355.6
G3 X311.2141 Y352.425 I4.445 J0.0
G3 X309.88 Y349.25 I3.1109 J-3.175
G1 Y285.75
G3 X311.2141 Y282.575 I4.445 J0.0
G3 X309.88 Y279.4 I3.1109 J-3.175
G1 Y215.9
G3 X311.2141 Y212.725 I4.445 J0.0
G3 X309.88 Y209.55 I3.1109 J-3.175
G1 Y146.05
G3 X311.2141 Y142.875 I4.445 J0.0
G3 X309.88 Y139.7 I3.1109 J-3.175
G1 Y76.2
G3 X311.2141 Y73.025 I4.445 J0.0
G3 X309.88 Y69.85 I3.1109 J-3.175
G1 Y4.445
G1 X299.72
G1 Y69.85
G3 X298.3859 Y73.025 I-4.445 J0.0
G3 X299.72 Y76.2 I-3.1109 J3.175
G1 Y139.7
G3 X298.3859 Y142.875 I-4.445 J0.0
G3 X299.4157 Y144.4336 I-3.1109 J3.175
G0 Z25.0
G0 X296.7538 Y145.4727
G0 Z-5.9
G1 F120.0 Z-7.0
G3 F3000.0 X296.8625 Y146.05 I-1.4788 J0.5773
G1 Y209.55
G3 X295.275 Y211.1375 I-1.5875 J0.0
G1 X1.5875
G1 Y214.3125
G1 X295.275
G3 X296.8625 Y215.9 I0.0 J1.5875
G1 Y279.4
G3 X295.275 Y280.9875 I-1.5875 J0.0
G1 X1.5875
G1 Y284.1625
G1 X295.275
G3 X296.8625 Y285.75 I0.0 J1.5875
G1 Y349.25
G3 X295.275 Y350.8375 I-1.5875 J0.0
G1 X1.5875
G1 Y354.0125
G1 X295.275
G3 X296.8625 Y355.6 I0.0 J1.5875
G1 Y419.1
G3 X295.275 Y420.6875 I-1.5875 J0.0
G1 X1.5875
G1 Y423.8625
G1 X295.275
G3 X296.8625 Y425.45 I0.0 J1.5875
G1 Y488.95
G3 X295.275 Y490.5375 I-1.5875 J0.0
G1 X1.5875
G1 Y493.7125
G1 X295.275
G3 X296.8625 Y495.3 I0.0 J1.5875
G1 Y558.8
G3 X295.275 Y560.3875 I-1.5875 J0.0
G1 X1.5875
G1 Y563.5625
G1 X295.275
G3 X296.8625 Y565.15 I0.0 J1.5875
G1 Y628.65
G3 X295.275 Y630.2375 I-1.5875 J0.0
G1 X1.5875
G1 Y633.4125
G1 X295.275
G3 X296.8625 Y635.0 I0.0 J1.5875
G1 Y728.6625
G1 X312.7375
G1 Y635.0
G3 X314.325 Y633.4125 I1.5875 J0.0
G1 X608.0125
G1 Y630.2375
G1 X314.325
G3 X312.7375 Y628.65 I0.0 J-1.5875
G1 Y565.15
G3 X314.325 Y563.5625 I1.5875 J0.0
G1 X608.0125
G1 Y560.3875
G1 X314.325
G3 X312.7375 Y558.8 I0.0 J-1.5875
G1 Y495.3
G3 X314.325 Y493.7125 I1.5875 J0.0
G1 X608.0125
G1 Y490.5375
G1 X314.325
G3 X312.7375 Y488.95 I0.0 J-1.5875
G1 Y425.45
G3 X314.325 Y423.8625 I1.5875 J0.0
G1 X608.0125
G1 Y420.6875
G1 X314.325
G3 X312.7375 Y419.1 I0.0 J-1.5875
G1 Y355.6
G3 X314.325 Y354.0125 I1.5875 J0.0
G1 X608.0125
G1 Y350.8375
G1 X314.325
G3 X312.7375 Y349.25 I0.0 J-1.5875
G1 Y285.75
G3 X314.325 Y284.1625 I1.5875 J0.0
G1 X608.0125
G1 Y280.9875
G1 X314.325
G3 X312.7375 Y279.4 I0.0 J-1.5875
G1 Y215.9
G3 X314.325 Y214.3125 I1.5875 J0.0
G1 X608.0125
G1 Y211.1375
G1 X314.325
G3 X312.7375 Y209.55 I0.0 J-1.5875
G1 Y146.05
G3 X314.325 Y144.4625 I1.5875 J0.0
G1 X608.0125
G1 Y141.2875
G1 X314.325
G3 X312.7375 Y139.7 I0.0 J-1.5875
G1 Y76.2
G3 X314.325 Y74.6125 I1.5875 J0.0
G1 X608.0125
G1 Y71.4375
G1 X314.325
G3 X312.7375 Y69.85 I0.0 J-1.5875
G1 Y1.5875
G1 X296.8625
G1 Y69.85
G3 X295.275 Y71.4375 I-1.5875 J0.0
G1 X1.5875
G1 Y74.6125
G1 X295.275
G3 X296.8625 Y76.2 I0.0 J1.5875
G1 Y139.7
G3 X295.275 Y141.2875 I-1.5875 J0.0
G1 X1.5875
G1 Y144.4625
G1 X295.275
G3 X296.7538 Y145.4727 I0.0 J1.5875
G0 Z25.0
G0 X303.4085 Y142.875
G0 Z-6.9
G1 F120.0 Z-8.0
G3 F3000.0 X304.0063 Y146.05 I-8.1335 J3.175
G1 Y209.55
G3 X303.4085 Y212.725 I-8.7312 J0.0
G3 X304.0063 Y215.9 I-8.1335 J3.175
G1 Y279.4
G3 X303.4085 Y282.575 I-8.7312 J0.0
G3 X304.0063 Y285.75 I-8.1335 J3.175
G1 Y349.25
G3 X303.4085 Y352.425 I-8.7312 J0.0
G3 X304.0063 Y355.6 I-8.1335 J3.175
G1 Y419.1
G3 X303.4085 Y422.275 I-8.7312 J0.0
G3 X304.0063 Y425.45 I-8.1335 J3.175
G1 Y488.95
G3 X303.4085 Y492.125 I-8.7312 J0.0
G3 X304.0063 Y495.3 I-8.1335 J3.175
G1 Y558.8
G3 X303.4085 Y561.975 I-8.7312 J0.0
G3 X304.0063 Y565.15 I-8.1335 J3.175
G1 Y628.65
G3 X303.4085 Y631.825 I-8.7312 J0.0
G3 X304.0063 Y635.0 I-8.1335 J3.175
G1 Y721.5188
G1 X305.5938
G1 Y635.0
G3 X306.1915 Y631.825 I8.7312 J0.0
G3 X305.5938 Y628.65 I8.1335 J-3.175
G1 Y565.15
G3 X306.1915 Y561.975 I8.7313 J0.0
G3 X305.5938 Y558.8 I8.1335 J-3.175
G1 Y495.3
G3 X306.1915 Y492.125 I8.7313 J0.0
G3 X305.5938 Y488.95 I8.1335 J-3.175
G1 Y425.45
G3 X306.1915 Y422.275 I8.7313 J0.0
G3 X305.5938 Y419.1 I8.1335 J-3.175
G1 Y355.6
G3 X306.1915 Y352.425 I8.7313 J0.0
G3 X305.5938 Y349.25 I8.1335 J-3.175
G1 Y285.75
G3 X306.1915 Y282.575 I8.7313 J0.0
G3 X305.5938 Y279.4 I8.1335 J-3.175
G1 Y215.9
G3 X306.1915 Y212.725 I8.7312 J0.0
G3 X305.5938 Y209.55 I8.1335 J-3.175
G1 Y146.05
G3 X306.1915 Y142.875 I8.7313 J0.0
G3 X305.5938 Y139.7 I8.1335 J-3.175
G1 Y76.2
G3 X306.1915 Y73.025 I8.7313 J0.0
G3 X305.5938 Y69.85 I8.1335 J-3.175
G1 Y8.7312
G1 X304.0063
G1 Y69.85
G3 X303.4085 Y73.025 I-8.7312 J0.0
G3 X304.0063 Y76.2 I-8.1335 J3.175
G1 Y139.7
G3 X303.4085 Y142.875 I-8.7312 J0.0
G0 Z25.0
G0 X302.0776 Y143.3945
G0 Z-6.9
G1 F120.0 Z-8.0
G3 F3000.0 X302.5775 Y146.05 I-6.8026 J2.6555
G1 Y209.55
G3 X301.8512 Y212.725 I-7.3025 J0.0
G3 X302.5775 Y215.9 I-6.5762 J3.175
G1 Y279.4
G3 X301.8512 Y282.575 I-7.3025 J0.0
G3 X302.5775 Y285.75 I-6.5762 J3.175
G1 Y349.25
G3 X301.8512 Y352.425 I-7.3025 J0.0
G3 X302.5775 Y355.6 I-6.5762 J3.175
G1 Y419.1
G3 X301.8512 Y422.275 I-7.3025 J0.0
G3 X302.5775 Y425.45 I-6.5762 J3.175
G1 Y488.95
G3 X301.8512 Y492.125 I-7.3025 J0.0
G3 X302.5775 Y495.3 I-6.5762 J3.175
G1 Y558.8
G3 X301.8512 Y561.975 I-7.3025 J0.0
G3 X302.5775 Y565.15 I-6.5762 J3.175
G1 Y628.65
G3 X301.8512 Y631.825 I-7.3025 J0.0
G3 X302.5775 Y635.0 I-6.5762 J3.175
G1 Y722.9475
G1 X307.0225
G1 Y635.0
G3 X307.7488 Y631.825 I7.3025 J0.0
G3 X307.0225 Y628.65 I6.5762 J-3.175
G1 Y565.15
G3 X307.7488 Y561.975 I7.3025 J0.0
G3 X307.0225 Y558.8 I6.5762 J-3.175
G1 Y495.3
G3 X307.7488 Y492.125 I7.3025 J0.0
G3 X307.0225 Y488.95 I6.5762 J-3.175
G1 Y425.45
G3 X307.7488 Y422.275 I7.3025 J0.0
G3 X307.0225 Y419.1 I6.5762 J-3.175
G1 Y355.6
G3 X307.7488 Y352.425 I7.3025 J0.0
G3 X307.0225 Y349.25 I6.5762 J-3.175
G1 Y285.75
G3 X307.7488 Y282.575 I7.3025 J0.0
G3 X307.0225 Y279.4 I6.5762 J-3.175
G1 Y215.9
G3 X307.7488 Y212.725 I7.3025 J0.0
G3 X307.0225 Y209.55 I6.5762 J-3.175
G1 Y146.05
G3 X307.7488 Y142.875 I7.3025 J0.0
G3 X307.0225 Y139.7 I6.5762 J-3.175
G1 Y76.2
G3 X307.7488 Y73.025 I7.3025 J0.0
G3 X307.0225 Y69.85 I6.5762 J-3.175
G1 Y7.3025
G1 X302.5775
G1 Y69.85
G3 X301.8512 Y73.025 I-7.3025 J0.0
G3 X302.5775 Y76.2 I-6.5762 J3.175
G1 Y139.7
G3 X301.8512 Y142.875 I-7.3025 J0.0
G3 X302.0776 Y143.3945 I-6.5762 J3.175
G0 Z25.0
G0 X299.4157 Y144.4336
G0 Z-6.9
G1 F120.0 Z-8.0
G3 F3000.0 X299.72 Y146.05 I-4.1407 J1.6164
G1 Y209.55
G3 X298.3859 Y212.725 I-4.445 J0.0
G3 X299.72 Y215.9 I-3.1109 J3.175
G1 Y279.4
G3 X298.3859 Y282.575 I-4.445 J0.0
G3 X299.72 Y285.75 I-3.1109 J3.175
G1 Y349.25
G3 X298.3859 Y352.425 I-4.445 J0.0
G3 X299.72 Y355.6 I-3.1109 J3.175
G1 Y419.1
G3 X298.3859 Y422.275 I-4.445 J0.0
G3 X299.72 Y425.45 I-3.1109 J3.175
G1 Y488.95
G3 X298.3859 Y492.125 I-4.445 J0.0
G3 X299.72 Y495.3 I-3.1109 J3.175
G1 Y558.8
G3 X298.3859 Y561.975 I-4.445 J0.0
G3 X299.72 Y565.15 I-3.1109 J3.175
G1 Y628.65
G3 X298.3859 Y631.825 I-4.445 J0.0
G3 X299.72 Y635.0 I-3.1109 J3.175
G1 Y725.805
G1 X309.88
G1 Y635.0
G3 X311.2141 Y631.825 I4.445 J0.0
G3 X309.88 Y628.65 I3.1109 J-3.175
G1 Y565.15
G3 X311.2141 Y561.975 I4.445 J0.0
G3 X309.88 Y558.8 I3.1109 J-3.175
G1 Y495.3
G3 X311.2141 Y492.125 I4.445 J0.0
G3 X309.88 Y488.95 I3.1109 J-3.175
G1 Y425.45
G3 X311.2141 Y422.275 I4.445 J0.0
G3 X309.88 Y419.1 I3.1109 J-3.175
G1 Y355.6
G3 X311.2141 Y352.425 I4.445 J0.0
G3 X309.88 Y349.25 I3.1109 J-3.175
G1 Y285.75
G3 X311.2141 Y282.575 I4.445 J0.0
G3 X309.88 Y279.4 I3.1109 J-3.175
G1 Y215.9
G3 X311.2141 Y212.725 I4.445 J0.0
G3 X309.88 Y209.55 I3.1109 J-3.175
G1 Y146.05
G3 X311.2141 Y142.875 I4.445 J0.0
G3 X309.88 Y139.7 I3.1109 J-3.175
G1 Y76.2
G3 X311.2141 Y73.025 I4.445 J0.0
G3 X309.88 Y69.85 I3.1109 J-3.175
G1 Y4.445
G1 X299.72
G1 Y69.85
G3 X298.3859 Y73.025 I-4.445 J0.0
G3 X299.72 Y76.2 I-3.1109 J3.175
G1 Y139.7
G3 X298.3859 Y142.875 I-4.445 J0.0
G3 X299.4157 Y144.4336 I-3.1109 J3.175
G0 Z25.0
G0 X296.7538 Y145.4727
G0 Z-6.9
G1 F120.0 Z-8.0
G3 F3000.0 X296.8625 Y146.05 I-1.4788 J0.5773
G1 Y209.55
G3 X295.275 Y211.1375 I-1.5875 J0.0
G1 X1.5875
G1 Y214.3125
G1 X295.275
G3 X296.8625 Y215.9 I0.0 J1.5875
G1 Y279.4
G3 X295.275 Y280.9875 I-1.5875 J0.0
G1 X1.5875
G1 Y284.1625
G1 X295.275
G3 X296.8625 Y285.75 I0.0 J1.5875
G1 Y349.25
G3 X295.275 Y350.8375 I-1.5875 J0.0
G1 X1.5875
G1 Y354.0125
G1 X295.275
G3 X296.8625 Y355.6 I0.0 J1.5875
G1 Y419.1
G3 X295.275 Y420.6875 I-1.5875 J0.0
G1 X1.5875
G1 Y423.8625
G1 X295.275
G3 X296.8625 Y425.45 I0.0 J1.5875
G1 Y488.95
G3 X295.275 Y490.5375 I-1.5875 J0.0
G1 X1.5875
G1 Y493.7125
G1 X295.275
G3 X296.8625 Y495.3 I0.0 J1.5875
G1 Y558.8
G3 X295.275 Y560.3875 I-1.5875 J0.0
G1 X1.5875
G1 Y563.5625
G1 X295.275
G3 X296.8625 Y565.15 I0.0 J1.5875
G1 Y628.65
G3 X295.275 Y630.2375 I-1.5875 J0.0
G1 X1.5875
G1 Y633.4125
G1 X295.275
G3 X296.8625 Y635.0 I0.0 J1.5875
G1 Y728.6625
G1 X312.7375
G1 Y635.0
G3 X314.325 Y633.4125 I1.5875 J0.0
G1 X608.0125
G1 Y630.2375
G1 X314.325
G3 X312.7375 Y628.65 I0.0 J-1.5875
G1 Y565.15
G3 X314.325 Y563.5625 I1.5875 J0.0
G1 X608.0125
G1 Y560.3875
G1 X314.325
G3 X312.7375 Y558.8 I0.0 J-1.5875
G1 Y495.3
G3 X314.325 Y493.7125 I1.5875 J0.0
G1 X608.0125
G1 Y490.5375
G1 X314.325
G3 X312.7375 Y488.95 I0.0 J-1.5875
G1 Y425.45
G3 X314.325 Y423.8625 I1.5875 J0.0
G1 X608.0125
G1 Y420.6875
G1 X314.325
G3 X312.7375 Y419.1 I0.0 J-1.5875
G1 Y355.6
G3 X314.325 Y354.0125 I1.5875 J0.0
G1 X608.0125
G1 Y350.8375
G1 X314.325
G3 X312.7375 Y349.25 I0.0 J-1.5875
G1 Y285.75
G3 X314.325 Y284.1625 I1.5875 J0.0
G1 X608.0125
G1 Y280.9875
G1 X314.325
G3 X312.7375 Y279.4 I0.0 J-1.5875
G1 Y215.9
G3 X314.325 Y214.3125 I1.5875 J0.0
G1 X608.0125
G1 Y211.1375
G1 X314.325
G3 X312.7375 Y209.55 I0.0 J-1.5875
G1 Y146.05
G3 X314.325 Y144.4625 I1.5875 J0.0
G1 X608.0125
G1 Y141.2875
G1 X314.325
G3 X312.7375 Y139.7 I0.0 J-1.5875
G1 Y76.2
G3 X314.325 Y74.6125 I1.5875 J0.0
G1 X608.0125
G1 Y71.4375
G1 X314.325
G3 X312.7375 Y69.85 I0.0 J-1.5875
G1 Y1.5875
G1 X296.8625
G1 Y69.85
G3 X295.275 Y71.4375 I-1.5875 J0.0
G1 X1.5875
G1 Y74.6125
G1 X295.275
G3 X296.8625 Y76.2 I0.0 J1.5875
G1 Y139.7
G3 X295.275 Y141.2875 I-1.5875 J0.0
G1 X1.5875
G1 Y144.4625
G1 X295.275
G3 X296.7538 Y145.4727 I0.0 J1.5875
( Profile1 )
S12000
G0 Z75.0
G0 X0.0 Y-1.5875
G0 Z0.1
G1 F120.0 Z-1.0
G1 F3000.0 X609.6
G3 X611.1875 Y0.0 I0.0 J1.5875
G1 Y730.25
G3 X609.6 Y731.8375 I-1.5875 J0.0
G1 X0.0
G0 Z75.0
G0 Y-1.5875
G0 Z-0.9
G1 F120.0 Z-2.0
G1 F3000.0 X609.6
G3 X611.1875 Y0.0 I0.0 J1.5875
G1 Y730.25
G3 X609.6 Y731.8375 I-1.5875 J0.0
G1 X0.0
G0 Z75.0
G0 Y-1.5875
G0 Z-1.9
G1 F120.0 Z-3.0
G1 F3000.0 X609.6
G3 X611.1875 Y0.0 I0.0 J1.5875
G1 Y730.25
G3 X609.6 Y731.8375 I-1.5875 J0.0
G1 X0.0
G0 Z75.0
G0 Y-1.5875
G0 Z-2.9
G1 F120.0 Z-4.0
G1 F3000.0 X609.6
G3 X611.1875 Y0.0 I0.0 J1.5875
G1 Y730.25
G3 X609.6 Y731.8375 I-1.5875 J0.0
G1 X0.0
G0 Z75.0
G0 Y-1.5875
G0 Z-3.9
G1 F120.0 Z-5.0
G1 F3000.0 X609.6
G3 X611.1875 Y0.0 I0.0 J1.5875
G1 Y730.25
G3 X609.6 Y731.8375 I-1.5875 J0.0
G1 X0.0
G0 Z75.0
G0 Y-1.5875
G0 Z-4.9
G1 F120.0 Z-6.0
G1 F3000.0 X609.6
G3 X611.1875 Y0.0 I0.0 J1.5875
G1 Y730.25
G3 X609.6 Y731.8375 I-1.5875 J0.0
G1 X0.0
G0 Z75.0
G0 Y-1.5875
G0 Z-5.9
G1 F120.0 Z-7.0
G1 F3000.0 X609.6
G3 X611.1875 Y0.0 I0.0 J1.5875
G1 Y730.25
G3 X609.6 Y731.8375 I-1.5875 J0.0
G1 X0.0
G0 Z75.0
G0 Y-1.5875
G0 Z-6.9
G1 F120.0 Z-8.0
G1 F3000.0 X609.6
G3 X611.1875 Y0.0 I0.0 J1.5875
G1 Y730.25
G3 X609.6 Y731.8375 I-1.5875 J0.0
G1 X0.0
G0 Z75.0
G0 Y-1.5875
G0 Z-7.9
G1 F120.0 Z-9.0
G1 F3000.0 X609.6
G3 X611.1875 Y0.0 I0.0 J1.5875
G1 Y730.25
G3 X609.6 Y731.8375 I-1.5875 J0.0
G1 X0.0
G0 Z75.0
G0 Y-1.5875
G0 Z-8.9
G1 F120.0 Z-10.0
G1 F3000.0 X609.6
G3 X611.1875 Y0.0 I0.0 J1.5875
G1 Y730.25
G3 X609.6 Y731.8375 I-1.5875 J0.0
G1 X0.0
G0 Z75.0
G0 Y-1.5875
G0 Z-9.9
G1 F120.0 Z-11.0
G1 F3000.0 X609.6
G3 X611.1875 Y0.0 I0.0 J1.5875
G1 Y730.25
G3 X609.6 Y731.8375 I-1.5875 J0.0
G1 X0.0
G0 Z75.0
G0 Y-1.5875
G0 Z-10.9
G1 F120.0 Z-12.0
G1 F3000.0 X609.6
G3 X611.1875 Y0.0 I0.0 J1.5875
G1 Y730.25
G3 X609.6 Y731.8375 I-1.5875 J0.0
G1 X0.0
G0 Z75.0
G0 Y-1.5875
G0 Z-11.9
G1 F120.0 Z-13.0
G1 F3000.0 X45.6488
G1 X47.1488 Z-12.0
G1 X50.3238
G1 X51.8238 Z-13.0
G1 X143.1213
G1 X144.6213 Z-12.0
G1 X147.7963
G1 X149.2963 Z-13.0
G1 X240.5938
G1 X242.0938 Z-12.0
G1 X245.2688
G1 X246.7688 Z-13.0
G1 X338.0663
G1 X339.5663 Z-12.0
G1 X342.7413
G1 X344.2413 Z-13.0
G1 X435.5388
G1 X437.0388 Z-12.0
G1 X440.2138
G1 X441.7138 Z-13.0
G1 X533.0113
G1 X534.5113 Z-12.0
G1 X537.6863
G1 X539.1863 Z-13.0
G1 X609.6
G3 X611.1875 Y0.0 I0.0 J1.5875
G1 Y20.8838
G1 Y22.3838 Z-12.0
G1 Y25.5588
G1 Y27.0588 Z-13.0
G1 Y118.3563
G1 Y119.8563 Z-12.0
G1 Y123.0313
G1 Y124.5313 Z-13.0
G1 Y215.8288
G1 Y217.3288 Z-12.0
G1 Y220.5038
G1 Y222.0037 Z-13.0
G1 Y313.3013
G1 Y314.8012 Z-12.0
G1 Y317.9762
G1 Y319.4762 Z-13.0
G1 Y410.7738
G1 Y412.2738 Z-12.0
G1 Y415.4488
G1 Y416.9487 Z-13.0
G1 Y508.2462
G1 Y509.7463 Z-12.0
G1 Y512.9213
G1 Y514.4212 Z-13.0
G1 Y605.7188
G1 Y607.2188 Z-12.0
G1 Y610.3938
G1 Y611.8937 Z-13.0
G1 Y703.1913
G1 Y704.6913 Z-12.0
G1 Y707.8663
G1 Y709.3662 Z-13.0
G1 Y730.25
G3 X609.6 Y731.8375 I-1.5875 J0.0
G1 X539.1863
G1 X537.6863 Z-12.0
G1 X534.5112
G1 X533.0112 Z-13.0
G1 X441.7138
G1 X440.2138 Z-12.0
G1 X437.0388
G1 X435.5388 Z-13.0
G1 X344.2413
G1 X342.7413 Z-12.0
G1 X339.5663
G1 X338.0663 Z-13.0
G1 X246.7687
G1 X245.2687 Z-12.0
G1 X242.0938
G1 X240.5938 Z-13.0
G1 X149.2963
G1 X147.7963 Z-12.0
G1 X144.6213
G1 X143.1213 Z-13.0
G1 X51.8237
G1 X50.3237 Z-12.0
G1 X47.1488
G1 X45.6488 Z-13.0
G1 X0.0
G0 Z75.0
G0 Y-1.5875
G0 Z-12.9
G1 F120.0 Z-14.0
G1 F3000.0 X45.6488
G1 X47.1488 Z-12.0
G1 X50.3238
G1 X51.8238 Z-14.0
G1 X143.1213
G1 X144.6213 Z-12.0
G1 X147.7963
G1 X149.2963 Z-14.0
G1 X240.5938
G1 X242.0938 Z-12.0
G1 X245.2688
G1 X246.7688 Z-14.0
G1 X338.0663
G1 X339.5663 Z-12.0
G1 X342.7413
G1 X344.2413 Z-14.0
G1 X435.5388
G1 X437.0388 Z-12.0
G1 X440.2138
G1 X441.7138 Z-14.0
G1 X533.0113
G1 X534.5113 Z-12.0
G1 X537.6863
G1 X539.1863 Z-14.0
G1 X609.6
G3 X611.1875 Y0.0 I0.0 J1.5875
G1 Y20.8838
G1 Y22.3838 Z-12.0
G1 Y25.5588
G1 Y27.0588 Z-14.0
G1 Y118.3563
G1 Y119.8563 Z-12.0
G1 Y123.0313
G1 Y124.5313 Z-14.0
G1 Y215.8288
G1 Y217.3288 Z-12.0
G1 Y220.5038
G1 Y222.0037 Z-14.0
G1 Y313.3013
G1 Y314.8012 Z-12.0
G1 Y317.9762
G1 Y319.4762 Z-14.0
G1 Y410.7738
G1 Y412.2738 Z-12.0
G1 Y415.4488
G1 Y416.9487 Z-14.0
G1 Y508.2462
G1 Y509.7463 Z-12.0
G1 Y512.9213
G1 Y514.4212 Z-14.0
G1 Y605.7188
G1 Y607.2188 Z-12.0
G1 Y610.3938
G1 Y611.8937 Z-14.0
G1 Y703.1913
G1 Y704.6913 Z-12.0
G1 Y707.8663
G1 Y709.3662 Z-14.0
G1 Y730.25
G3 X609.6 Y731.8375 I-1.5875 J0.0
G1 X539.1863
G1 X537.6863 Z-12.0
G1 X534.5112
G1 X533.0112 Z-14.0
G1 X441.7138
G1 X440.2138 Z-12.0
G1 X437.0388
G1 X435.5388 Z-14.0
G1 X344.2413
G1 X342.7413 Z-12.0
G1 X339.5663
G1 X338.0663 Z-14.0
G1 X246.7687
G1 X245.2687 Z-12.0
G1 X242.0938
G1 X240.5938 Z-14.0
G1 X149.2963
G1 X147.7963 Z-12.0
G1 X144.6213
G1 X143.1213 Z-14.0
G1 X51.8237
G1 X50.3237 Z-12.0
G1 X47.1488
G1 X45.6488 Z-14.0
G1 X0.0
G0 Z75.0
G0 Y-1.5875
G0 Z-13.9
G1 F120.0 Z-15.0
G1 F3000.0 X45.6488
G1 X47.1488 Z-12.0
G1 X50.3238
G1 X51.8238 Z-15.0
G1 X143.1213
G1 X144.6213 Z-12.0
G1 X147.7963
G1 X149.2963 Z-15.0
G1 X240.5938
G1 X242.0938 Z-12.0
G1 X245.2688
G1 X246.7688 Z-15.0
G1 X338.0663
G1 X339.5663 Z-12.0
G1 X342.7413
G1 X344.2413 Z-15.0
G1 X435.5388
G1 X437.0388 Z-12.0
G1 X440.2138
G1 X441.7138 Z-15.0
G1 X533.0113
G1 X534.5113 Z-12.0
G1 X537.6863
G1 X539.1863 Z-15.0
G1 X609.6
G3 X611.1875 Y0.0 I0.0 J1.5875
G1 Y20.8838
G1 Y22.3838 Z-12.0
G1 Y25.5588
G1 Y27.0588 Z-15.0
G1 Y118.3563
G1 Y119.8563 Z-12.0
G1 Y123.0313
G1 Y124.5313 Z-15.0
G1 Y215.8288
G1 Y217.3288 Z-12.0
G1 Y220.5038
G1 Y222.0037 Z-15.0
G1 Y313.3013
G1 Y314.8012 Z-12.0
G1 Y317.9762
G1 Y319.4762 Z-15.0
G1 Y410.7738
G1 Y412.2738 Z-12.0
G1 Y415.4488
G1 Y416.9487 Z-15.0
G1 Y508.2462
G1 Y509.7463 Z-12.0
G1 Y512.9213
G1 Y514.4212 Z-15.0
G1 Y605.7188
G1 Y607.2188 Z-12.0
G1 Y610.3938
G1 Y611.8937 Z-15.0
G1 Y703.1913
G1 Y704.6913 Z-12.0
G1 Y707.8663
G1 Y709.3662 Z-15.0
G1 Y730.25
G3 X609.6 Y731.8375 I-1.5875 J0.0
G1 X539.1863
G1 X537.6863 Z-12.0
G1 X534.5112
G1 X533.0112 Z-15.0
G1 X441.7138
G1 X440.2138 Z-12.0
G1 X437.0388
G1 X435.5388 Z-15.0
G1 X344.2413
G1 X342.7413 Z-12.0
G1 X339.5663
G1 X338.0663 Z-15.0
G1 X246.7687
G1 X245.2687 Z-12.0
G1 X242.0938
G1 X240.5938 Z-15.0
G1 X149.2963
G1 X147.7963 Z-12.0
G1 X144.6213
G1 X143.1213 Z-15.0
G1 X51.8237
G1 X50.3237 Z-12.0
G1 X47.1488
G1 X45.6488 Z-15.0
G1 X0.0
G0 Z75.0
G0 Y-1.5875
G0 Z-14.9
G1 F120.0 Z-16.0
G1 F3000.0 X45.6488
G1 X47.1488 Z-12.0
G1 X50.3238
G1 X51.8238 Z-16.0
G1 X143.1213
G1 X144.6213 Z-12.0
G1 X147.7963
G1 X149.2963 Z-16.0
G1 X240.5938
G1 X242.0938 Z-12.0
G1 X245.2688
G1 X246.7688 Z-16.0
G1 X338.0663
G1 X339.5663 Z-12.0
G1 X342.7413
G1 X344.2413 Z-16.0
G1 X435.5388
G1 X437.0388 Z-12.0
G1 X440.2138
G1 X441.7138 Z-16.0
G1 X533.0113
G1 X534.5113 Z-12.0
G1 X537.6863
G1 X539.1863 Z-16.0
G1 X609.6
G3 X611.1875 Y0.0 I0.0 J1.5875
G1 Y20.8838
G1 Y22.3838 Z-12.0
G1 Y25.5588
G1 Y27.0588 Z-16.0
G1 Y118.3563
G1 Y119.8563 Z-12.0
G1 Y123.0313
G1 Y124.5313 Z-16.0
G1 Y215.8288
G1 Y217.3288 Z-12.0
G1 Y220.5038
G1 Y222.0037 Z-16.0
G1 Y313.3013
G1 Y314.8012 Z-12.0
G1 Y317.9762
G1 Y319.4762 Z-16.0
G1 Y410.7738
G1 Y412.2738 Z-12.0
G1 Y415.4488
G1 Y416.9487 Z-16.0
G1 Y508.2462
G1 Y509.7463 Z-12.0
G1 Y512.9213
G1 Y514.4212 Z-16.0
G1 Y605.7188
G1 Y607.2188 Z-12.0
G1 Y610.3938
G1 Y611.8937 Z-16.0
G1 Y703.1913
G1 Y704.6913 Z-12.0
G1 Y707.8663
G1 Y709.3662 Z-16.0
G1 Y730.25
G3 X609.6 Y731.8375 I-1.5875 J0.0
G1 X539.1863
G1 X537.6863 Z-12.0
G1 X534.5112
G1 X533.0112 Z-16.0
G1 X441.7138
G1 X440.2138 Z-12.0
G1 X437.0388
G1 X435.5388 Z-16.0
G1 X344.2413
G1 X342.7413 Z-12.0
G1 X339.5663
G1 X338.0663 Z-16.0
G1 X246.7687
G1 X245.2687 Z-12.0
G1 X242.0938
G1 X240.5938 Z-16.0
G1 X149.2963
G1 X147.7963 Z-12.0
G1 X144.6213
G1 X143.1213 Z-16.0
G1 X51.8237
G1 X50.3237 Z-12.0
G1 X47.1488
G1 X45.6488 Z-16.0
G1 X0.0
G0 Z75.0
G0 Y-1.5875
G0 Z-15.9
G1 F120.0 Z-17.0
G1 F3000.0 X45.6488
G1 X47.1488 Z-12.0
G1 X50.3238
G1 X51.8238 Z-17.0
G1 X143.1213
G1 X144.6213 Z-12.0
G1 X147.7963
G1 X149.2963 Z-17.0
G1 X240.5938
G1 X242.0938 Z-12.0
G1 X245.2688
G1 X246.7688 Z-17.0
G1 X338.0663
G1 X339.5663 Z-12.0
G1 X342.7413
G1 X344.2413 Z-17.0
G1 X435.5388
G1 X437.0388 Z-12.0
G1 X440.2138
G1 X441.7138 Z-17.0
G1 X533.0113
G1 X534.5113 Z-12.0
G1 X537.6863
G1 X539.1863 Z-17.0
G1 X609.6
G3 X611.1875 Y0.0 I0.0 J1.5875
G1 Y20.8838
G1 Y22.3838 Z-12.0
G1 Y25.5588
G1 Y27.0588 Z-17.0
G1 Y118.3563
G1 Y119.8563 Z-12.0
G1 Y123.0313
G1 Y124.5313 Z-17.0
G1 Y215.8288
G1 Y217.3288 Z-12.0
G1 Y220.5038
G1 Y222.0037 Z-17.0
G1 Y313.3013
G1 Y314.8012 Z-12.0
G1 Y317.9762
G1 Y319.4762 Z-17.0
G1 Y410.7738
G1 Y412.2738 Z-12.0
G1 Y415.4488
G1 Y416.9487 Z-17.0
G1 Y508.2462
G1 Y509.7463 Z-12.0
G1 Y512.9213
G1 Y514.4212 Z-17.0
G1 Y605.7188
G1 Y607.2188 Z-12.0
G1 Y610.3938
G1 Y611.8937 Z-17.0
G1 Y703.1913
G1 Y704.6913 Z-12.0
G1 Y707.8663
G1 Y709.3662 Z-17.0
G1 Y730.25
G3 X609.6 Y731.8375 I-1.5875 J0.0
G1 X539.1863
G1 X537.6863 Z-12.0
G1 X534.5112
G1 X533.0112 Z-17.0
G1 X441.7138
G1 X440.2138 Z-12.0
G1 X437.0388
G1 X435.5388 Z-17.0
G1 X344.2413
G1 X342.7413 Z-12.0
G1 X339.5663
G1 X338.0663 Z-17.0
G1 X246.7687
G1 X245.2687 Z-12.0
G1 X242.0938
G1 X240.5938 Z-17.0
G1 X149.2963
G1 X147.7963 Z-12.0
G1 X144.6213
G1 X143.1213 Z-17.0
G1 X51.8237
G1 X50.3237 Z-12.0
G1 X47.1488
G1 X45.6488 Z-17.0
G1 X0.0
G0 Z75.0
G0 Y-1.5875
G0 Z-16.9
G1 F120.0 Z-18.0
G1 F3000.0 X45.6488
G1 X47.1488 Z-12.0
G1 X50.3238
G1 X51.8238 Z-18.0
G1 X143.1213
G1 X144.6213 Z-12.0
G1 X147.7963
G1 X149.2963 Z-18.0
G1 X240.5938
G1 X242.0938 Z-12.0
G1 X245.2688
G1 X246.7688 Z-18.0
G1 X338.0663
G1 X339.5663 Z-12.0
G1 X342.7413
G1 X344.2413 Z-18.0
G1 X435.5388
G1 X437.0388 Z-12.0
G1 X440.2138
G1 X441.7138 Z-18.0
G1 X533.0113
G1 X534.5113 Z-12.0
G1 X537.6863
G1 X539.1863 Z-18.0
G1 X609.6
G3 X611.1875 Y0.0 I0.0 J1.5875
G1 Y20.8838
G1 Y22.3838 Z-12.0
G1 Y25.5588
G1 Y27.0588 Z-18.0
G1 Y118.3563
G1 Y119.8563 Z-12.0
G1 Y123.0313
G1 Y124.5313 Z-18.0
G1 Y215.8288
G1 Y217.3288 Z-12.0
G1 Y220.5038
G1 Y222.0037 Z-18.0
G1 Y313.3013
G1 Y314.8012 Z-12.0
G1 Y317.9762
G1 Y319.4762 Z-18.0
G1 Y410.7738
G1 Y412.2738 Z-12.0
G1 Y415.4488
G1 Y416.9487 Z-18.0
G1 Y508.2462
G1 Y509.7463 Z-12.0
G1 Y512.9213
G1 Y514.4212 Z-18.0
G1 Y605.7188
G1 Y607.2188 Z-12.0
G1 Y610.3938
G1 Y611.8937 Z-18.0
G1 Y703.1913
G1 Y704.6913 Z-12.0
G1 Y707.8663
G1 Y709.3662 Z-18.0
G1 Y730.25
G3 X609.6 Y731.8375 I-1.5875 J0.0
G1 X539.1863
G1 X537.6863 Z-12.0
G1 X534.5112
G1 X533.0112 Z-18.0
G1 X441.7138
G1 X440.2138 Z-12.0
G1 X437.0388
G1 X435.5388 Z-18.0
G1 X344.2413
G1 X342.7413 Z-12.0
G1 X339.5663
G1 X338.0663 Z-18.0
G1 X246.7687
G1 X245.2687 Z-12.0
G1 X242.0938
G1 X240.5938 Z-18.0
G1 X149.2963
G1 X147.7963 Z-12.0
G1 X144.6213
G1 X143.1213 Z-18.0
G1 X51.8237
G1 X50.3237 Z-12.0
G1 X47.1488
G1 X45.6488 Z-18.0
G1 X0.0
G0 Z75.0
G0 Y-1.5875
G0 Z-17.9
G1 F120.0 Z-19.0
G1 F3000.0 X45.6488
G1 X47.1488 Z-12.0
G1 X50.3238
G1 X51.8238 Z-19.0
G1 X143.1213
G1 X144.6213 Z-12.0
G1 X147.7963
G1 X149.2963 Z-19.0
G1 X240.5938
G1 X242.0938 Z-12.0
G1 X245.2688
G1 X246.7688 Z-19.0
G1 X338.0663
G1 X339.5663 Z-12.0
G1 X342.7413
G1 X344.2413 Z-19.0
G1 X435.5388
G1 X437.0388 Z-12.0
G1 X440.2138
G1 X441.7138 Z-19.0
G1 X533.0113
G1 X534.5113 Z-12.0
G1 X537.6863
G1 X539.1863 Z-19.0
G1 X609.6
G3 X611.1875 Y0.0 I0.0 J1.5875
G1 Y20.8838
G1 Y22.3838 Z-12.0
G1 Y25.5588
G1 Y27.0588 Z-19.0
G1 Y118.3563
G1 Y119.8563 Z-12.0
G1 Y123.0313
G1 Y124.5313 Z-19.0
G1 Y215.8288
G1 Y217.3288 Z-12.0
G1 Y220.5038
G1 Y222.0037 Z-19.0
G1 Y313.3013
G1 Y314.8012 Z-12.0
G1 Y317.9762
G1 Y319.4762 Z-19.0
G1 Y410.7738
G1 Y412.2738 Z-12.0
G1 Y415.4488
G1 Y416.9487 Z-19.0
G1 Y508.2462
G1 Y509.7463 Z-12.0
G1 Y512.9213
G1 Y514.4212 Z-19.0
G1 Y605.7188
G1 Y607.2188 Z-12.0
G1 Y610.3938
G1 Y611.8937 Z-19.0
G1 Y703.1913
G1 Y704.6913 Z-12.0
G1 Y707.8663
G1 Y709.3662 Z-19.0
G1 Y730.25
G3 X609.6 Y731.8375 I-1.5875 J0.0
G1 X539.1863
G1 X537.6863 Z-12.0
G1 X534.5112
G1 X533.0112 Z-19.0
G1 X441.7138
G1 X440.2138 Z-12.0
G1 X437.0388
G1 X435.5388 Z-19.0
G1 X344.2413
G1 X342.7413 Z-12.0
G1 X339.5663
G1 X338.0663 Z-19.0
G1 X246.7687
G1 X245.2687 Z-12.0
G1 X242.0938
G1 X240.5938 Z-19.0
G1 X149.2963
G1 X147.7963 Z-12.0
G1 X144.6213
G1 X143.1213 Z-19.0
G1 X51.8237
G1 X50.3237 Z-12.0
G1 X47.1488
G1 X45.6488 Z-19.0
G1 X0.0
G0 Z75.0
G0 Y-1.5875
G0 Z-18.9
G1 F120.0 Z-20.0
G1 F3000.0 X45.6488
G1 X47.1488 Z-12.0
G1 X50.3238
G1 X51.8238 Z-20.0
G1 X143.1213
G1 X144.6213 Z-12.0
G1 X147.7963
G1 X149.2963 Z-20.0
G1 X240.5938
G1 X242.0938 Z-12.0
G1 X245.2688
G1 X246.7688 Z-20.0
G1 X338.0663
G1 X339.5663 Z-12.0
G1 X342.7413
G1 X344.2413 Z-20.0
G1 X435.5388
G1 X437.0388 Z-12.0
G1 X440.2138
G1 X441.7138 Z-20.0
G1 X533.0113
G1 X534.5113 Z-12.0
G1 X537.6863
G1 X539.1863 Z-20.0
G1 X609.6
G3 X611.1875 Y0.0 I0.0 J1.5875
G1 Y20.8838
G1 Y22.3838 Z-12.0
G1 Y25.5588
G1 Y27.0588 Z-20.0
G1 Y118.3563
G1 Y119.8563 Z-12.0
G1 Y123.0313
G1 Y124.5313 Z-20.0
G1 Y215.8288
G1 Y217.3288 Z-12.0
G1 Y220.5038
G1 Y222.0037 Z-20.0
G1 Y313.3013
G1 Y314.8012 Z-12.0
G1 Y317.9762
G1 Y319.4762 Z-20.0
G1 Y410.7738
G1 Y412.2738 Z-12.0
G1 Y415.4488
G1 Y416.9487 Z-20.0
G1 Y508.2462
G1 Y509.7463 Z-12.0
G1 Y512.9213
G1 Y514.4212 Z-20.0
G1 Y605.7188
G1 Y607.2188 Z-12.0
G1 Y610.3938
G1 Y611.8937 Z-20.0
G1 Y703.1913
G1 Y704.6913 Z-12.0
G1 Y707.8663
G1 Y709.3662 Z-20.0
G1 Y730.25
G3 X609.6 Y731.8375 I-1.5875 J0.0
G1 X539.1863
G1 X537.6863 Z-12.0
G1 X534.5112
G1 X533.0112 Z-20.0
G1 X441.7138
G1 X440.2138 Z-12.0
G1 X437.0388
G1 X435.5388 Z-20.0
G1 X344.2413
G1 X342.7413 Z-12.0
G1 X339.5663
G1 X338.0663 Z-20.0
G1 X246.7687
G1 X245.2687 Z-12.0
G1 X242.0938
G1 X240.5938 Z-20.0
G1 X149.2963
G1 X147.7963 Z-12.0
G1 X144.6213
G1 X143.1213 Z-20.0
G1 X51.8237
G1 X50.3237 Z-12.0
G1 X47.1488
G1 X45.6488 Z-20.0
G1 X0.0
G0 Z75.0
M5
M30
