( Made using CamBam - http://www.cambam.co.uk )
( J_KeyboardDiv_Back 1/2/2020 10:47:33 AM )
( T18 : 3.175 )
G21 G90 G91.1 G64 G40
G0 Z3.0
( T18 : 3.175 )
T18 M6
( Pocket2 )
G17
M3 S12000
G0 X297.18 Y73.3425
G0 Z0.1
G1 F120.0 Z-1.0
G1 F3000.0 Y72.7075
G1 X2.8575
G1 Y73.3425
G1 X297.18
G0 Z3.0
G0 X298.45
G0 Z0.1
G1 F120.0 Z-1.0
G1 F3000.0 Y71.4375
G1 X1.5875
G1 Y74.6125
G1 X298.45
G1 Y73.3425
G0 Z3.0
G0 X297.18
G0 Z-0.9
G1 F120.0 Z-2.0
G1 F3000.0 Y72.7075
G1 X2.8575
G1 Y73.3425
G1 X297.18
G0 Z3.0
G0 X298.45
G0 Z-0.9
G1 F120.0 Z-2.0
G1 F3000.0 Y71.4375
G1 X1.5875
G1 Y74.6125
G1 X298.45
G1 Y73.3425
G0 Z3.0
G0 X297.18
G0 Z-1.9
G1 F120.0 Z-3.0
G1 F3000.0 Y72.7075
G1 X2.8575
G1 Y73.3425
G1 X297.18
G0 Z3.0
G0 X298.45
G0 Z-1.9
G1 F120.0 Z-3.0
G1 F3000.0 Y71.4375
G1 X1.5875
G1 Y74.6125
G1 X298.45
G1 Y73.3425
G0 Z3.0
G0 X297.18
G0 Z-2.9
G1 F120.0 Z-4.0
G1 F3000.0 Y72.7075
G1 X2.8575
G1 Y73.3425
G1 X297.18
G0 Z3.0
G0 X298.45
G0 Z-2.9
G1 F120.0 Z-4.0
G1 F3000.0 Y71.4375
G1 X1.5875
G1 Y74.6125
G1 X298.45
G1 Y73.3425
G0 Z3.0
G0 X297.18
G0 Z-3.9
G1 F120.0 Z-5.0
G1 F3000.0 Y72.7075
G1 X2.8575
G1 Y73.3425
G1 X297.18
G0 Z3.0
G0 X298.45
G0 Z-3.9
G1 F120.0 Z-5.0
G1 F3000.0 Y71.4375
G1 X1.5875
G1 Y74.6125
G1 X298.45
G1 Y73.3425
G0 Z3.0
G0 X297.18
G0 Z-4.9
G1 F120.0 Z-6.0
G1 F3000.0 Y72.7075
G1 X2.8575
G1 Y73.3425
G1 X297.18
G0 Z3.0
G0 X298.45
G0 Z-4.9
G1 F120.0 Z-6.0
G1 F3000.0 Y71.4375
G1 X1.5875
G1 Y74.6125
G1 X298.45
G1 Y73.3425
G0 Z3.0
G0 X297.18 Y142.5575
G0 Z0.1
G1 F120.0 Z-1.0
G1 F3000.0 X2.8575
G1 Y143.1925
G1 X297.18
G1 Y142.5575
G0 Z3.0
G0 X298.45
G0 Z0.1
G1 F120.0 Z-1.0
G1 F3000.0 Y141.2875
G1 X1.5875
G1 Y144.4625
G1 X298.45
G1 Y142.5575
G0 Z3.0
G0 X297.18
G0 Z-0.9
G1 F120.0 Z-2.0
G1 F3000.0 X2.8575
G1 Y143.1925
G1 X297.18
G1 Y142.5575
G0 Z3.0
G0 X298.45
G0 Z-0.9
G1 F120.0 Z-2.0
G1 F3000.0 Y141.2875
G1 X1.5875
G1 Y144.4625
G1 X298.45
G1 Y142.5575
G0 Z3.0
G0 X297.18
G0 Z-1.9
G1 F120.0 Z-3.0
G1 F3000.0 X2.8575
G1 Y143.1925
G1 X297.18
G1 Y142.5575
G0 Z3.0
G0 X298.45
G0 Z-1.9
G1 F120.0 Z-3.0
G1 F3000.0 Y141.2875
G1 X1.5875
G1 Y144.4625
G1 X298.45
G1 Y142.5575
G0 Z3.0
G0 X297.18
G0 Z-2.9
G1 F120.0 Z-4.0
G1 F3000.0 X2.8575
G1 Y143.1925
G1 X297.18
G1 Y142.5575
G0 Z3.0
G0 X298.45
G0 Z-2.9
G1 F120.0 Z-4.0
G1 F3000.0 Y141.2875
G1 X1.5875
G1 Y144.4625
G1 X298.45
G1 Y142.5575
G0 Z3.0
G0 X297.18
G0 Z-3.9
G1 F120.0 Z-5.0
G1 F3000.0 X2.8575
G1 Y143.1925
G1 X297.18
G1 Y142.5575
G0 Z3.0
G0 X298.45
G0 Z-3.9
G1 F120.0 Z-5.0
G1 F3000.0 Y141.2875
G1 X1.5875
G1 Y144.4625
G1 X298.45
G1 Y142.5575
G0 Z3.0
G0 X297.18
G0 Z-4.9
G1 F120.0 Z-6.0
G1 F3000.0 X2.8575
G1 Y143.1925
G1 X297.18
G1 Y142.5575
G0 Z3.0
G0 X298.45
G0 Z-4.9
G1 F120.0 Z-6.0
G1 F3000.0 Y141.2875
G1 X1.5875
G1 Y144.4625
G1 X298.45
G1 Y142.5575
G0 Z3.0
G0 X297.18 Y212.4075
G0 Z0.1
G1 F120.0 Z-1.0
G1 F3000.0 X2.8575
G1 Y213.0425
G1 X297.18
G1 Y212.4075
G0 Z3.0
G0 Y211.1375
G0 Z0.1
G1 F120.0 Z-1.0
G1 F3000.0 X1.5875
G1 Y214.3125
G1 X298.45
G1 Y211.1375
G1 X297.18
G0 Z3.0
G0 Y212.4075
G0 Z-0.9
G1 F120.0 Z-2.0
G1 F3000.0 X2.8575
G1 Y213.0425
G1 X297.18
G1 Y212.4075
G0 Z3.0
G0 Y211.1375
G0 Z-0.9
G1 F120.0 Z-2.0
G1 F3000.0 X1.5875
G1 Y214.3125
G1 X298.45
G1 Y211.1375
G1 X297.18
G0 Z3.0
G0 Y212.4075
G0 Z-1.9
G1 F120.0 Z-3.0
G1 F3000.0 X2.8575
G1 Y213.0425
G1 X297.18
G1 Y212.4075
G0 Z3.0
G0 Y211.1375
G0 Z-1.9
G1 F120.0 Z-3.0
G1 F3000.0 X1.5875
G1 Y214.3125
G1 X298.45
G1 Y211.1375
G1 X297.18
G0 Z3.0
G0 Y212.4075
G0 Z-2.9
G1 F120.0 Z-4.0
G1 F3000.0 X2.8575
G1 Y213.0425
G1 X297.18
G1 Y212.4075
G0 Z3.0
G0 Y211.1375
G0 Z-2.9
G1 F120.0 Z-4.0
G1 F3000.0 X1.5875
G1 Y214.3125
G1 X298.45
G1 Y211.1375
G1 X297.18
G0 Z3.0
G0 Y212.4075
G0 Z-3.9
G1 F120.0 Z-5.0
G1 F3000.0 X2.8575
G1 Y213.0425
G1 X297.18
G1 Y212.4075
G0 Z3.0
G0 Y211.1375
G0 Z-3.9
G1 F120.0 Z-5.0
G1 F3000.0 X1.5875
G1 Y214.3125
G1 X298.45
G1 Y211.1375
G1 X297.18
G0 Z3.0
G0 Y212.4075
G0 Z-4.9
G1 F120.0 Z-6.0
G1 F3000.0 X2.8575
G1 Y213.0425
G1 X297.18
G1 Y212.4075
G0 Z3.0
G0 Y211.1375
G0 Z-4.9
G1 F120.0 Z-6.0
G1 F3000.0 X1.5875
G1 Y214.3125
G1 X298.45
G1 Y211.1375
G1 X297.18
G0 Z3.0
G0 Y282.2575
G0 Z0.1
G1 F120.0 Z-1.0
G1 F3000.0 X2.8575
G1 Y282.8925
G1 X297.18
G1 Y282.2575
G0 Z3.0
G0 Y280.9875
G0 Z0.1
G1 F120.0 Z-1.0
G1 F3000.0 X1.5875
G1 Y284.1625
G1 X298.45
G1 Y280.9875
G1 X297.18
G0 Z3.0
G0 Y282.2575
G0 Z-0.9
G1 F120.0 Z-2.0
G1 F3000.0 X2.8575
G1 Y282.8925
G1 X297.18
G1 Y282.2575
G0 Z3.0
G0 Y280.9875
G0 Z-0.9
G1 F120.0 Z-2.0
G1 F3000.0 X1.5875
G1 Y284.1625
G1 X298.45
G1 Y280.9875
G1 X297.18
G0 Z3.0
G0 Y282.2575
G0 Z-1.9
G1 F120.0 Z-3.0
G1 F3000.0 X2.8575
G1 Y282.8925
G1 X297.18
G1 Y282.2575
G0 Z3.0
G0 Y280.9875
G0 Z-1.9
G1 F120.0 Z-3.0
G1 F3000.0 X1.5875
G1 Y284.1625
G1 X298.45
G1 Y280.9875
G1 X297.18
G0 Z3.0
G0 Y282.2575
G0 Z-2.9
G1 F120.0 Z-4.0
G1 F3000.0 X2.8575
G1 Y282.8925
G1 X297.18
G1 Y282.2575
G0 Z3.0
G0 Y280.9875
G0 Z-2.9
G1 F120.0 Z-4.0
G1 F3000.0 X1.5875
G1 Y284.1625
G1 X298.45
G1 Y280.9875
G1 X297.18
G0 Z3.0
G0 Y282.2575
G0 Z-3.9
G1 F120.0 Z-5.0
G1 F3000.0 X2.8575
G1 Y282.8925
G1 X297.18
G1 Y282.2575
G0 Z3.0
G0 Y280.9875
G0 Z-3.9
G1 F120.0 Z-5.0
G1 F3000.0 X1.5875
G1 Y284.1625
G1 X298.45
G1 Y280.9875
G1 X297.18
G0 Z3.0
G0 Y282.2575
G0 Z-4.9
G1 F120.0 Z-6.0
G1 F3000.0 X2.8575
G1 Y282.8925
G1 X297.18
G1 Y282.2575
G0 Z3.0
G0 Y280.9875
G0 Z-4.9
G1 F120.0 Z-6.0
G1 F3000.0 X1.5875
G1 Y284.1625
G1 X298.45
G1 Y280.9875
G1 X297.18
G0 Z3.0
G0 Y352.1075
G0 Z0.1
G1 F120.0 Z-1.0
G1 F3000.0 X2.8575
G1 Y352.7425
G1 X297.18
G1 Y352.1075
G0 Z3.0
G0 X298.45
G0 Z0.1
G1 F120.0 Z-1.0
G1 F3000.0 Y350.8375
G1 X1.5875
G1 Y354.0125
G1 X298.45
G1 Y352.1075
G0 Z3.0
G0 X297.18
G0 Z-0.9
G1 F120.0 Z-2.0
G1 F3000.0 X2.8575
G1 Y352.7425
G1 X297.18
G1 Y352.1075
G0 Z3.0
G0 X298.45
G0 Z-0.9
G1 F120.0 Z-2.0
G1 F3000.0 Y350.8375
G1 X1.5875
G1 Y354.0125
G1 X298.45
G1 Y352.1075
G0 Z3.0
G0 X297.18
G0 Z-1.9
G1 F120.0 Z-3.0
G1 F3000.0 X2.8575
G1 Y352.7425
G1 X297.18
G1 Y352.1075
G0 Z3.0
G0 X298.45
G0 Z-1.9
G1 F120.0 Z-3.0
G1 F3000.0 Y350.8375
G1 X1.5875
G1 Y354.0125
G1 X298.45
G1 Y352.1075
G0 Z3.0
G0 X297.18
G0 Z-2.9
G1 F120.0 Z-4.0
G1 F3000.0 X2.8575
G1 Y352.7425
G1 X297.18
G1 Y352.1075
G0 Z3.0
G0 X298.45
G0 Z-2.9
G1 F120.0 Z-4.0
G1 F3000.0 Y350.8375
G1 X1.5875
G1 Y354.0125
G1 X298.45
G1 Y352.1075
G0 Z3.0
G0 X297.18
G0 Z-3.9
G1 F120.0 Z-5.0
G1 F3000.0 X2.8575
G1 Y352.7425
G1 X297.18
G1 Y352.1075
G0 Z3.0
G0 X298.45
G0 Z-3.9
G1 F120.0 Z-5.0
G1 F3000.0 Y350.8375
G1 X1.5875
G1 Y354.0125
G1 X298.45
G1 Y352.1075
G0 Z3.0
G0 X297.18
G0 Z-4.9
G1 F120.0 Z-6.0
G1 F3000.0 X2.8575
G1 Y352.7425
G1 X297.18
G1 Y352.1075
G0 Z3.0
G0 X298.45
G0 Z-4.9
G1 F120.0 Z-6.0
G1 F3000.0 Y350.8375
G1 X1.5875
G1 Y354.0125
G1 X298.45
G1 Y352.1075
G0 Z3.0
G0 X297.18 Y421.9575
G0 Z0.1
G1 F120.0 Z-1.0
G1 F3000.0 X2.8575
G1 Y422.5925
G1 X297.18
G1 Y421.9575
G0 Z3.0
G0 Y420.6875
G0 Z0.1
G1 F120.0 Z-1.0
G1 F3000.0 X1.5875
G1 Y423.8625
G1 X298.45
G1 Y420.6875
G1 X297.18
G0 Z3.0
G0 Y421.9575
G0 Z-0.9
G1 F120.0 Z-2.0
G1 F3000.0 X2.8575
G1 Y422.5925
G1 X297.18
G1 Y421.9575
G0 Z3.0
G0 Y420.6875
G0 Z-0.9
G1 F120.0 Z-2.0
G1 F3000.0 X1.5875
G1 Y423.8625
G1 X298.45
G1 Y420.6875
G1 X297.18
G0 Z3.0
G0 Y421.9575
G0 Z-1.9
G1 F120.0 Z-3.0
G1 F3000.0 X2.8575
G1 Y422.5925
G1 X297.18
G1 Y421.9575
G0 Z3.0
G0 Y420.6875
G0 Z-1.9
G1 F120.0 Z-3.0
G1 F3000.0 X1.5875
G1 Y423.8625
G1 X298.45
G1 Y420.6875
G1 X297.18
G0 Z3.0
G0 Y421.9575
G0 Z-2.9
G1 F120.0 Z-4.0
G1 F3000.0 X2.8575
G1 Y422.5925
G1 X297.18
G1 Y421.9575
G0 Z3.0
G0 Y420.6875
G0 Z-2.9
G1 F120.0 Z-4.0
G1 F3000.0 X1.5875
G1 Y423.8625
G1 X298.45
G1 Y420.6875
G1 X297.18
G0 Z3.0
G0 Y421.9575
G0 Z-3.9
G1 F120.0 Z-5.0
G1 F3000.0 X2.8575
G1 Y422.5925
G1 X297.18
G1 Y421.9575
G0 Z3.0
G0 Y420.6875
G0 Z-3.9
G1 F120.0 Z-5.0
G1 F3000.0 X1.5875
G1 Y423.8625
G1 X298.45
G1 Y420.6875
G1 X297.18
G0 Z3.0
G0 Y421.9575
G0 Z-4.9
G1 F120.0 Z-6.0
G1 F3000.0 X2.8575
G1 Y422.5925
G1 X297.18
G1 Y421.9575
G0 Z3.0
G0 Y420.6875
G0 Z-4.9
G1 F120.0 Z-6.0
G1 F3000.0 X1.5875
G1 Y423.8625
G1 X298.45
G1 Y420.6875
G1 X297.18
G0 Z3.0
G0 Y491.8075
G0 Z0.1
G1 F120.0 Z-1.0
G1 F3000.0 X2.8575
G1 Y492.4425
G1 X297.18
G1 Y491.8075
G0 Z3.0
G0 X298.45
G0 Z0.1
G1 F120.0 Z-1.0
G1 F3000.0 Y490.5375
G1 X1.5875
G1 Y493.7125
G1 X298.45
G1 Y491.8075
G0 Z3.0
G0 X297.18
G0 Z-0.9
G1 F120.0 Z-2.0
G1 F3000.0 X2.8575
G1 Y492.4425
G1 X297.18
G1 Y491.8075
G0 Z3.0
G0 X298.45
G0 Z-0.9
G1 F120.0 Z-2.0
G1 F3000.0 Y490.5375
G1 X1.5875
G1 Y493.7125
G1 X298.45
G1 Y491.8075
G0 Z3.0
G0 X297.18
G0 Z-1.9
G1 F120.0 Z-3.0
G1 F3000.0 X2.8575
G1 Y492.4425
G1 X297.18
G1 Y491.8075
G0 Z3.0
G0 X298.45
G0 Z-1.9
G1 F120.0 Z-3.0
G1 F3000.0 Y490.5375
G1 X1.5875
G1 Y493.7125
G1 X298.45
G1 Y491.8075
G0 Z3.0
G0 X297.18
G0 Z-2.9
G1 F120.0 Z-4.0
G1 F3000.0 X2.8575
G1 Y492.4425
G1 X297.18
G1 Y491.8075
G0 Z3.0
G0 X298.45
G0 Z-2.9
G1 F120.0 Z-4.0
G1 F3000.0 Y490.5375
G1 X1.5875
G1 Y493.7125
G1 X298.45
G1 Y491.8075
G0 Z3.0
G0 X297.18
G0 Z-3.9
G1 F120.0 Z-5.0
G1 F3000.0 X2.8575
G1 Y492.4425
G1 X297.18
G1 Y491.8075
G0 Z3.0
G0 X298.45
G0 Z-3.9
G1 F120.0 Z-5.0
G1 F3000.0 Y490.5375
G1 X1.5875
G1 Y493.7125
G1 X298.45
G1 Y491.8075
G0 Z3.0
G0 X297.18
G0 Z-4.9
G1 F120.0 Z-6.0
G1 F3000.0 X2.8575
G1 Y492.4425
G1 X297.18
G1 Y491.8075
G0 Z3.0
G0 X298.45
G0 Z-4.9
G1 F120.0 Z-6.0
G1 F3000.0 Y490.5375
G1 X1.5875
G1 Y493.7125
G1 X298.45
G1 Y491.8075
G0 Z3.0
G0 X297.18 Y561.6575
G0 Z0.1
G1 F120.0 Z-1.0
G1 F3000.0 X2.8575
G1 Y562.2925
G1 X297.18
G1 Y561.6575
G0 Z3.0
G0 Y560.3875
G0 Z0.1
G1 F120.0 Z-1.0
G1 F3000.0 X1.5875
G1 Y563.5625
G1 X298.45
G1 Y560.3875
G1 X297.18
G0 Z3.0
G0 Y561.6575
G0 Z-0.9
G1 F120.0 Z-2.0
G1 F3000.0 X2.8575
G1 Y562.2925
G1 X297.18
G1 Y561.6575
G0 Z3.0
G0 Y560.3875
G0 Z-0.9
G1 F120.0 Z-2.0
G1 F3000.0 X1.5875
G1 Y563.5625
G1 X298.45
G1 Y560.3875
G1 X297.18
G0 Z3.0
G0 Y561.6575
G0 Z-1.9
G1 F120.0 Z-3.0
G1 F3000.0 X2.8575
G1 Y562.2925
G1 X297.18
G1 Y561.6575
G0 Z3.0
G0 Y560.3875
G0 Z-1.9
G1 F120.0 Z-3.0
G1 F3000.0 X1.5875
G1 Y563.5625
G1 X298.45
G1 Y560.3875
G1 X297.18
G0 Z3.0
G0 Y561.6575
G0 Z-2.9
G1 F120.0 Z-4.0
G1 F3000.0 X2.8575
G1 Y562.2925
G1 X297.18
G1 Y561.6575
G0 Z3.0
G0 Y560.3875
G0 Z-2.9
G1 F120.0 Z-4.0
G1 F3000.0 X1.5875
G1 Y563.5625
G1 X298.45
G1 Y560.3875
G1 X297.18
G0 Z3.0
G0 Y561.6575
G0 Z-3.9
G1 F120.0 Z-5.0
G1 F3000.0 X2.8575
G1 Y562.2925
G1 X297.18
G1 Y561.6575
G0 Z3.0
G0 Y560.3875
G0 Z-3.9
G1 F120.0 Z-5.0
G1 F3000.0 X1.5875
G1 Y563.5625
G1 X298.45
G1 Y560.3875
G1 X297.18
G0 Z3.0
G0 Y561.6575
G0 Z-4.9
G1 F120.0 Z-6.0
G1 F3000.0 X2.8575
G1 Y562.2925
G1 X297.18
G1 Y561.6575
G0 Z3.0
G0 Y560.3875
G0 Z-4.9
G1 F120.0 Z-6.0
G1 F3000.0 X1.5875
G1 Y563.5625
G1 X298.45
G1 Y560.3875
G1 X297.18
G0 Z3.0
G0 Y631.5075
G0 Z0.1
G1 F120.0 Z-1.0
G1 F3000.0 X2.8575
G1 Y632.1425
G1 X297.18
G1 Y631.5075
G0 Z3.0
G0 X298.45
G0 Z0.1
G1 F120.0 Z-1.0
G1 F3000.0 Y630.2375
G1 X1.5875
G1 Y633.4125
G1 X298.45
G1 Y631.5075
G0 Z3.0
G0 X297.18
G0 Z-0.9
G1 F120.0 Z-2.0
G1 F3000.0 X2.8575
G1 Y632.1425
G1 X297.18
G1 Y631.5075
G0 Z3.0
G0 X298.45
G0 Z-0.9
G1 F120.0 Z-2.0
G1 F3000.0 Y630.2375
G1 X1.5875
G1 Y633.4125
G1 X298.45
G1 Y631.5075
G0 Z3.0
G0 X297.18
G0 Z-1.9
G1 F120.0 Z-3.0
G1 F3000.0 X2.8575
G1 Y632.1425
G1 X297.18
G1 Y631.5075
G0 Z3.0
G0 X298.45
G0 Z-1.9
G1 F120.0 Z-3.0
G1 F3000.0 Y630.2375
G1 X1.5875
G1 Y633.4125
G1 X298.45
G1 Y631.5075
G0 Z3.0
G0 X297.18
G0 Z-2.9
G1 F120.0 Z-4.0
G1 F3000.0 X2.8575
G1 Y632.1425
G1 X297.18
G1 Y631.5075
G0 Z3.0
G0 X298.45
G0 Z-2.9
G1 F120.0 Z-4.0
G1 F3000.0 Y630.2375
G1 X1.5875
G1 Y633.4125
G1 X298.45
G1 Y631.5075
G0 Z3.0
G0 X297.18
G0 Z-3.9
G1 F120.0 Z-5.0
G1 F3000.0 X2.8575
G1 Y632.1425
G1 X297.18
G1 Y631.5075
G0 Z3.0
G0 X298.45
G0 Z-3.9
G1 F120.0 Z-5.0
G1 F3000.0 Y630.2375
G1 X1.5875
G1 Y633.4125
G1 X298.45
G1 Y631.5075
G0 Z3.0
G0 X297.18
G0 Z-4.9
G1 F120.0 Z-6.0
G1 F3000.0 X2.8575
G1 Y632.1425
G1 X297.18
G1 Y631.5075
G0 Z3.0
G0 X298.45
G0 Z-4.9
G1 F120.0 Z-6.0
G1 F3000.0 Y630.2375
G1 X1.5875
G1 Y633.4125
G1 X298.45
G1 Y631.5075
G0 Z3.0
M5
M30
