( Made using CamBam - http://www.cambam.co.uk )
( JK_KeyboardDiv_SideDiv 1/2/2020 7:32:03 AM )
( T18 : 3.175 )
G21 G90 G91.1 G64 G40
G0 Z3.0
( T18 : 3.175 )
T18 M6
( Pocket1 )
G17
M3 S12000
G0 X303.4085 Y142.875
G0 Z0.1
G1 F120.0 Z-1.0
G3 F3000.0 X304.0063 Y146.05 I-8.1335 J3.175
G1 Y209.55
G3 X303.4085 Y212.725 I-8.7312 J0.0
G3 X304.0063 Y215.9 I-8.1335 J3.175
G1 Y279.4
G3 X303.4085 Y282.575 I-8.7312 J0.0
G3 X304.0063 Y285.75 I-8.1335 J3.175
G1 Y349.25
G3 X303.4085 Y352.425 I-8.7312 J0.0
G3 X304.0063 Y355.6 I-8.1335 J3.175
G1 Y419.1
G3 X303.4085 Y422.275 I-8.7312 J0.0
G3 X304.0063 Y425.45 I-8.1335 J3.175
G1 Y488.95
G3 X303.4085 Y492.125 I-8.7312 J0.0
G3 X304.0063 Y495.3 I-8.1335 J3.175
G1 Y558.8
G3 X303.4085 Y561.975 I-8.7312 J0.0
G3 X304.0063 Y565.15 I-8.1335 J3.175
G1 Y628.65
G3 X303.4085 Y631.825 I-8.7312 J0.0
G3 X304.0063 Y635.0 I-8.1335 J3.175
G1 Y721.5188
G1 X305.5938
G1 Y635.0
G3 X306.1915 Y631.825 I8.7312 J0.0
G3 X305.5938 Y628.65 I8.1335 J-3.175
G1 Y565.15
G3 X306.1915 Y561.975 I8.7312 J0.0
G3 X305.5938 Y558.8 I8.1335 J-3.175
G1 Y495.3
G3 X306.1915 Y492.125 I8.7312 J0.0
G3 X305.5938 Y488.95 I8.1335 J-3.175
G1 Y425.45
G3 X306.1915 Y422.275 I8.7313 J0.0
G3 X305.5938 Y419.1 I8.1335 J-3.175
G1 Y355.6
G3 X306.1915 Y352.425 I8.7313 J0.0
G3 X305.5938 Y349.25 I8.1335 J-3.175
G1 Y285.75
G3 X306.1915 Y282.575 I8.7313 J0.0
G3 X305.5938 Y279.4 I8.1335 J-3.175
G1 Y215.9
G3 X306.1915 Y212.725 I8.7312 J0.0
G3 X305.5938 Y209.55 I8.1335 J-3.175
G1 Y146.05
G3 X306.1915 Y142.875 I8.7313 J0.0
G3 X305.5938 Y139.7 I8.1335 J-3.175
G1 Y76.2
G3 X306.1915 Y73.025 I8.7312 J0.0
G3 X305.5938 Y69.85 I8.1335 J-3.175
G1 Y8.7312
G1 X304.0063
G1 Y69.85
G3 X303.4085 Y73.025 I-8.7312 J0.0
G3 X304.0063 Y76.2 I-8.1335 J3.175
G1 Y139.7
G3 X303.4085 Y142.875 I-8.7312 J0.0
G0 Z3.0
G0 X302.0776 Y143.3945
G0 Z0.1
G1 F120.0 Z-1.0
G3 F3000.0 X302.5775 Y146.05 I-6.8026 J2.6555
G1 Y209.55
G3 X301.8512 Y212.725 I-7.3025 J0.0
G3 X302.5775 Y215.9 I-6.5762 J3.175
G1 Y279.4
G3 X301.8512 Y282.575 I-7.3025 J0.0
G3 X302.5775 Y285.75 I-6.5762 J3.175
G1 Y349.25
G3 X301.8512 Y352.425 I-7.3025 J0.0
G3 X302.5775 Y355.6 I-6.5762 J3.175
G1 Y419.1
G3 X301.8512 Y422.275 I-7.3025 J0.0
G3 X302.5775 Y425.45 I-6.5762 J3.175
G1 Y488.95
G3 X301.8512 Y492.125 I-7.3025 J0.0
G3 X302.5775 Y495.3 I-6.5762 J3.175
G1 Y558.8
G3 X301.8512 Y561.975 I-7.3025 J0.0
G3 X302.5775 Y565.15 I-6.5762 J3.175
G1 Y628.65
G3 X301.8512 Y631.825 I-7.3025 J0.0
G3 X302.5775 Y635.0 I-6.5762 J3.175
G1 Y722.9475
G1 X307.0225
G1 Y635.0
G3 X307.7488 Y631.825 I7.3025 J0.0
G3 X307.0225 Y628.65 I6.5762 J-3.175
G1 Y565.15
G3 X307.7488 Y561.975 I7.3025 J0.0
G3 X307.0225 Y558.8 I6.5762 J-3.175
G1 Y495.3
G3 X307.7488 Y492.125 I7.3025 J0.0
G3 X307.0225 Y488.95 I6.5762 J-3.175
G1 Y425.45
G3 X307.7488 Y422.275 I7.3025 J0.0
G3 X307.0225 Y419.1 I6.5762 J-3.175
G1 Y355.6
G3 X307.7488 Y352.425 I7.3025 J0.0
G3 X307.0225 Y349.25 I6.5762 J-3.175
G1 Y285.75
G3 X307.7488 Y282.575 I7.3025 J0.0
G3 X307.0225 Y279.4 I6.5762 J-3.175
G1 Y215.9
G3 X307.7488 Y212.725 I7.3025 J0.0
G3 X307.0225 Y209.55 I6.5762 J-3.175
G1 Y146.05
G3 X307.7488 Y142.875 I7.3025 J0.0
G3 X307.0225 Y139.7 I6.5762 J-3.175
G1 Y76.2
G3 X307.7488 Y73.025 I7.3025 J0.0
G3 X307.0225 Y69.85 I6.5762 J-3.175
G1 Y7.3025
G1 X302.5775
G1 Y69.85
G3 X301.8512 Y73.025 I-7.3025 J0.0
G3 X302.5775 Y76.2 I-6.5762 J3.175
G1 Y139.7
G3 X301.8512 Y142.875 I-7.3025 J0.0
G3 X302.0776 Y143.3945 I-6.5762 J3.175
G0 Z3.0
G0 X299.4157 Y144.4336
G0 Z0.1
G1 F120.0 Z-1.0
G3 F3000.0 X299.72 Y146.05 I-4.1407 J1.6164
G1 Y209.55
G3 X298.3859 Y212.725 I-4.445 J0.0
G3 X299.72 Y215.9 I-3.1109 J3.175
G1 Y279.4
G3 X298.3859 Y282.575 I-4.445 J0.0
G3 X299.72 Y285.75 I-3.1109 J3.175
G1 Y349.25
G3 X298.3859 Y352.425 I-4.445 J0.0
G3 X299.72 Y355.6 I-3.1109 J3.175
G1 Y419.1
G3 X298.3859 Y422.275 I-4.445 J0.0
G3 X299.72 Y425.45 I-3.1109 J3.175
G1 Y488.95
G3 X298.3859 Y492.125 I-4.445 J0.0
G3 X299.72 Y495.3 I-3.1109 J3.175
G1 Y558.8
G3 X298.3859 Y561.975 I-4.445 J0.0
G3 X299.72 Y565.15 I-3.1109 J3.175
G1 Y628.65
G3 X298.3859 Y631.825 I-4.445 J0.0
G3 X299.72 Y635.0 I-3.1109 J3.175
G1 Y725.805
G1 X309.88
G1 Y635.0
G3 X311.2141 Y631.825 I4.445 J0.0
G3 X309.88 Y628.65 I3.1109 J-3.175
G1 Y565.15
G3 X311.2141 Y561.975 I4.445 J0.0
G3 X309.88 Y558.8 I3.1109 J-3.175
G1 Y495.3
G3 X311.2141 Y492.125 I4.445 J0.0
G3 X309.88 Y488.95 I3.1109 J-3.175
G1 Y425.45
G3 X311.2141 Y422.275 I4.445 J0.0
G3 X309.88 Y419.1 I3.1109 J-3.175
G1 Y355.6
G3 X311.2141 Y352.425 I4.445 J0.0
G3 X309.88 Y349.25 I3.1109 J-3.175
G1 Y285.75
G3 X311.2141 Y282.575 I4.445 J0.0
G3 X309.88 Y279.4 I3.1109 J-3.175
G1 Y215.9
G3 X311.2141 Y212.725 I4.445 J0.0
G3 X309.88 Y209.55 I3.1109 J-3.175
G1 Y146.05
G3 X311.2141 Y142.875 I4.445 J0.0
G3 X309.88 Y139.7 I3.1109 J-3.175
G1 Y76.2
G3 X311.2141 Y73.025 I4.445 J0.0
G3 X309.88 Y69.85 I3.1109 J-3.175
G1 Y4.445
G1 X299.72
G1 Y69.85
G3 X298.3859 Y73.025 I-4.445 J0.0
G3 X299.72 Y76.2 I-3.1109 J3.175
G1 Y139.7
G3 X298.3859 Y142.875 I-4.445 J0.0
G3 X299.4157 Y144.4336 I-3.1109 J3.175
G0 Z3.0
G0 X296.7538 Y145.4727
G0 Z0.1
G1 F120.0 Z-1.0
G3 F3000.0 X296.8625 Y146.05 I-1.4788 J0.5773
G1 Y209.55
G3 X295.275 Y211.1375 I-1.5875 J0.0
G1 X1.5875
G1 Y214.3125
G1 X295.275
G3 X296.8625 Y215.9 I0.0 J1.5875
G1 Y279.4
G3 X295.275 Y280.9875 I-1.5875 J0.0
G1 X1.5875
G1 Y284.1625
G1 X295.275
G3 X296.8625 Y285.75 I0.0 J1.5875
G1 Y349.25
G3 X295.275 Y350.8375 I-1.5875 J0.0
G1 X1.5875
G1 Y354.0125
G1 X295.275
G3 X296.8625 Y355.6 I0.0 J1.5875
G1 Y419.1
G3 X295.275 Y420.6875 I-1.5875 J0.0
G1 X1.5875
G1 Y423.8625
G1 X295.275
G3 X296.8625 Y425.45 I0.0 J1.5875
G1 Y488.95
G3 X295.275 Y490.5375 I-1.5875 J0.0
G1 X1.5875
G1 Y493.7125
G1 X295.275
G3 X296.8625 Y495.3 I0.0 J1.5875
G1 Y558.8
G3 X295.275 Y560.3875 I-1.5875 J0.0
G1 X1.5875
G1 Y563.5625
G1 X295.275
G3 X296.8625 Y565.15 I0.0 J1.5875
G1 Y628.65
G3 X295.275 Y630.2375 I-1.5875 J0.0
G1 X1.5875
G1 Y633.4125
G1 X295.275
G3 X296.8625 Y635.0 I0.0 J1.5875
G1 Y728.6625
G1 X312.7375
G1 Y635.0
G3 X314.325 Y633.4125 I1.5875 J0.0
G1 X608.0125
G1 Y630.2375
G1 X314.325
G3 X312.7375 Y628.65 I0.0 J-1.5875
G1 Y565.15
G3 X314.325 Y563.5625 I1.5875 J0.0
G1 X608.0125
G1 Y560.3875
G1 X314.325
G3 X312.7375 Y558.8 I0.0 J-1.5875
G1 Y495.3
G3 X314.325 Y493.7125 I1.5875 J0.0
G1 X608.0125
G1 Y490.5375
G1 X314.325
G3 X312.7375 Y488.95 I0.0 J-1.5875
G1 Y425.45
G3 X314.325 Y423.8625 I1.5875 J0.0
G1 X608.0125
G1 Y420.6875
G1 X314.325
G3 X312.7375 Y419.1 I0.0 J-1.5875
G1 Y355.6
G3 X314.325 Y354.0125 I1.5875 J0.0
G1 X608.0125
G1 Y350.8375
G1 X314.325
G3 X312.7375 Y349.25 I0.0 J-1.5875
G1 Y285.75
G3 X314.325 Y284.1625 I1.5875 J0.0
G1 X608.0125
G1 Y280.9875
G1 X314.325
G3 X312.7375 Y279.4 I0.0 J-1.5875
G1 Y215.9
G3 X314.325 Y214.3125 I1.5875 J0.0
G1 X608.0125
G1 Y211.1375
G1 X314.325
G3 X312.7375 Y209.55 I0.0 J-1.5875
G1 Y146.05
G3 X314.325 Y144.4625 I1.5875 J0.0
G1 X608.0125
G1 Y141.2875
G1 X314.325
G3 X312.7375 Y139.7 I0.0 J-1.5875
G1 Y76.2
G3 X314.325 Y74.6125 I1.5875 J0.0
G1 X608.0125
G1 Y71.4375
G1 X314.325
G3 X312.7375 Y69.85 I0.0 J-1.5875
G1 Y1.5875
G1 X296.8625
G1 Y69.85
G3 X295.275 Y71.4375 I-1.5875 J0.0
G1 X1.5875
G1 Y74.6125
G1 X295.275
G3 X296.8625 Y76.2 I0.0 J1.5875
G1 Y139.7
G3 X295.275 Y141.2875 I-1.5875 J0.0
G1 X1.5875
G1 Y144.4625
G1 X295.275
G3 X296.7538 Y145.4727 I0.0 J1.5875
G0 Z3.0
G0 X303.4085 Y142.875
G0 Z-0.9
G1 F120.0 Z-2.0
G3 F3000.0 X304.0063 Y146.05 I-8.1335 J3.175
G1 Y209.55
G3 X303.4085 Y212.725 I-8.7312 J0.0
G3 X304.0063 Y215.9 I-8.1335 J3.175
G1 Y279.4
G3 X303.4085 Y282.575 I-8.7312 J0.0
G3 X304.0063 Y285.75 I-8.1335 J3.175
G1 Y349.25
G3 X303.4085 Y352.425 I-8.7312 J0.0
G3 X304.0063 Y355.6 I-8.1335 J3.175
G1 Y419.1
G3 X303.4085 Y422.275 I-8.7312 J0.0
G3 X304.0063 Y425.45 I-8.1335 J3.175
G1 Y488.95
G3 X303.4085 Y492.125 I-8.7312 J0.0
G3 X304.0063 Y495.3 I-8.1335 J3.175
G1 Y558.8
G3 X303.4085 Y561.975 I-8.7312 J0.0
G3 X304.0063 Y565.15 I-8.1335 J3.175
G1 Y628.65
G3 X303.4085 Y631.825 I-8.7312 J0.0
G3 X304.0063 Y635.0 I-8.1335 J3.175
G1 Y721.5188
G1 X305.5938
G1 Y635.0
G3 X306.1915 Y631.825 I8.7312 J0.0
G3 X305.5938 Y628.65 I8.1335 J-3.175
G1 Y565.15
G3 X306.1915 Y561.975 I8.7312 J0.0
G3 X305.5938 Y558.8 I8.1335 J-3.175
G1 Y495.3
G3 X306.1915 Y492.125 I8.7312 J0.0
G3 X305.5938 Y488.95 I8.1335 J-3.175
G1 Y425.45
G3 X306.1915 Y422.275 I8.7313 J0.0
G3 X305.5938 Y419.1 I8.1335 J-3.175
G1 Y355.6
G3 X306.1915 Y352.425 I8.7313 J0.0
G3 X305.5938 Y349.25 I8.1335 J-3.175
G1 Y285.75
G3 X306.1915 Y282.575 I8.7313 J0.0
G3 X305.5938 Y279.4 I8.1335 J-3.175
G1 Y215.9
G3 X306.1915 Y212.725 I8.7312 J0.0
G3 X305.5938 Y209.55 I8.1335 J-3.175
G1 Y146.05
G3 X306.1915 Y142.875 I8.7313 J0.0
G3 X305.5938 Y139.7 I8.1335 J-3.175
G1 Y76.2
G3 X306.1915 Y73.025 I8.7312 J0.0
G3 X305.5938 Y69.85 I8.1335 J-3.175
G1 Y8.7312
G1 X304.0063
G1 Y69.85
G3 X303.4085 Y73.025 I-8.7312 J0.0
G3 X304.0063 Y76.2 I-8.1335 J3.175
G1 Y139.7
G3 X303.4085 Y142.875 I-8.7312 J0.0
G0 Z3.0
G0 X302.0776 Y143.3945
G0 Z-0.9
G1 F120.0 Z-2.0
G3 F3000.0 X302.5775 Y146.05 I-6.8026 J2.6555
G1 Y209.55
G3 X301.8512 Y212.725 I-7.3025 J0.0
G3 X302.5775 Y215.9 I-6.5762 J3.175
G1 Y279.4
G3 X301.8512 Y282.575 I-7.3025 J0.0
G3 X302.5775 Y285.75 I-6.5762 J3.175
G1 Y349.25
G3 X301.8512 Y352.425 I-7.3025 J0.0
G3 X302.5775 Y355.6 I-6.5762 J3.175
G1 Y419.1
G3 X301.8512 Y422.275 I-7.3025 J0.0
G3 X302.5775 Y425.45 I-6.5762 J3.175
G1 Y488.95
G3 X301.8512 Y492.125 I-7.3025 J0.0
G3 X302.5775 Y495.3 I-6.5762 J3.175
G1 Y558.8
G3 X301.8512 Y561.975 I-7.3025 J0.0
G3 X302.5775 Y565.15 I-6.5762 J3.175
G1 Y628.65
G3 X301.8512 Y631.825 I-7.3025 J0.0
G3 X302.5775 Y635.0 I-6.5762 J3.175
G1 Y722.9475
G1 X307.0225
G1 Y635.0
G3 X307.7488 Y631.825 I7.3025 J0.0
G3 X307.0225 Y628.65 I6.5762 J-3.175
G1 Y565.15
G3 X307.7488 Y561.975 I7.3025 J0.0
G3 X307.0225 Y558.8 I6.5762 J-3.175
G1 Y495.3
G3 X307.7488 Y492.125 I7.3025 J0.0
G3 X307.0225 Y488.95 I6.5762 J-3.175
G1 Y425.45
G3 X307.7488 Y422.275 I7.3025 J0.0
G3 X307.0225 Y419.1 I6.5762 J-3.175
G1 Y355.6
G3 X307.7488 Y352.425 I7.3025 J0.0
G3 X307.0225 Y349.25 I6.5762 J-3.175
G1 Y285.75
G3 X307.7488 Y282.575 I7.3025 J0.0
G3 X307.0225 Y279.4 I6.5762 J-3.175
G1 Y215.9
G3 X307.7488 Y212.725 I7.3025 J0.0
G3 X307.0225 Y209.55 I6.5762 J-3.175
G1 Y146.05
G3 X307.7488 Y142.875 I7.3025 J0.0
G3 X307.0225 Y139.7 I6.5762 J-3.175
G1 Y76.2
G3 X307.7488 Y73.025 I7.3025 J0.0
G3 X307.0225 Y69.85 I6.5762 J-3.175
G1 Y7.3025
G1 X302.5775
G1 Y69.85
G3 X301.8512 Y73.025 I-7.3025 J0.0
G3 X302.5775 Y76.2 I-6.5762 J3.175
G1 Y139.7
G3 X301.8512 Y142.875 I-7.3025 J0.0
G3 X302.0776 Y143.3945 I-6.5762 J3.175
G0 Z3.0
G0 X299.4157 Y144.4336
G0 Z-0.9
G1 F120.0 Z-2.0
G3 F3000.0 X299.72 Y146.05 I-4.1407 J1.6164
G1 Y209.55
G3 X298.3859 Y212.725 I-4.445 J0.0
G3 X299.72 Y215.9 I-3.1109 J3.175
G1 Y279.4
G3 X298.3859 Y282.575 I-4.445 J0.0
G3 X299.72 Y285.75 I-3.1109 J3.175
G1 Y349.25
G3 X298.3859 Y352.425 I-4.445 J0.0
G3 X299.72 Y355.6 I-3.1109 J3.175
G1 Y419.1
G3 X298.3859 Y422.275 I-4.445 J0.0
G3 X299.72 Y425.45 I-3.1109 J3.175
G1 Y488.95
G3 X298.3859 Y492.125 I-4.445 J0.0
G3 X299.72 Y495.3 I-3.1109 J3.175
G1 Y558.8
G3 X298.3859 Y561.975 I-4.445 J0.0
G3 X299.72 Y565.15 I-3.1109 J3.175
G1 Y628.65
G3 X298.3859 Y631.825 I-4.445 J0.0
G3 X299.72 Y635.0 I-3.1109 J3.175
G1 Y725.805
G1 X309.88
G1 Y635.0
G3 X311.2141 Y631.825 I4.445 J0.0
G3 X309.88 Y628.65 I3.1109 J-3.175
G1 Y565.15
G3 X311.2141 Y561.975 I4.445 J0.0
G3 X309.88 Y558.8 I3.1109 J-3.175
G1 Y495.3
G3 X311.2141 Y492.125 I4.445 J0.0
G3 X309.88 Y488.95 I3.1109 J-3.175
G1 Y425.45
G3 X311.2141 Y422.275 I4.445 J0.0
G3 X309.88 Y419.1 I3.1109 J-3.175
G1 Y355.6
G3 X311.2141 Y352.425 I4.445 J0.0
G3 X309.88 Y349.25 I3.1109 J-3.175
G1 Y285.75
G3 X311.2141 Y282.575 I4.445 J0.0
G3 X309.88 Y279.4 I3.1109 J-3.175
G1 Y215.9
G3 X311.2141 Y212.725 I4.445 J0.0
G3 X309.88 Y209.55 I3.1109 J-3.175
G1 Y146.05
G3 X311.2141 Y142.875 I4.445 J0.0
G3 X309.88 Y139.7 I3.1109 J-3.175
G1 Y76.2
G3 X311.2141 Y73.025 I4.445 J0.0
G3 X309.88 Y69.85 I3.1109 J-3.175
G1 Y4.445
G1 X299.72
G1 Y69.85
G3 X298.3859 Y73.025 I-4.445 J0.0
G3 X299.72 Y76.2 I-3.1109 J3.175
G1 Y139.7
G3 X298.3859 Y142.875 I-4.445 J0.0
G3 X299.4157 Y144.4336 I-3.1109 J3.175
G0 Z3.0
G0 X296.7538 Y145.4727
G0 Z-0.9
G1 F120.0 Z-2.0
G3 F3000.0 X296.8625 Y146.05 I-1.4788 J0.5773
G1 Y209.55
G3 X295.275 Y211.1375 I-1.5875 J0.0
G1 X1.5875
G1 Y214.3125
G1 X295.275
G3 X296.8625 Y215.9 I0.0 J1.5875
G1 Y279.4
G3 X295.275 Y280.9875 I-1.5875 J0.0
G1 X1.5875
G1 Y284.1625
G1 X295.275
G3 X296.8625 Y285.75 I0.0 J1.5875
G1 Y349.25
G3 X295.275 Y350.8375 I-1.5875 J0.0
G1 X1.5875
G1 Y354.0125
G1 X295.275
G3 X296.8625 Y355.6 I0.0 J1.5875
G1 Y419.1
G3 X295.275 Y420.6875 I-1.5875 J0.0
G1 X1.5875
G1 Y423.8625
G1 X295.275
G3 X296.8625 Y425.45 I0.0 J1.5875
G1 Y488.95
G3 X295.275 Y490.5375 I-1.5875 J0.0
G1 X1.5875
G1 Y493.7125
G1 X295.275
G3 X296.8625 Y495.3 I0.0 J1.5875
G1 Y558.8
G3 X295.275 Y560.3875 I-1.5875 J0.0
G1 X1.5875
G1 Y563.5625
G1 X295.275
G3 X296.8625 Y565.15 I0.0 J1.5875
G1 Y628.65
G3 X295.275 Y630.2375 I-1.5875 J0.0
G1 X1.5875
G1 Y633.4125
G1 X295.275
G3 X296.8625 Y635.0 I0.0 J1.5875
G1 Y728.6625
G1 X312.7375
G1 Y635.0
G3 X314.325 Y633.4125 I1.5875 J0.0
G1 X608.0125
G1 Y630.2375
G1 X314.325
G3 X312.7375 Y628.65 I0.0 J-1.5875
G1 Y565.15
G3 X314.325 Y563.5625 I1.5875 J0.0
G1 X608.0125
G1 Y560.3875
G1 X314.325
G3 X312.7375 Y558.8 I0.0 J-1.5875
G1 Y495.3
G3 X314.325 Y493.7125 I1.5875 J0.0
G1 X608.0125
G1 Y490.5375
G1 X314.325
G3 X312.7375 Y488.95 I0.0 J-1.5875
G1 Y425.45
G3 X314.325 Y423.8625 I1.5875 J0.0
G1 X608.0125
G1 Y420.6875
G1 X314.325
G3 X312.7375 Y419.1 I0.0 J-1.5875
G1 Y355.6
G3 X314.325 Y354.0125 I1.5875 J0.0
G1 X608.0125
G1 Y350.8375
G1 X314.325
G3 X312.7375 Y349.25 I0.0 J-1.5875
G1 Y285.75
G3 X314.325 Y284.1625 I1.5875 J0.0
G1 X608.0125
G1 Y280.9875
G1 X314.325
G3 X312.7375 Y279.4 I0.0 J-1.5875
G1 Y215.9
G3 X314.325 Y214.3125 I1.5875 J0.0
G1 X608.0125
G1 Y211.1375
G1 X314.325
G3 X312.7375 Y209.55 I0.0 J-1.5875
G1 Y146.05
G3 X314.325 Y144.4625 I1.5875 J0.0
G1 X608.0125
G1 Y141.2875
G1 X314.325
G3 X312.7375 Y139.7 I0.0 J-1.5875
G1 Y76.2
G3 X314.325 Y74.6125 I1.5875 J0.0
G1 X608.0125
G1 Y71.4375
G1 X314.325
G3 X312.7375 Y69.85 I0.0 J-1.5875
G1 Y1.5875
G1 X296.8625
G1 Y69.85
G3 X295.275 Y71.4375 I-1.5875 J0.0
G1 X1.5875
G1 Y74.6125
G1 X295.275
G3 X296.8625 Y76.2 I0.0 J1.5875
G1 Y139.7
G3 X295.275 Y141.2875 I-1.5875 J0.0
G1 X1.5875
G1 Y144.4625
G1 X295.275
G3 X296.7538 Y145.4727 I0.0 J1.5875
G0 Z3.0
G0 X303.4085 Y142.875
G0 Z-1.9
G1 F120.0 Z-3.0
G3 F3000.0 X304.0063 Y146.05 I-8.1335 J3.175
G1 Y209.55
G3 X303.4085 Y212.725 I-8.7312 J0.0
G3 X304.0063 Y215.9 I-8.1335 J3.175
G1 Y279.4
G3 X303.4085 Y282.575 I-8.7312 J0.0
G3 X304.0063 Y285.75 I-8.1335 J3.175
G1 Y349.25
G3 X303.4085 Y352.425 I-8.7312 J0.0
G3 X304.0063 Y355.6 I-8.1335 J3.175
G1 Y419.1
G3 X303.4085 Y422.275 I-8.7312 J0.0
G3 X304.0063 Y425.45 I-8.1335 J3.175
G1 Y488.95
G3 X303.4085 Y492.125 I-8.7312 J0.0
G3 X304.0063 Y495.3 I-8.1335 J3.175
G1 Y558.8
G3 X303.4085 Y561.975 I-8.7312 J0.0
G3 X304.0063 Y565.15 I-8.1335 J3.175
G1 Y628.65
G3 X303.4085 Y631.825 I-8.7312 J0.0
G3 X304.0063 Y635.0 I-8.1335 J3.175
G1 Y721.5188
G1 X305.5938
G1 Y635.0
G3 X306.1915 Y631.825 I8.7312 J0.0
G3 X305.5938 Y628.65 I8.1335 J-3.175
G1 Y565.15
G3 X306.1915 Y561.975 I8.7312 J0.0
G3 X305.5938 Y558.8 I8.1335 J-3.175
G1 Y495.3
G3 X306.1915 Y492.125 I8.7312 J0.0
G3 X305.5938 Y488.95 I8.1335 J-3.175
G1 Y425.45
G3 X306.1915 Y422.275 I8.7313 J0.0
G3 X305.5938 Y419.1 I8.1335 J-3.175
G1 Y355.6
G3 X306.1915 Y352.425 I8.7313 J0.0
G3 X305.5938 Y349.25 I8.1335 J-3.175
G1 Y285.75
G3 X306.1915 Y282.575 I8.7313 J0.0
G3 X305.5938 Y279.4 I8.1335 J-3.175
G1 Y215.9
G3 X306.1915 Y212.725 I8.7312 J0.0
G3 X305.5938 Y209.55 I8.1335 J-3.175
G1 Y146.05
G3 X306.1915 Y142.875 I8.7313 J0.0
G3 X305.5938 Y139.7 I8.1335 J-3.175
G1 Y76.2
G3 X306.1915 Y73.025 I8.7312 J0.0
G3 X305.5938 Y69.85 I8.1335 J-3.175
G1 Y8.7312
G1 X304.0063
G1 Y69.85
G3 X303.4085 Y73.025 I-8.7312 J0.0
G3 X304.0063 Y76.2 I-8.1335 J3.175
G1 Y139.7
G3 X303.4085 Y142.875 I-8.7312 J0.0
G0 Z3.0
G0 X302.0776 Y143.3945
G0 Z-1.9
G1 F120.0 Z-3.0
G3 F3000.0 X302.5775 Y146.05 I-6.8026 J2.6555
G1 Y209.55
G3 X301.8512 Y212.725 I-7.3025 J0.0
G3 X302.5775 Y215.9 I-6.5762 J3.175
G1 Y279.4
G3 X301.8512 Y282.575 I-7.3025 J0.0
G3 X302.5775 Y285.75 I-6.5762 J3.175
G1 Y349.25
G3 X301.8512 Y352.425 I-7.3025 J0.0
G3 X302.5775 Y355.6 I-6.5762 J3.175
G1 Y419.1
G3 X301.8512 Y422.275 I-7.3025 J0.0
G3 X302.5775 Y425.45 I-6.5762 J3.175
G1 Y488.95
G3 X301.8512 Y492.125 I-7.3025 J0.0
G3 X302.5775 Y495.3 I-6.5762 J3.175
G1 Y558.8
G3 X301.8512 Y561.975 I-7.3025 J0.0
G3 X302.5775 Y565.15 I-6.5762 J3.175
G1 Y628.65
G3 X301.8512 Y631.825 I-7.3025 J0.0
G3 X302.5775 Y635.0 I-6.5762 J3.175
G1 Y722.9475
G1 X307.0225
G1 Y635.0
G3 X307.7488 Y631.825 I7.3025 J0.0
G3 X307.0225 Y628.65 I6.5762 J-3.175
G1 Y565.15
G3 X307.7488 Y561.975 I7.3025 J0.0
G3 X307.0225 Y558.8 I6.5762 J-3.175
G1 Y495.3
G3 X307.7488 Y492.125 I7.3025 J0.0
G3 X307.0225 Y488.95 I6.5762 J-3.175
G1 Y425.45
G3 X307.7488 Y422.275 I7.3025 J0.0
G3 X307.0225 Y419.1 I6.5762 J-3.175
G1 Y355.6
G3 X307.7488 Y352.425 I7.3025 J0.0
G3 X307.0225 Y349.25 I6.5762 J-3.175
G1 Y285.75
G3 X307.7488 Y282.575 I7.3025 J0.0
G3 X307.0225 Y279.4 I6.5762 J-3.175
G1 Y215.9
G3 X307.7488 Y212.725 I7.3025 J0.0
G3 X307.0225 Y209.55 I6.5762 J-3.175
G1 Y146.05
G3 X307.7488 Y142.875 I7.3025 J0.0
G3 X307.0225 Y139.7 I6.5762 J-3.175
G1 Y76.2
G3 X307.7488 Y73.025 I7.3025 J0.0
G3 X307.0225 Y69.85 I6.5762 J-3.175
G1 Y7.3025
G1 X302.5775
G1 Y69.85
G3 X301.8512 Y73.025 I-7.3025 J0.0
G3 X302.5775 Y76.2 I-6.5762 J3.175
G1 Y139.7
G3 X301.8512 Y142.875 I-7.3025 J0.0
G3 X302.0776 Y143.3945 I-6.5762 J3.175
G0 Z3.0
G0 X299.4157 Y144.4336
G0 Z-1.9
G1 F120.0 Z-3.0
G3 F3000.0 X299.72 Y146.05 I-4.1407 J1.6164
G1 Y209.55
G3 X298.3859 Y212.725 I-4.445 J0.0
G3 X299.72 Y215.9 I-3.1109 J3.175
G1 Y279.4
G3 X298.3859 Y282.575 I-4.445 J0.0
G3 X299.72 Y285.75 I-3.1109 J3.175
G1 Y349.25
G3 X298.3859 Y352.425 I-4.445 J0.0
G3 X299.72 Y355.6 I-3.1109 J3.175
G1 Y419.1
G3 X298.3859 Y422.275 I-4.445 J0.0
G3 X299.72 Y425.45 I-3.1109 J3.175
G1 Y488.95
G3 X298.3859 Y492.125 I-4.445 J0.0
G3 X299.72 Y495.3 I-3.1109 J3.175
G1 Y558.8
G3 X298.3859 Y561.975 I-4.445 J0.0
G3 X299.72 Y565.15 I-3.1109 J3.175
G1 Y628.65
G3 X298.3859 Y631.825 I-4.445 J0.0
G3 X299.72 Y635.0 I-3.1109 J3.175
G1 Y725.805
G1 X309.88
G1 Y635.0
G3 X311.2141 Y631.825 I4.445 J0.0
G3 X309.88 Y628.65 I3.1109 J-3.175
G1 Y565.15
G3 X311.2141 Y561.975 I4.445 J0.0
G3 X309.88 Y558.8 I3.1109 J-3.175
G1 Y495.3
G3 X311.2141 Y492.125 I4.445 J0.0
G3 X309.88 Y488.95 I3.1109 J-3.175
G1 Y425.45
G3 X311.2141 Y422.275 I4.445 J0.0
G3 X309.88 Y419.1 I3.1109 J-3.175
G1 Y355.6
G3 X311.2141 Y352.425 I4.445 J0.0
G3 X309.88 Y349.25 I3.1109 J-3.175
G1 Y285.75
G3 X311.2141 Y282.575 I4.445 J0.0
G3 X309.88 Y279.4 I3.1109 J-3.175
G1 Y215.9
G3 X311.2141 Y212.725 I4.445 J0.0
G3 X309.88 Y209.55 I3.1109 J-3.175
G1 Y146.05
G3 X311.2141 Y142.875 I4.445 J0.0
G3 X309.88 Y139.7 I3.1109 J-3.175
G1 Y76.2
G3 X311.2141 Y73.025 I4.445 J0.0
G3 X309.88 Y69.85 I3.1109 J-3.175
G1 Y4.445
G1 X299.72
G1 Y69.85
G3 X298.3859 Y73.025 I-4.445 J0.0
G3 X299.72 Y76.2 I-3.1109 J3.175
G1 Y139.7
G3 X298.3859 Y142.875 I-4.445 J0.0
G3 X299.4157 Y144.4336 I-3.1109 J3.175
G0 Z3.0
G0 X296.7538 Y145.4727
G0 Z-1.9
G1 F120.0 Z-3.0
G3 F3000.0 X296.8625 Y146.05 I-1.4788 J0.5773
G1 Y209.55
G3 X295.275 Y211.1375 I-1.5875 J0.0
G1 X1.5875
G1 Y214.3125
G1 X295.275
G3 X296.8625 Y215.9 I0.0 J1.5875
G1 Y279.4
G3 X295.275 Y280.9875 I-1.5875 J0.0
G1 X1.5875
G1 Y284.1625
G1 X295.275
G3 X296.8625 Y285.75 I0.0 J1.5875
G1 Y349.25
G3 X295.275 Y350.8375 I-1.5875 J0.0
G1 X1.5875
G1 Y354.0125
G1 X295.275
G3 X296.8625 Y355.6 I0.0 J1.5875
G1 Y419.1
G3 X295.275 Y420.6875 I-1.5875 J0.0
G1 X1.5875
G1 Y423.8625
G1 X295.275
G3 X296.8625 Y425.45 I0.0 J1.5875
G1 Y488.95
G3 X295.275 Y490.5375 I-1.5875 J0.0
G1 X1.5875
G1 Y493.7125
G1 X295.275
G3 X296.8625 Y495.3 I0.0 J1.5875
G1 Y558.8
G3 X295.275 Y560.3875 I-1.5875 J0.0
G1 X1.5875
G1 Y563.5625
G1 X295.275
G3 X296.8625 Y565.15 I0.0 J1.5875
G1 Y628.65
G3 X295.275 Y630.2375 I-1.5875 J0.0
G1 X1.5875
G1 Y633.4125
G1 X295.275
G3 X296.8625 Y635.0 I0.0 J1.5875
G1 Y728.6625
G1 X312.7375
G1 Y635.0
G3 X314.325 Y633.4125 I1.5875 J0.0
G1 X608.0125
G1 Y630.2375
G1 X314.325
G3 X312.7375 Y628.65 I0.0 J-1.5875
G1 Y565.15
G3 X314.325 Y563.5625 I1.5875 J0.0
G1 X608.0125
G1 Y560.3875
G1 X314.325
G3 X312.7375 Y558.8 I0.0 J-1.5875
G1 Y495.3
G3 X314.325 Y493.7125 I1.5875 J0.0
G1 X608.0125
G1 Y490.5375
G1 X314.325
G3 X312.7375 Y488.95 I0.0 J-1.5875
G1 Y425.45
G3 X314.325 Y423.8625 I1.5875 J0.0
G1 X608.0125
G1 Y420.6875
G1 X314.325
G3 X312.7375 Y419.1 I0.0 J-1.5875
G1 Y355.6
G3 X314.325 Y354.0125 I1.5875 J0.0
G1 X608.0125
G1 Y350.8375
G1 X314.325
G3 X312.7375 Y349.25 I0.0 J-1.5875
G1 Y285.75
G3 X314.325 Y284.1625 I1.5875 J0.0
G1 X608.0125
G1 Y280.9875
G1 X314.325
G3 X312.7375 Y279.4 I0.0 J-1.5875
G1 Y215.9
G3 X314.325 Y214.3125 I1.5875 J0.0
G1 X608.0125
G1 Y211.1375
G1 X314.325
G3 X312.7375 Y209.55 I0.0 J-1.5875
G1 Y146.05
G3 X314.325 Y144.4625 I1.5875 J0.0
G1 X608.0125
G1 Y141.2875
G1 X314.325
G3 X312.7375 Y139.7 I0.0 J-1.5875
G1 Y76.2
G3 X314.325 Y74.6125 I1.5875 J0.0
G1 X608.0125
G1 Y71.4375
G1 X314.325
G3 X312.7375 Y69.85 I0.0 J-1.5875
G1 Y1.5875
G1 X296.8625
G1 Y69.85
G3 X295.275 Y71.4375 I-1.5875 J0.0
G1 X1.5875
G1 Y74.6125
G1 X295.275
G3 X296.8625 Y76.2 I0.0 J1.5875
G1 Y139.7
G3 X295.275 Y141.2875 I-1.5875 J0.0
G1 X1.5875
G1 Y144.4625
G1 X295.275
G3 X296.7538 Y145.4727 I0.0 J1.5875
G0 Z3.0
G0 X303.4085 Y142.875
G0 Z-2.9
G1 F120.0 Z-4.0
G3 F3000.0 X304.0063 Y146.05 I-8.1335 J3.175
G1 Y209.55
G3 X303.4085 Y212.725 I-8.7312 J0.0
G3 X304.0063 Y215.9 I-8.1335 J3.175
G1 Y279.4
G3 X303.4085 Y282.575 I-8.7312 J0.0
G3 X304.0063 Y285.75 I-8.1335 J3.175
G1 Y349.25
G3 X303.4085 Y352.425 I-8.7312 J0.0
G3 X304.0063 Y355.6 I-8.1335 J3.175
G1 Y419.1
G3 X303.4085 Y422.275 I-8.7312 J0.0
G3 X304.0063 Y425.45 I-8.1335 J3.175
G1 Y488.95
G3 X303.4085 Y492.125 I-8.7312 J0.0
G3 X304.0063 Y495.3 I-8.1335 J3.175
G1 Y558.8
G3 X303.4085 Y561.975 I-8.7312 J0.0
G3 X304.0063 Y565.15 I-8.1335 J3.175
G1 Y628.65
G3 X303.4085 Y631.825 I-8.7312 J0.0
G3 X304.0063 Y635.0 I-8.1335 J3.175
G1 Y721.5188
G1 X305.5938
G1 Y635.0
G3 X306.1915 Y631.825 I8.7312 J0.0
G3 X305.5938 Y628.65 I8.1335 J-3.175
G1 Y565.15
G3 X306.1915 Y561.975 I8.7312 J0.0
G3 X305.5938 Y558.8 I8.1335 J-3.175
G1 Y495.3
G3 X306.1915 Y492.125 I8.7312 J0.0
G3 X305.5938 Y488.95 I8.1335 J-3.175
G1 Y425.45
G3 X306.1915 Y422.275 I8.7313 J0.0
G3 X305.5938 Y419.1 I8.1335 J-3.175
G1 Y355.6
G3 X306.1915 Y352.425 I8.7313 J0.0
G3 X305.5938 Y349.25 I8.1335 J-3.175
G1 Y285.75
G3 X306.1915 Y282.575 I8.7313 J0.0
G3 X305.5938 Y279.4 I8.1335 J-3.175
G1 Y215.9
G3 X306.1915 Y212.725 I8.7312 J0.0
G3 X305.5938 Y209.55 I8.1335 J-3.175
G1 Y146.05
G3 X306.1915 Y142.875 I8.7313 J0.0
G3 X305.5938 Y139.7 I8.1335 J-3.175
G1 Y76.2
G3 X306.1915 Y73.025 I8.7312 J0.0
G3 X305.5938 Y69.85 I8.1335 J-3.175
G1 Y8.7312
G1 X304.0063
G1 Y69.85
G3 X303.4085 Y73.025 I-8.7312 J0.0
G3 X304.0063 Y76.2 I-8.1335 J3.175
G1 Y139.7
G3 X303.4085 Y142.875 I-8.7312 J0.0
G0 Z3.0
G0 X302.0776 Y143.3945
G0 Z-2.9
G1 F120.0 Z-4.0
G3 F3000.0 X302.5775 Y146.05 I-6.8026 J2.6555
G1 Y209.55
G3 X301.8512 Y212.725 I-7.3025 J0.0
G3 X302.5775 Y215.9 I-6.5762 J3.175
G1 Y279.4
G3 X301.8512 Y282.575 I-7.3025 J0.0
G3 X302.5775 Y285.75 I-6.5762 J3.175
G1 Y349.25
G3 X301.8512 Y352.425 I-7.3025 J0.0
G3 X302.5775 Y355.6 I-6.5762 J3.175
G1 Y419.1
G3 X301.8512 Y422.275 I-7.3025 J0.0
G3 X302.5775 Y425.45 I-6.5762 J3.175
G1 Y488.95
G3 X301.8512 Y492.125 I-7.3025 J0.0
G3 X302.5775 Y495.3 I-6.5762 J3.175
G1 Y558.8
G3 X301.8512 Y561.975 I-7.3025 J0.0
G3 X302.5775 Y565.15 I-6.5762 J3.175
G1 Y628.65
G3 X301.8512 Y631.825 I-7.3025 J0.0
G3 X302.5775 Y635.0 I-6.5762 J3.175
G1 Y722.9475
G1 X307.0225
G1 Y635.0
G3 X307.7488 Y631.825 I7.3025 J0.0
G3 X307.0225 Y628.65 I6.5762 J-3.175
G1 Y565.15
G3 X307.7488 Y561.975 I7.3025 J0.0
G3 X307.0225 Y558.8 I6.5762 J-3.175
G1 Y495.3
G3 X307.7488 Y492.125 I7.3025 J0.0
G3 X307.0225 Y488.95 I6.5762 J-3.175
G1 Y425.45
G3 X307.7488 Y422.275 I7.3025 J0.0
G3 X307.0225 Y419.1 I6.5762 J-3.175
G1 Y355.6
G3 X307.7488 Y352.425 I7.3025 J0.0
G3 X307.0225 Y349.25 I6.5762 J-3.175
G1 Y285.75
G3 X307.7488 Y282.575 I7.3025 J0.0
G3 X307.0225 Y279.4 I6.5762 J-3.175
G1 Y215.9
G3 X307.7488 Y212.725 I7.3025 J0.0
G3 X307.0225 Y209.55 I6.5762 J-3.175
G1 Y146.05
G3 X307.7488 Y142.875 I7.3025 J0.0
G3 X307.0225 Y139.7 I6.5762 J-3.175
G1 Y76.2
G3 X307.7488 Y73.025 I7.3025 J0.0
G3 X307.0225 Y69.85 I6.5762 J-3.175
G1 Y7.3025
G1 X302.5775
G1 Y69.85
G3 X301.8512 Y73.025 I-7.3025 J0.0
G3 X302.5775 Y76.2 I-6.5762 J3.175
G1 Y139.7
G3 X301.8512 Y142.875 I-7.3025 J0.0
G3 X302.0776 Y143.3945 I-6.5762 J3.175
G0 Z3.0
G0 X299.4157 Y144.4336
G0 Z-2.9
G1 F120.0 Z-4.0
G3 F3000.0 X299.72 Y146.05 I-4.1407 J1.6164
G1 Y209.55
G3 X298.3859 Y212.725 I-4.445 J0.0
G3 X299.72 Y215.9 I-3.1109 J3.175
G1 Y279.4
G3 X298.3859 Y282.575 I-4.445 J0.0
G3 X299.72 Y285.75 I-3.1109 J3.175
G1 Y349.25
G3 X298.3859 Y352.425 I-4.445 J0.0
G3 X299.72 Y355.6 I-3.1109 J3.175
G1 Y419.1
G3 X298.3859 Y422.275 I-4.445 J0.0
G3 X299.72 Y425.45 I-3.1109 J3.175
G1 Y488.95
G3 X298.3859 Y492.125 I-4.445 J0.0
G3 X299.72 Y495.3 I-3.1109 J3.175
G1 Y558.8
G3 X298.3859 Y561.975 I-4.445 J0.0
G3 X299.72 Y565.15 I-3.1109 J3.175
G1 Y628.65
G3 X298.3859 Y631.825 I-4.445 J0.0
G3 X299.72 Y635.0 I-3.1109 J3.175
G1 Y725.805
G1 X309.88
G1 Y635.0
G3 X311.2141 Y631.825 I4.445 J0.0
G3 X309.88 Y628.65 I3.1109 J-3.175
G1 Y565.15
G3 X311.2141 Y561.975 I4.445 J0.0
G3 X309.88 Y558.8 I3.1109 J-3.175
G1 Y495.3
G3 X311.2141 Y492.125 I4.445 J0.0
G3 X309.88 Y488.95 I3.1109 J-3.175
G1 Y425.45
G3 X311.2141 Y422.275 I4.445 J0.0
G3 X309.88 Y419.1 I3.1109 J-3.175
G1 Y355.6
G3 X311.2141 Y352.425 I4.445 J0.0
G3 X309.88 Y349.25 I3.1109 J-3.175
G1 Y285.75
G3 X311.2141 Y282.575 I4.445 J0.0
G3 X309.88 Y279.4 I3.1109 J-3.175
G1 Y215.9
G3 X311.2141 Y212.725 I4.445 J0.0
G3 X309.88 Y209.55 I3.1109 J-3.175
G1 Y146.05
G3 X311.2141 Y142.875 I4.445 J0.0
G3 X309.88 Y139.7 I3.1109 J-3.175
G1 Y76.2
G3 X311.2141 Y73.025 I4.445 J0.0
G3 X309.88 Y69.85 I3.1109 J-3.175
G1 Y4.445
G1 X299.72
G1 Y69.85
G3 X298.3859 Y73.025 I-4.445 J0.0
G3 X299.72 Y76.2 I-3.1109 J3.175
G1 Y139.7
G3 X298.3859 Y142.875 I-4.445 J0.0
G3 X299.4157 Y144.4336 I-3.1109 J3.175
G0 Z3.0
G0 X296.7538 Y145.4727
G0 Z-2.9
G1 F120.0 Z-4.0
G3 F3000.0 X296.8625 Y146.05 I-1.4788 J0.5773
G1 Y209.55
G3 X295.275 Y211.1375 I-1.5875 J0.0
G1 X1.5875
G1 Y214.3125
G1 X295.275
G3 X296.8625 Y215.9 I0.0 J1.5875
G1 Y279.4
G3 X295.275 Y280.9875 I-1.5875 J0.0
G1 X1.5875
G1 Y284.1625
G1 X295.275
G3 X296.8625 Y285.75 I0.0 J1.5875
G1 Y349.25
G3 X295.275 Y350.8375 I-1.5875 J0.0
G1 X1.5875
G1 Y354.0125
G1 X295.275
G3 X296.8625 Y355.6 I0.0 J1.5875
G1 Y419.1
G3 X295.275 Y420.6875 I-1.5875 J0.0
G1 X1.5875
G1 Y423.8625
G1 X295.275
G3 X296.8625 Y425.45 I0.0 J1.5875
G1 Y488.95
G3 X295.275 Y490.5375 I-1.5875 J0.0
G1 X1.5875
G1 Y493.7125
G1 X295.275
G3 X296.8625 Y495.3 I0.0 J1.5875
G1 Y558.8
G3 X295.275 Y560.3875 I-1.5875 J0.0
G1 X1.5875
G1 Y563.5625
G1 X295.275
G3 X296.8625 Y565.15 I0.0 J1.5875
G1 Y628.65
G3 X295.275 Y630.2375 I-1.5875 J0.0
G1 X1.5875
G1 Y633.4125
G1 X295.275
G3 X296.8625 Y635.0 I0.0 J1.5875
G1 Y728.6625
G1 X312.7375
G1 Y635.0
G3 X314.325 Y633.4125 I1.5875 J0.0
G1 X608.0125
G1 Y630.2375
G1 X314.325
G3 X312.7375 Y628.65 I0.0 J-1.5875
G1 Y565.15
G3 X314.325 Y563.5625 I1.5875 J0.0
G1 X608.0125
G1 Y560.3875
G1 X314.325
G3 X312.7375 Y558.8 I0.0 J-1.5875
G1 Y495.3
G3 X314.325 Y493.7125 I1.5875 J0.0
G1 X608.0125
G1 Y490.5375
G1 X314.325
G3 X312.7375 Y488.95 I0.0 J-1.5875
G1 Y425.45
G3 X314.325 Y423.8625 I1.5875 J0.0
G1 X608.0125
G1 Y420.6875
G1 X314.325
G3 X312.7375 Y419.1 I0.0 J-1.5875
G1 Y355.6
G3 X314.325 Y354.0125 I1.5875 J0.0
G1 X608.0125
G1 Y350.8375
G1 X314.325
G3 X312.7375 Y349.25 I0.0 J-1.5875
G1 Y285.75
G3 X314.325 Y284.1625 I1.5875 J0.0
G1 X608.0125
G1 Y280.9875
G1 X314.325
G3 X312.7375 Y279.4 I0.0 J-1.5875
G1 Y215.9
G3 X314.325 Y214.3125 I1.5875 J0.0
G1 X608.0125
G1 Y211.1375
G1 X314.325
G3 X312.7375 Y209.55 I0.0 J-1.5875
G1 Y146.05
G3 X314.325 Y144.4625 I1.5875 J0.0
G1 X608.0125
G1 Y141.2875
G1 X314.325
G3 X312.7375 Y139.7 I0.0 J-1.5875
G1 Y76.2
G3 X314.325 Y74.6125 I1.5875 J0.0
G1 X608.0125
G1 Y71.4375
G1 X314.325
G3 X312.7375 Y69.85 I0.0 J-1.5875
G1 Y1.5875
G1 X296.8625
G1 Y69.85
G3 X295.275 Y71.4375 I-1.5875 J0.0
G1 X1.5875
G1 Y74.6125
G1 X295.275
G3 X296.8625 Y76.2 I0.0 J1.5875
G1 Y139.7
G3 X295.275 Y141.2875 I-1.5875 J0.0
G1 X1.5875
G1 Y144.4625
G1 X295.275
G3 X296.7538 Y145.4727 I0.0 J1.5875
G0 Z3.0
G0 X303.4085 Y142.875
G0 Z-3.9
G1 F120.0 Z-5.0
G3 F3000.0 X304.0063 Y146.05 I-8.1335 J3.175
G1 Y209.55
G3 X303.4085 Y212.725 I-8.7312 J0.0
G3 X304.0063 Y215.9 I-8.1335 J3.175
G1 Y279.4
G3 X303.4085 Y282.575 I-8.7312 J0.0
G3 X304.0063 Y285.75 I-8.1335 J3.175
G1 Y349.25
G3 X303.4085 Y352.425 I-8.7312 J0.0
G3 X304.0063 Y355.6 I-8.1335 J3.175
G1 Y419.1
G3 X303.4085 Y422.275 I-8.7312 J0.0
G3 X304.0063 Y425.45 I-8.1335 J3.175
G1 Y488.95
G3 X303.4085 Y492.125 I-8.7312 J0.0
G3 X304.0063 Y495.3 I-8.1335 J3.175
G1 Y558.8
G3 X303.4085 Y561.975 I-8.7312 J0.0
G3 X304.0063 Y565.15 I-8.1335 J3.175
G1 Y628.65
G3 X303.4085 Y631.825 I-8.7312 J0.0
G3 X304.0063 Y635.0 I-8.1335 J3.175
G1 Y721.5188
G1 X305.5938
G1 Y635.0
G3 X306.1915 Y631.825 I8.7312 J0.0
G3 X305.5938 Y628.65 I8.1335 J-3.175
G1 Y565.15
G3 X306.1915 Y561.975 I8.7312 J0.0
G3 X305.5938 Y558.8 I8.1335 J-3.175
G1 Y495.3
G3 X306.1915 Y492.125 I8.7312 J0.0
G3 X305.5938 Y488.95 I8.1335 J-3.175
G1 Y425.45
G3 X306.1915 Y422.275 I8.7313 J0.0
G3 X305.5938 Y419.1 I8.1335 J-3.175
G1 Y355.6
G3 X306.1915 Y352.425 I8.7313 J0.0
G3 X305.5938 Y349.25 I8.1335 J-3.175
G1 Y285.75
G3 X306.1915 Y282.575 I8.7313 J0.0
G3 X305.5938 Y279.4 I8.1335 J-3.175
G1 Y215.9
G3 X306.1915 Y212.725 I8.7312 J0.0
G3 X305.5938 Y209.55 I8.1335 J-3.175
G1 Y146.05
G3 X306.1915 Y142.875 I8.7313 J0.0
G3 X305.5938 Y139.7 I8.1335 J-3.175
G1 Y76.2
G3 X306.1915 Y73.025 I8.7312 J0.0
G3 X305.5938 Y69.85 I8.1335 J-3.175
G1 Y8.7312
G1 X304.0063
G1 Y69.85
G3 X303.4085 Y73.025 I-8.7312 J0.0
G3 X304.0063 Y76.2 I-8.1335 J3.175
G1 Y139.7
G3 X303.4085 Y142.875 I-8.7312 J0.0
G0 Z3.0
G0 X302.0776 Y143.3945
G0 Z-3.9
G1 F120.0 Z-5.0
G3 F3000.0 X302.5775 Y146.05 I-6.8026 J2.6555
G1 Y209.55
G3 X301.8512 Y212.725 I-7.3025 J0.0
G3 X302.5775 Y215.9 I-6.5762 J3.175
G1 Y279.4
G3 X301.8512 Y282.575 I-7.3025 J0.0
G3 X302.5775 Y285.75 I-6.5762 J3.175
G1 Y349.25
G3 X301.8512 Y352.425 I-7.3025 J0.0
G3 X302.5775 Y355.6 I-6.5762 J3.175
G1 Y419.1
G3 X301.8512 Y422.275 I-7.3025 J0.0
G3 X302.5775 Y425.45 I-6.5762 J3.175
G1 Y488.95
G3 X301.8512 Y492.125 I-7.3025 J0.0
G3 X302.5775 Y495.3 I-6.5762 J3.175
G1 Y558.8
G3 X301.8512 Y561.975 I-7.3025 J0.0
G3 X302.5775 Y565.15 I-6.5762 J3.175
G1 Y628.65
G3 X301.8512 Y631.825 I-7.3025 J0.0
G3 X302.5775 Y635.0 I-6.5762 J3.175
G1 Y722.9475
G1 X307.0225
G1 Y635.0
G3 X307.7488 Y631.825 I7.3025 J0.0
G3 X307.0225 Y628.65 I6.5762 J-3.175
G1 Y565.15
G3 X307.7488 Y561.975 I7.3025 J0.0
G3 X307.0225 Y558.8 I6.5762 J-3.175
G1 Y495.3
G3 X307.7488 Y492.125 I7.3025 J0.0
G3 X307.0225 Y488.95 I6.5762 J-3.175
G1 Y425.45
G3 X307.7488 Y422.275 I7.3025 J0.0
G3 X307.0225 Y419.1 I6.5762 J-3.175
G1 Y355.6
G3 X307.7488 Y352.425 I7.3025 J0.0
G3 X307.0225 Y349.25 I6.5762 J-3.175
G1 Y285.75
G3 X307.7488 Y282.575 I7.3025 J0.0
G3 X307.0225 Y279.4 I6.5762 J-3.175
G1 Y215.9
G3 X307.7488 Y212.725 I7.3025 J0.0
G3 X307.0225 Y209.55 I6.5762 J-3.175
G1 Y146.05
G3 X307.7488 Y142.875 I7.3025 J0.0
G3 X307.0225 Y139.7 I6.5762 J-3.175
G1 Y76.2
G3 X307.7488 Y73.025 I7.3025 J0.0
G3 X307.0225 Y69.85 I6.5762 J-3.175
G1 Y7.3025
G1 X302.5775
G1 Y69.85
G3 X301.8512 Y73.025 I-7.3025 J0.0
G3 X302.5775 Y76.2 I-6.5762 J3.175
G1 Y139.7
G3 X301.8512 Y142.875 I-7.3025 J0.0
G3 X302.0776 Y143.3945 I-6.5762 J3.175
G0 Z3.0
G0 X299.4157 Y144.4336
G0 Z-3.9
G1 F120.0 Z-5.0
G3 F3000.0 X299.72 Y146.05 I-4.1407 J1.6164
G1 Y209.55
G3 X298.3859 Y212.725 I-4.445 J0.0
G3 X299.72 Y215.9 I-3.1109 J3.175
G1 Y279.4
G3 X298.3859 Y282.575 I-4.445 J0.0
G3 X299.72 Y285.75 I-3.1109 J3.175
G1 Y349.25
G3 X298.3859 Y352.425 I-4.445 J0.0
G3 X299.72 Y355.6 I-3.1109 J3.175
G1 Y419.1
G3 X298.3859 Y422.275 I-4.445 J0.0
G3 X299.72 Y425.45 I-3.1109 J3.175
G1 Y488.95
G3 X298.3859 Y492.125 I-4.445 J0.0
G3 X299.72 Y495.3 I-3.1109 J3.175
G1 Y558.8
G3 X298.3859 Y561.975 I-4.445 J0.0
G3 X299.72 Y565.15 I-3.1109 J3.175
G1 Y628.65
G3 X298.3859 Y631.825 I-4.445 J0.0
G3 X299.72 Y635.0 I-3.1109 J3.175
G1 Y725.805
G1 X309.88
G1 Y635.0
G3 X311.2141 Y631.825 I4.445 J0.0
G3 X309.88 Y628.65 I3.1109 J-3.175
G1 Y565.15
G3 X311.2141 Y561.975 I4.445 J0.0
G3 X309.88 Y558.8 I3.1109 J-3.175
G1 Y495.3
G3 X311.2141 Y492.125 I4.445 J0.0
G3 X309.88 Y488.95 I3.1109 J-3.175
G1 Y425.45
G3 X311.2141 Y422.275 I4.445 J0.0
G3 X309.88 Y419.1 I3.1109 J-3.175
G1 Y355.6
G3 X311.2141 Y352.425 I4.445 J0.0
G3 X309.88 Y349.25 I3.1109 J-3.175
G1 Y285.75
G3 X311.2141 Y282.575 I4.445 J0.0
G3 X309.88 Y279.4 I3.1109 J-3.175
G1 Y215.9
G3 X311.2141 Y212.725 I4.445 J0.0
G3 X309.88 Y209.55 I3.1109 J-3.175
G1 Y146.05
G3 X311.2141 Y142.875 I4.445 J0.0
G3 X309.88 Y139.7 I3.1109 J-3.175
G1 Y76.2
G3 X311.2141 Y73.025 I4.445 J0.0
G3 X309.88 Y69.85 I3.1109 J-3.175
G1 Y4.445
G1 X299.72
G1 Y69.85
G3 X298.3859 Y73.025 I-4.445 J0.0
G3 X299.72 Y76.2 I-3.1109 J3.175
G1 Y139.7
G3 X298.3859 Y142.875 I-4.445 J0.0
G3 X299.4157 Y144.4336 I-3.1109 J3.175
G0 Z3.0
G0 X296.7538 Y145.4727
G0 Z-3.9
G1 F120.0 Z-5.0
G3 F3000.0 X296.8625 Y146.05 I-1.4788 J0.5773
G1 Y209.55
G3 X295.275 Y211.1375 I-1.5875 J0.0
G1 X1.5875
G1 Y214.3125
G1 X295.275
G3 X296.8625 Y215.9 I0.0 J1.5875
G1 Y279.4
G3 X295.275 Y280.9875 I-1.5875 J0.0
G1 X1.5875
G1 Y284.1625
G1 X295.275
G3 X296.8625 Y285.75 I0.0 J1.5875
G1 Y349.25
G3 X295.275 Y350.8375 I-1.5875 J0.0
G1 X1.5875
G1 Y354.0125
G1 X295.275
G3 X296.8625 Y355.6 I0.0 J1.5875
G1 Y419.1
G3 X295.275 Y420.6875 I-1.5875 J0.0
G1 X1.5875
G1 Y423.8625
G1 X295.275
G3 X296.8625 Y425.45 I0.0 J1.5875
G1 Y488.95
G3 X295.275 Y490.5375 I-1.5875 J0.0
G1 X1.5875
G1 Y493.7125
G1 X295.275
G3 X296.8625 Y495.3 I0.0 J1.5875
G1 Y558.8
G3 X295.275 Y560.3875 I-1.5875 J0.0
G1 X1.5875
G1 Y563.5625
G1 X295.275
G3 X296.8625 Y565.15 I0.0 J1.5875
G1 Y628.65
G3 X295.275 Y630.2375 I-1.5875 J0.0
G1 X1.5875
G1 Y633.4125
G1 X295.275
G3 X296.8625 Y635.0 I0.0 J1.5875
G1 Y728.6625
G1 X312.7375
G1 Y635.0
G3 X314.325 Y633.4125 I1.5875 J0.0
G1 X608.0125
G1 Y630.2375
G1 X314.325
G3 X312.7375 Y628.65 I0.0 J-1.5875
G1 Y565.15
G3 X314.325 Y563.5625 I1.5875 J0.0
G1 X608.0125
G1 Y560.3875
G1 X314.325
G3 X312.7375 Y558.8 I0.0 J-1.5875
G1 Y495.3
G3 X314.325 Y493.7125 I1.5875 J0.0
G1 X608.0125
G1 Y490.5375
G1 X314.325
G3 X312.7375 Y488.95 I0.0 J-1.5875
G1 Y425.45
G3 X314.325 Y423.8625 I1.5875 J0.0
G1 X608.0125
G1 Y420.6875
G1 X314.325
G3 X312.7375 Y419.1 I0.0 J-1.5875
G1 Y355.6
G3 X314.325 Y354.0125 I1.5875 J0.0
G1 X608.0125
G1 Y350.8375
G1 X314.325
G3 X312.7375 Y349.25 I0.0 J-1.5875
G1 Y285.75
G3 X314.325 Y284.1625 I1.5875 J0.0
G1 X608.0125
G1 Y280.9875
G1 X314.325
G3 X312.7375 Y279.4 I0.0 J-1.5875
G1 Y215.9
G3 X314.325 Y214.3125 I1.5875 J0.0
G1 X608.0125
G1 Y211.1375
G1 X314.325
G3 X312.7375 Y209.55 I0.0 J-1.5875
G1 Y146.05
G3 X314.325 Y144.4625 I1.5875 J0.0
G1 X608.0125
G1 Y141.2875
G1 X314.325
G3 X312.7375 Y139.7 I0.0 J-1.5875
G1 Y76.2
G3 X314.325 Y74.6125 I1.5875 J0.0
G1 X608.0125
G1 Y71.4375
G1 X314.325
G3 X312.7375 Y69.85 I0.0 J-1.5875
G1 Y1.5875
G1 X296.8625
G1 Y69.85
G3 X295.275 Y71.4375 I-1.5875 J0.0
G1 X1.5875
G1 Y74.6125
G1 X295.275
G3 X296.8625 Y76.2 I0.0 J1.5875
G1 Y139.7
G3 X295.275 Y141.2875 I-1.5875 J0.0
G1 X1.5875
G1 Y144.4625
G1 X295.275
G3 X296.7538 Y145.4727 I0.0 J1.5875
G0 Z3.0
G0 X303.4085 Y142.875
G0 Z-4.9
G1 F120.0 Z-6.0
G3 F3000.0 X304.0063 Y146.05 I-8.1335 J3.175
G1 Y209.55
G3 X303.4085 Y212.725 I-8.7312 J0.0
G3 X304.0063 Y215.9 I-8.1335 J3.175
G1 Y279.4
G3 X303.4085 Y282.575 I-8.7312 J0.0
G3 X304.0063 Y285.75 I-8.1335 J3.175
G1 Y349.25
G3 X303.4085 Y352.425 I-8.7312 J0.0
G3 X304.0063 Y355.6 I-8.1335 J3.175
G1 Y419.1
G3 X303.4085 Y422.275 I-8.7312 J0.0
G3 X304.0063 Y425.45 I-8.1335 J3.175
G1 Y488.95
G3 X303.4085 Y492.125 I-8.7312 J0.0
G3 X304.0063 Y495.3 I-8.1335 J3.175
G1 Y558.8
G3 X303.4085 Y561.975 I-8.7312 J0.0
G3 X304.0063 Y565.15 I-8.1335 J3.175
G1 Y628.65
G3 X303.4085 Y631.825 I-8.7312 J0.0
G3 X304.0063 Y635.0 I-8.1335 J3.175
G1 Y721.5188
G1 X305.5938
G1 Y635.0
G3 X306.1915 Y631.825 I8.7312 J0.0
G3 X305.5938 Y628.65 I8.1335 J-3.175
G1 Y565.15
G3 X306.1915 Y561.975 I8.7312 J0.0
G3 X305.5938 Y558.8 I8.1335 J-3.175
G1 Y495.3
G3 X306.1915 Y492.125 I8.7312 J0.0
G3 X305.5938 Y488.95 I8.1335 J-3.175
G1 Y425.45
G3 X306.1915 Y422.275 I8.7313 J0.0
G3 X305.5938 Y419.1 I8.1335 J-3.175
G1 Y355.6
G3 X306.1915 Y352.425 I8.7313 J0.0
G3 X305.5938 Y349.25 I8.1335 J-3.175
G1 Y285.75
G3 X306.1915 Y282.575 I8.7313 J0.0
G3 X305.5938 Y279.4 I8.1335 J-3.175
G1 Y215.9
G3 X306.1915 Y212.725 I8.7312 J0.0
G3 X305.5938 Y209.55 I8.1335 J-3.175
G1 Y146.05
G3 X306.1915 Y142.875 I8.7313 J0.0
G3 X305.5938 Y139.7 I8.1335 J-3.175
G1 Y76.2
G3 X306.1915 Y73.025 I8.7312 J0.0
G3 X305.5938 Y69.85 I8.1335 J-3.175
G1 Y8.7312
G1 X304.0063
G1 Y69.85
G3 X303.4085 Y73.025 I-8.7312 J0.0
G3 X304.0063 Y76.2 I-8.1335 J3.175
G1 Y139.7
G3 X303.4085 Y142.875 I-8.7312 J0.0
G0 Z3.0
G0 X302.0776 Y143.3945
G0 Z-4.9
G1 F120.0 Z-6.0
G3 F3000.0 X302.5775 Y146.05 I-6.8026 J2.6555
G1 Y209.55
G3 X301.8512 Y212.725 I-7.3025 J0.0
G3 X302.5775 Y215.9 I-6.5762 J3.175
G1 Y279.4
G3 X301.8512 Y282.575 I-7.3025 J0.0
G3 X302.5775 Y285.75 I-6.5762 J3.175
G1 Y349.25
G3 X301.8512 Y352.425 I-7.3025 J0.0
G3 X302.5775 Y355.6 I-6.5762 J3.175
G1 Y419.1
G3 X301.8512 Y422.275 I-7.3025 J0.0
G3 X302.5775 Y425.45 I-6.5762 J3.175
G1 Y488.95
G3 X301.8512 Y492.125 I-7.3025 J0.0
G3 X302.5775 Y495.3 I-6.5762 J3.175
G1 Y558.8
G3 X301.8512 Y561.975 I-7.3025 J0.0
G3 X302.5775 Y565.15 I-6.5762 J3.175
G1 Y628.65
G3 X301.8512 Y631.825 I-7.3025 J0.0
G3 X302.5775 Y635.0 I-6.5762 J3.175
G1 Y722.9475
G1 X307.0225
G1 Y635.0
G3 X307.7488 Y631.825 I7.3025 J0.0
G3 X307.0225 Y628.65 I6.5762 J-3.175
G1 Y565.15
G3 X307.7488 Y561.975 I7.3025 J0.0
G3 X307.0225 Y558.8 I6.5762 J-3.175
G1 Y495.3
G3 X307.7488 Y492.125 I7.3025 J0.0
G3 X307.0225 Y488.95 I6.5762 J-3.175
G1 Y425.45
G3 X307.7488 Y422.275 I7.3025 J0.0
G3 X307.0225 Y419.1 I6.5762 J-3.175
G1 Y355.6
G3 X307.7488 Y352.425 I7.3025 J0.0
G3 X307.0225 Y349.25 I6.5762 J-3.175
G1 Y285.75
G3 X307.7488 Y282.575 I7.3025 J0.0
G3 X307.0225 Y279.4 I6.5762 J-3.175
G1 Y215.9
G3 X307.7488 Y212.725 I7.3025 J0.0
G3 X307.0225 Y209.55 I6.5762 J-3.175
G1 Y146.05
G3 X307.7488 Y142.875 I7.3025 J0.0
G3 X307.0225 Y139.7 I6.5762 J-3.175
G1 Y76.2
G3 X307.7488 Y73.025 I7.3025 J0.0
G3 X307.0225 Y69.85 I6.5762 J-3.175
G1 Y7.3025
G1 X302.5775
G1 Y69.85
G3 X301.8512 Y73.025 I-7.3025 J0.0
G3 X302.5775 Y76.2 I-6.5762 J3.175
G1 Y139.7
G3 X301.8512 Y142.875 I-7.3025 J0.0
G3 X302.0776 Y143.3945 I-6.5762 J3.175
G0 Z3.0
G0 X299.4157 Y144.4336
G0 Z-4.9
G1 F120.0 Z-6.0
G3 F3000.0 X299.72 Y146.05 I-4.1407 J1.6164
G1 Y209.55
G3 X298.3859 Y212.725 I-4.445 J0.0
G3 X299.72 Y215.9 I-3.1109 J3.175
G1 Y279.4
G3 X298.3859 Y282.575 I-4.445 J0.0
G3 X299.72 Y285.75 I-3.1109 J3.175
G1 Y349.25
G3 X298.3859 Y352.425 I-4.445 J0.0
G3 X299.72 Y355.6 I-3.1109 J3.175
G1 Y419.1
G3 X298.3859 Y422.275 I-4.445 J0.0
G3 X299.72 Y425.45 I-3.1109 J3.175
G1 Y488.95
G3 X298.3859 Y492.125 I-4.445 J0.0
G3 X299.72 Y495.3 I-3.1109 J3.175
G1 Y558.8
G3 X298.3859 Y561.975 I-4.445 J0.0
G3 X299.72 Y565.15 I-3.1109 J3.175
G1 Y628.65
G3 X298.3859 Y631.825 I-4.445 J0.0
G3 X299.72 Y635.0 I-3.1109 J3.175
G1 Y725.805
G1 X309.88
G1 Y635.0
G3 X311.2141 Y631.825 I4.445 J0.0
G3 X309.88 Y628.65 I3.1109 J-3.175
G1 Y565.15
G3 X311.2141 Y561.975 I4.445 J0.0
G3 X309.88 Y558.8 I3.1109 J-3.175
G1 Y495.3
G3 X311.2141 Y492.125 I4.445 J0.0
G3 X309.88 Y488.95 I3.1109 J-3.175
G1 Y425.45
G3 X311.2141 Y422.275 I4.445 J0.0
G3 X309.88 Y419.1 I3.1109 J-3.175
G1 Y355.6
G3 X311.2141 Y352.425 I4.445 J0.0
G3 X309.88 Y349.25 I3.1109 J-3.175
G1 Y285.75
G3 X311.2141 Y282.575 I4.445 J0.0
G3 X309.88 Y279.4 I3.1109 J-3.175
G1 Y215.9
G3 X311.2141 Y212.725 I4.445 J0.0
G3 X309.88 Y209.55 I3.1109 J-3.175
G1 Y146.05
G3 X311.2141 Y142.875 I4.445 J0.0
G3 X309.88 Y139.7 I3.1109 J-3.175
G1 Y76.2
G3 X311.2141 Y73.025 I4.445 J0.0
G3 X309.88 Y69.85 I3.1109 J-3.175
G1 Y4.445
G1 X299.72
G1 Y69.85
G3 X298.3859 Y73.025 I-4.445 J0.0
G3 X299.72 Y76.2 I-3.1109 J3.175
G1 Y139.7
G3 X298.3859 Y142.875 I-4.445 J0.0
G3 X299.4157 Y144.4336 I-3.1109 J3.175
G0 Z3.0
G0 X296.7538 Y145.4727
G0 Z-4.9
G1 F120.0 Z-6.0
G3 F3000.0 X296.8625 Y146.05 I-1.4788 J0.5773
G1 Y209.55
G3 X295.275 Y211.1375 I-1.5875 J0.0
G1 X1.5875
G1 Y214.3125
G1 X295.275
G3 X296.8625 Y215.9 I0.0 J1.5875
G1 Y279.4
G3 X295.275 Y280.9875 I-1.5875 J0.0
G1 X1.5875
G1 Y284.1625
G1 X295.275
G3 X296.8625 Y285.75 I0.0 J1.5875
G1 Y349.25
G3 X295.275 Y350.8375 I-1.5875 J0.0
G1 X1.5875
G1 Y354.0125
G1 X295.275
G3 X296.8625 Y355.6 I0.0 J1.5875
G1 Y419.1
G3 X295.275 Y420.6875 I-1.5875 J0.0
G1 X1.5875
G1 Y423.8625
G1 X295.275
G3 X296.8625 Y425.45 I0.0 J1.5875
G1 Y488.95
G3 X295.275 Y490.5375 I-1.5875 J0.0
G1 X1.5875
G1 Y493.7125
G1 X295.275
G3 X296.8625 Y495.3 I0.0 J1.5875
G1 Y558.8
G3 X295.275 Y560.3875 I-1.5875 J0.0
G1 X1.5875
G1 Y563.5625
G1 X295.275
G3 X296.8625 Y565.15 I0.0 J1.5875
G1 Y628.65
G3 X295.275 Y630.2375 I-1.5875 J0.0
G1 X1.5875
G1 Y633.4125
G1 X295.275
G3 X296.8625 Y635.0 I0.0 J1.5875
G1 Y728.6625
G1 X312.7375
G1 Y635.0
G3 X314.325 Y633.4125 I1.5875 J0.0
G1 X608.0125
G1 Y630.2375
G1 X314.325
G3 X312.7375 Y628.65 I0.0 J-1.5875
G1 Y565.15
G3 X314.325 Y563.5625 I1.5875 J0.0
G1 X608.0125
G1 Y560.3875
G1 X314.325
G3 X312.7375 Y558.8 I0.0 J-1.5875
G1 Y495.3
G3 X314.325 Y493.7125 I1.5875 J0.0
G1 X608.0125
G1 Y490.5375
G1 X314.325
G3 X312.7375 Y488.95 I0.0 J-1.5875
G1 Y425.45
G3 X314.325 Y423.8625 I1.5875 J0.0
G1 X608.0125
G1 Y420.6875
G1 X314.325
G3 X312.7375 Y419.1 I0.0 J-1.5875
G1 Y355.6
G3 X314.325 Y354.0125 I1.5875 J0.0
G1 X608.0125
G1 Y350.8375
G1 X314.325
G3 X312.7375 Y349.25 I0.0 J-1.5875
G1 Y285.75
G3 X314.325 Y284.1625 I1.5875 J0.0
G1 X608.0125
G1 Y280.9875
G1 X314.325
G3 X312.7375 Y279.4 I0.0 J-1.5875
G1 Y215.9
G3 X314.325 Y214.3125 I1.5875 J0.0
G1 X608.0125
G1 Y211.1375
G1 X314.325
G3 X312.7375 Y209.55 I0.0 J-1.5875
G1 Y146.05
G3 X314.325 Y144.4625 I1.5875 J0.0
G1 X608.0125
G1 Y141.2875
G1 X314.325
G3 X312.7375 Y139.7 I0.0 J-1.5875
G1 Y76.2
G3 X314.325 Y74.6125 I1.5875 J0.0
G1 X608.0125
G1 Y71.4375
G1 X314.325
G3 X312.7375 Y69.85 I0.0 J-1.5875
G1 Y1.5875
G1 X296.8625
G1 Y69.85
G3 X295.275 Y71.4375 I-1.5875 J0.0
G1 X1.5875
G1 Y74.6125
G1 X295.275
G3 X296.8625 Y76.2 I0.0 J1.5875
G1 Y139.7
G3 X295.275 Y141.2875 I-1.5875 J0.0
G1 X1.5875
G1 Y144.4625
G1 X295.275
G3 X296.7538 Y145.4727 I0.0 J1.5875
G0 Z3.0
G0 X303.4085 Y142.875
G0 Z-5.9
G1 F120.0 Z-6.5
G3 F3000.0 X304.0063 Y146.05 I-8.1335 J3.175
G1 Y209.55
G3 X303.4085 Y212.725 I-8.7312 J0.0
G3 X304.0063 Y215.9 I-8.1335 J3.175
G1 Y279.4
G3 X303.4085 Y282.575 I-8.7312 J0.0
G3 X304.0063 Y285.75 I-8.1335 J3.175
G1 Y349.25
G3 X303.4085 Y352.425 I-8.7312 J0.0
G3 X304.0063 Y355.6 I-8.1335 J3.175
G1 Y419.1
G3 X303.4085 Y422.275 I-8.7312 J0.0
G3 X304.0063 Y425.45 I-8.1335 J3.175
G1 Y488.95
G3 X303.4085 Y492.125 I-8.7312 J0.0
G3 X304.0063 Y495.3 I-8.1335 J3.175
G1 Y558.8
G3 X303.4085 Y561.975 I-8.7312 J0.0
G3 X304.0063 Y565.15 I-8.1335 J3.175
G1 Y628.65
G3 X303.4085 Y631.825 I-8.7312 J0.0
G3 X304.0063 Y635.0 I-8.1335 J3.175
G1 Y721.5188
G1 X305.5938
G1 Y635.0
G3 X306.1915 Y631.825 I8.7312 J0.0
G3 X305.5938 Y628.65 I8.1335 J-3.175
G1 Y565.15
G3 X306.1915 Y561.975 I8.7312 J0.0
G3 X305.5938 Y558.8 I8.1335 J-3.175
G1 Y495.3
G3 X306.1915 Y492.125 I8.7312 J0.0
G3 X305.5938 Y488.95 I8.1335 J-3.175
G1 Y425.45
G3 X306.1915 Y422.275 I8.7313 J0.0
G3 X305.5938 Y419.1 I8.1335 J-3.175
G1 Y355.6
G3 X306.1915 Y352.425 I8.7313 J0.0
G3 X305.5938 Y349.25 I8.1335 J-3.175
G1 Y285.75
G3 X306.1915 Y282.575 I8.7313 J0.0
G3 X305.5938 Y279.4 I8.1335 J-3.175
G1 Y215.9
G3 X306.1915 Y212.725 I8.7312 J0.0
G3 X305.5938 Y209.55 I8.1335 J-3.175
G1 Y146.05
G3 X306.1915 Y142.875 I8.7313 J0.0
G3 X305.5938 Y139.7 I8.1335 J-3.175
G1 Y76.2
G3 X306.1915 Y73.025 I8.7312 J0.0
G3 X305.5938 Y69.85 I8.1335 J-3.175
G1 Y8.7312
G1 X304.0063
G1 Y69.85
G3 X303.4085 Y73.025 I-8.7312 J0.0
G3 X304.0063 Y76.2 I-8.1335 J3.175
G1 Y139.7
G3 X303.4085 Y142.875 I-8.7312 J0.0
G0 Z3.0
G0 X302.0776 Y143.3945
G0 Z-5.9
G1 F120.0 Z-6.5
G3 F3000.0 X302.5775 Y146.05 I-6.8026 J2.6555
G1 Y209.55
G3 X301.8512 Y212.725 I-7.3025 J0.0
G3 X302.5775 Y215.9 I-6.5762 J3.175
G1 Y279.4
G3 X301.8512 Y282.575 I-7.3025 J0.0
G3 X302.5775 Y285.75 I-6.5762 J3.175
G1 Y349.25
G3 X301.8512 Y352.425 I-7.3025 J0.0
G3 X302.5775 Y355.6 I-6.5762 J3.175
G1 Y419.1
G3 X301.8512 Y422.275 I-7.3025 J0.0
G3 X302.5775 Y425.45 I-6.5762 J3.175
G1 Y488.95
G3 X301.8512 Y492.125 I-7.3025 J0.0
G3 X302.5775 Y495.3 I-6.5762 J3.175
G1 Y558.8
G3 X301.8512 Y561.975 I-7.3025 J0.0
G3 X302.5775 Y565.15 I-6.5762 J3.175
G1 Y628.65
G3 X301.8512 Y631.825 I-7.3025 J0.0
G3 X302.5775 Y635.0 I-6.5762 J3.175
G1 Y722.9475
G1 X307.0225
G1 Y635.0
G3 X307.7488 Y631.825 I7.3025 J0.0
G3 X307.0225 Y628.65 I6.5762 J-3.175
G1 Y565.15
G3 X307.7488 Y561.975 I7.3025 J0.0
G3 X307.0225 Y558.8 I6.5762 J-3.175
G1 Y495.3
G3 X307.7488 Y492.125 I7.3025 J0.0
G3 X307.0225 Y488.95 I6.5762 J-3.175
G1 Y425.45
G3 X307.7488 Y422.275 I7.3025 J0.0
G3 X307.0225 Y419.1 I6.5762 J-3.175
G1 Y355.6
G3 X307.7488 Y352.425 I7.3025 J0.0
G3 X307.0225 Y349.25 I6.5762 J-3.175
G1 Y285.75
G3 X307.7488 Y282.575 I7.3025 J0.0
G3 X307.0225 Y279.4 I6.5762 J-3.175
G1 Y215.9
G3 X307.7488 Y212.725 I7.3025 J0.0
G3 X307.0225 Y209.55 I6.5762 J-3.175
G1 Y146.05
G3 X307.7488 Y142.875 I7.3025 J0.0
G3 X307.0225 Y139.7 I6.5762 J-3.175
G1 Y76.2
G3 X307.7488 Y73.025 I7.3025 J0.0
G3 X307.0225 Y69.85 I6.5762 J-3.175
G1 Y7.3025
G1 X302.5775
G1 Y69.85
G3 X301.8512 Y73.025 I-7.3025 J0.0
G3 X302.5775 Y76.2 I-6.5762 J3.175
G1 Y139.7
G3 X301.8512 Y142.875 I-7.3025 J0.0
G3 X302.0776 Y143.3945 I-6.5762 J3.175
G0 Z3.0
G0 X299.4157 Y144.4336
G0 Z-5.9
G1 F120.0 Z-6.5
G3 F3000.0 X299.72 Y146.05 I-4.1407 J1.6164
G1 Y209.55
G3 X298.3859 Y212.725 I-4.445 J0.0
G3 X299.72 Y215.9 I-3.1109 J3.175
G1 Y279.4
G3 X298.3859 Y282.575 I-4.445 J0.0
G3 X299.72 Y285.75 I-3.1109 J3.175
G1 Y349.25
G3 X298.3859 Y352.425 I-4.445 J0.0
G3 X299.72 Y355.6 I-3.1109 J3.175
G1 Y419.1
G3 X298.3859 Y422.275 I-4.445 J0.0
G3 X299.72 Y425.45 I-3.1109 J3.175
G1 Y488.95
G3 X298.3859 Y492.125 I-4.445 J0.0
G3 X299.72 Y495.3 I-3.1109 J3.175
G1 Y558.8
G3 X298.3859 Y561.975 I-4.445 J0.0
G3 X299.72 Y565.15 I-3.1109 J3.175
G1 Y628.65
G3 X298.3859 Y631.825 I-4.445 J0.0
G3 X299.72 Y635.0 I-3.1109 J3.175
G1 Y725.805
G1 X309.88
G1 Y635.0
G3 X311.2141 Y631.825 I4.445 J0.0
G3 X309.88 Y628.65 I3.1109 J-3.175
G1 Y565.15
G3 X311.2141 Y561.975 I4.445 J0.0
G3 X309.88 Y558.8 I3.1109 J-3.175
G1 Y495.3
G3 X311.2141 Y492.125 I4.445 J0.0
G3 X309.88 Y488.95 I3.1109 J-3.175
G1 Y425.45
G3 X311.2141 Y422.275 I4.445 J0.0
G3 X309.88 Y419.1 I3.1109 J-3.175
G1 Y355.6
G3 X311.2141 Y352.425 I4.445 J0.0
G3 X309.88 Y349.25 I3.1109 J-3.175
G1 Y285.75
G3 X311.2141 Y282.575 I4.445 J0.0
G3 X309.88 Y279.4 I3.1109 J-3.175
G1 Y215.9
G3 X311.2141 Y212.725 I4.445 J0.0
G3 X309.88 Y209.55 I3.1109 J-3.175
G1 Y146.05
G3 X311.2141 Y142.875 I4.445 J0.0
G3 X309.88 Y139.7 I3.1109 J-3.175
G1 Y76.2
G3 X311.2141 Y73.025 I4.445 J0.0
G3 X309.88 Y69.85 I3.1109 J-3.175
G1 Y4.445
G1 X299.72
G1 Y69.85
G3 X298.3859 Y73.025 I-4.445 J0.0
G3 X299.72 Y76.2 I-3.1109 J3.175
G1 Y139.7
G3 X298.3859 Y142.875 I-4.445 J0.0
G3 X299.4157 Y144.4336 I-3.1109 J3.175
G0 Z3.0
G0 X296.7538 Y145.4727
G0 Z-5.9
G1 F120.0 Z-6.5
G3 F3000.0 X296.8625 Y146.05 I-1.4788 J0.5773
G1 Y209.55
G3 X295.275 Y211.1375 I-1.5875 J0.0
G1 X1.5875
G1 Y214.3125
G1 X295.275
G3 X296.8625 Y215.9 I0.0 J1.5875
G1 Y279.4
G3 X295.275 Y280.9875 I-1.5875 J0.0
G1 X1.5875
G1 Y284.1625
G1 X295.275
G3 X296.8625 Y285.75 I0.0 J1.5875
G1 Y349.25
G3 X295.275 Y350.8375 I-1.5875 J0.0
G1 X1.5875
G1 Y354.0125
G1 X295.275
G3 X296.8625 Y355.6 I0.0 J1.5875
G1 Y419.1
G3 X295.275 Y420.6875 I-1.5875 J0.0
G1 X1.5875
G1 Y423.8625
G1 X295.275
G3 X296.8625 Y425.45 I0.0 J1.5875
G1 Y488.95
G3 X295.275 Y490.5375 I-1.5875 J0.0
G1 X1.5875
G1 Y493.7125
G1 X295.275
G3 X296.8625 Y495.3 I0.0 J1.5875
G1 Y558.8
G3 X295.275 Y560.3875 I-1.5875 J0.0
G1 X1.5875
G1 Y563.5625
G1 X295.275
G3 X296.8625 Y565.15 I0.0 J1.5875
G1 Y628.65
G3 X295.275 Y630.2375 I-1.5875 J0.0
G1 X1.5875
G1 Y633.4125
G1 X295.275
G3 X296.8625 Y635.0 I0.0 J1.5875
G1 Y728.6625
G1 X312.7375
G1 Y635.0
G3 X314.325 Y633.4125 I1.5875 J0.0
G1 X608.0125
G1 Y630.2375
G1 X314.325
G3 X312.7375 Y628.65 I0.0 J-1.5875
G1 Y565.15
G3 X314.325 Y563.5625 I1.5875 J0.0
G1 X608.0125
G1 Y560.3875
G1 X314.325
G3 X312.7375 Y558.8 I0.0 J-1.5875
G1 Y495.3
G3 X314.325 Y493.7125 I1.5875 J0.0
G1 X608.0125
G1 Y490.5375
G1 X314.325
G3 X312.7375 Y488.95 I0.0 J-1.5875
G1 Y425.45
G3 X314.325 Y423.8625 I1.5875 J0.0
G1 X608.0125
G1 Y420.6875
G1 X314.325
G3 X312.7375 Y419.1 I0.0 J-1.5875
G1 Y355.6
G3 X314.325 Y354.0125 I1.5875 J0.0
G1 X608.0125
G1 Y350.8375
G1 X314.325
G3 X312.7375 Y349.25 I0.0 J-1.5875
G1 Y285.75
G3 X314.325 Y284.1625 I1.5875 J0.0
G1 X608.0125
G1 Y280.9875
G1 X314.325
G3 X312.7375 Y279.4 I0.0 J-1.5875
G1 Y215.9
G3 X314.325 Y214.3125 I1.5875 J0.0
G1 X608.0125
G1 Y211.1375
G1 X314.325
G3 X312.7375 Y209.55 I0.0 J-1.5875
G1 Y146.05
G3 X314.325 Y144.4625 I1.5875 J0.0
G1 X608.0125
G1 Y141.2875
G1 X314.325
G3 X312.7375 Y139.7 I0.0 J-1.5875
G1 Y76.2
G3 X314.325 Y74.6125 I1.5875 J0.0
G1 X608.0125
G1 Y71.4375
G1 X314.325
G3 X312.7375 Y69.85 I0.0 J-1.5875
G1 Y1.5875
G1 X296.8625
G1 Y69.85
G3 X295.275 Y71.4375 I-1.5875 J0.0
G1 X1.5875
G1 Y74.6125
G1 X295.275
G3 X296.8625 Y76.2 I0.0 J1.5875
G1 Y139.7
G3 X295.275 Y141.2875 I-1.5875 J0.0
G1 X1.5875
G1 Y144.4625
G1 X295.275
G3 X296.7538 Y145.4727 I0.0 J1.5875
( Pocket2 )
S12000
G0 Z3.0
G0 X912.9712 Y168.4338
G0 Z0.1
G1 F120.0 Z-1.0
G1 F3000.0 Y168.1163
G1 X618.9662
G1 X618.9663 Y168.4338
G1 X912.9712
G0 Z3.0
G0 Y169.8625
G0 Z0.1
G1 F120.0 Z-1.0
G1 F3000.0 X914.4
G1 Y166.6875
G1 X617.5375
G1 Y169.8625
G1 X912.9712
G0 Z3.0
G0 Y168.4338
G0 Z-0.9
G1 F120.0 Z-2.0
G1 F3000.0 Y168.1163
G1 X618.9662
G1 X618.9663 Y168.4338
G1 X912.9712
G0 Z3.0
G0 Y169.8625
G0 Z-0.9
G1 F120.0 Z-2.0
G1 F3000.0 X914.4
G1 Y166.6875
G1 X617.5375
G1 Y169.8625
G1 X912.9712
G0 Z3.0
G0 Y168.4338
G0 Z-1.9
G1 F120.0 Z-3.0
G1 F3000.0 Y168.1163
G1 X618.9662
G1 X618.9663 Y168.4338
G1 X912.9712
G0 Z3.0
G0 Y169.8625
G0 Z-1.9
G1 F120.0 Z-3.0
G1 F3000.0 X914.4
G1 Y166.6875
G1 X617.5375
G1 Y169.8625
G1 X912.9712
G0 Z3.0
G0 Y168.4338
G0 Z-2.9
G1 F120.0 Z-4.0
G1 F3000.0 Y168.1163
G1 X618.9662
G1 X618.9663 Y168.4338
G1 X912.9712
G0 Z3.0
G0 Y169.8625
G0 Z-2.9
G1 F120.0 Z-4.0
G1 F3000.0 X914.4
G1 Y166.6875
G1 X617.5375
G1 Y169.8625
G1 X912.9712
G0 Z3.0
G0 Y168.4338
G0 Z-3.9
G1 F120.0 Z-5.0
G1 F3000.0 Y168.1163
G1 X618.9662
G1 X618.9663 Y168.4338
G1 X912.9712
G0 Z3.0
G0 Y169.8625
G0 Z-3.9
G1 F120.0 Z-5.0
G1 F3000.0 X914.4
G1 Y166.6875
G1 X617.5375
G1 Y169.8625
G1 X912.9712
G0 Z3.0
G0 Y168.4338
G0 Z-4.9
G1 F120.0 Z-6.0
G1 F3000.0 Y168.1163
G1 X618.9662
G1 X618.9663 Y168.4338
G1 X912.9712
G0 Z3.0
G0 Y169.8625
G0 Z-4.9
G1 F120.0 Z-6.0
G1 F3000.0 X914.4
G1 Y166.6875
G1 X617.5375
G1 Y169.8625
G1 X912.9712
G0 Z3.0
G0 Y168.4338
G0 Z-5.9
G1 F120.0 Z-6.5
G1 F3000.0 Y168.1163
G1 X618.9662
G1 X618.9663 Y168.4338
G1 X912.9712
G0 Z3.0
G0 Y169.8625
G0 Z-5.9
G1 F120.0 Z-6.5
G1 F3000.0 X914.4
G1 Y166.6875
G1 X617.5375
G1 Y169.8625
G1 X912.9712
G0 Z3.0
G0 X912.9713 Y237.9663
G0 Z0.1
G1 F120.0 Z-1.0
G1 F3000.0 X618.9662
G1 X618.9663 Y238.2838
G1 X912.9712
G1 X912.9713 Y237.9663
G0 Z3.0
G0 Y236.5375
G0 Z0.1
G1 F120.0 Z-1.0
G1 F3000.0 X617.5375
G1 Y239.7125
G1 X914.4
G1 Y236.5375
G1 X912.9713
G0 Z3.0
G0 Y237.9663
G0 Z-0.9
G1 F120.0 Z-2.0
G1 F3000.0 X618.9662
G1 X618.9663 Y238.2838
G1 X912.9712
G1 X912.9713 Y237.9663
G0 Z3.0
G0 Y236.5375
G0 Z-0.9
G1 F120.0 Z-2.0
G1 F3000.0 X617.5375
G1 Y239.7125
G1 X914.4
G1 Y236.5375
G1 X912.9713
G0 Z3.0
G0 Y237.9663
G0 Z-1.9
G1 F120.0 Z-3.0
G1 F3000.0 X618.9662
G1 X618.9663 Y238.2838
G1 X912.9712
G1 X912.9713 Y237.9663
G0 Z3.0
G0 Y236.5375
G0 Z-1.9
G1 F120.0 Z-3.0
G1 F3000.0 X617.5375
G1 Y239.7125
G1 X914.4
G1 Y236.5375
G1 X912.9713
G0 Z3.0
G0 Y237.9663
G0 Z-2.9
G1 F120.0 Z-4.0
G1 F3000.0 X618.9662
G1 X618.9663 Y238.2838
G1 X912.9712
G1 X912.9713 Y237.9663
G0 Z3.0
G0 Y236.5375
G0 Z-2.9
G1 F120.0 Z-4.0
G1 F3000.0 X617.5375
G1 Y239.7125
G1 X914.4
G1 Y236.5375
G1 X912.9713
G0 Z3.0
G0 Y237.9663
G0 Z-3.9
G1 F120.0 Z-5.0
G1 F3000.0 X618.9662
G1 X618.9663 Y238.2838
G1 X912.9712
G1 X912.9713 Y237.9663
G0 Z3.0
G0 Y236.5375
G0 Z-3.9
G1 F120.0 Z-5.0
G1 F3000.0 X617.5375
G1 Y239.7125
G1 X914.4
G1 Y236.5375
G1 X912.9713
G0 Z3.0
G0 Y237.9663
G0 Z-4.9
G1 F120.0 Z-6.0
G1 F3000.0 X618.9662
G1 X618.9663 Y238.2838
G1 X912.9712
G1 X912.9713 Y237.9663
G0 Z3.0
G0 Y236.5375
G0 Z-4.9
G1 F120.0 Z-6.0
G1 F3000.0 X617.5375
G1 Y239.7125
G1 X914.4
G1 Y236.5375
G1 X912.9713
G0 Z3.0
G0 Y237.9663
G0 Z-5.9
G1 F120.0 Z-6.5
G1 F3000.0 X618.9662
G1 X618.9663 Y238.2838
G1 X912.9712
G1 X912.9713 Y237.9663
G0 Z3.0
G0 Y236.5375
G0 Z-5.9
G1 F120.0 Z-6.5
G1 F3000.0 X617.5375
G1 Y239.7125
G1 X914.4
G1 Y236.5375
G1 X912.9713
G0 Z3.0
G0 Y307.8163
G0 Z0.1
G1 F120.0 Z-1.0
G1 F3000.0 X618.9663
G1 Y308.1338
G1 X912.9713
G1 Y307.8163
G0 Z3.0
G0 X914.4 Y307.8162
G0 Z0.1
G1 F120.0 Z-1.0
G1 F3000.0 Y306.3875
G1 X617.5375
G1 Y309.5625
G1 X914.4
G1 Y307.8162
G0 Z3.0
G0 X912.9713 Y307.8163
G0 Z-0.9
G1 F120.0 Z-2.0
G1 F3000.0 X618.9663
G1 Y308.1338
G1 X912.9713
G1 Y307.8163
G0 Z3.0
G0 X914.4 Y307.8162
G0 Z-0.9
G1 F120.0 Z-2.0
G1 F3000.0 Y306.3875
G1 X617.5375
G1 Y309.5625
G1 X914.4
G1 Y307.8162
G0 Z3.0
G0 X912.9713 Y307.8163
G0 Z-1.9
G1 F120.0 Z-3.0
G1 F3000.0 X618.9663
G1 Y308.1338
G1 X912.9713
G1 Y307.8163
G0 Z3.0
G0 X914.4 Y307.8162
G0 Z-1.9
G1 F120.0 Z-3.0
G1 F3000.0 Y306.3875
G1 X617.5375
G1 Y309.5625
G1 X914.4
G1 Y307.8162
G0 Z3.0
G0 X912.9713 Y307.8163
G0 Z-2.9
G1 F120.0 Z-4.0
G1 F3000.0 X618.9663
G1 Y308.1338
G1 X912.9713
G1 Y307.8163
G0 Z3.0
G0 X914.4 Y307.8162
G0 Z-2.9
G1 F120.0 Z-4.0
G1 F3000.0 Y306.3875
G1 X617.5375
G1 Y309.5625
G1 X914.4
G1 Y307.8162
G0 Z3.0
G0 X912.9713 Y307.8163
G0 Z-3.9
G1 F120.0 Z-5.0
G1 F3000.0 X618.9663
G1 Y308.1338
G1 X912.9713
G1 Y307.8163
G0 Z3.0
G0 X914.4 Y307.8162
G0 Z-3.9
G1 F120.0 Z-5.0
G1 F3000.0 Y306.3875
G1 X617.5375
G1 Y309.5625
G1 X914.4
G1 Y307.8162
G0 Z3.0
G0 X912.9713 Y307.8163
G0 Z-4.9
G1 F120.0 Z-6.0
G1 F3000.0 X618.9663
G1 Y308.1338
G1 X912.9713
G1 Y307.8163
G0 Z3.0
G0 X914.4 Y307.8162
G0 Z-4.9
G1 F120.0 Z-6.0
G1 F3000.0 Y306.3875
G1 X617.5375
G1 Y309.5625
G1 X914.4
G1 Y307.8162
G0 Z3.0
G0 X912.9713 Y307.8163
G0 Z-5.9
G1 F120.0 Z-6.5
G1 F3000.0 X618.9663
G1 Y308.1338
G1 X912.9713
G1 Y307.8163
G0 Z3.0
G0 X914.4 Y307.8162
G0 Z-5.9
G1 F120.0 Z-6.5
G1 F3000.0 Y306.3875
G1 X617.5375
G1 Y309.5625
G1 X914.4
G1 Y307.8162
G0 Z3.0
G0 X912.9712 Y377.6663
G0 Z0.1
G1 F120.0 Z-1.0
G1 F3000.0 X618.9662
G1 X618.9663 Y377.9838
G1 X912.9712
G1 Y377.6663
G0 Z3.0
G0 Y376.2375
G0 Z0.1
G1 F120.0 Z-1.0
G1 F3000.0 X617.5375
G1 Y379.4125
G1 X914.4
G1 Y376.2375
G1 X912.9712
G0 Z3.0
G0 Y377.6663
G0 Z-0.9
G1 F120.0 Z-2.0
G1 F3000.0 X618.9662
G1 X618.9663 Y377.9838
G1 X912.9712
G1 Y377.6663
G0 Z3.0
G0 Y376.2375
G0 Z-0.9
G1 F120.0 Z-2.0
G1 F3000.0 X617.5375
G1 Y379.4125
G1 X914.4
G1 Y376.2375
G1 X912.9712
G0 Z3.0
G0 Y377.6663
G0 Z-1.9
G1 F120.0 Z-3.0
G1 F3000.0 X618.9662
G1 X618.9663 Y377.9838
G1 X912.9712
G1 Y377.6663
G0 Z3.0
G0 Y376.2375
G0 Z-1.9
G1 F120.0 Z-3.0
G1 F3000.0 X617.5375
G1 Y379.4125
G1 X914.4
G1 Y376.2375
G1 X912.9712
G0 Z3.0
G0 Y377.6663
G0 Z-2.9
G1 F120.0 Z-4.0
G1 F3000.0 X618.9662
G1 X618.9663 Y377.9838
G1 X912.9712
G1 Y377.6663
G0 Z3.0
G0 Y376.2375
G0 Z-2.9
G1 F120.0 Z-4.0
G1 F3000.0 X617.5375
G1 Y379.4125
G1 X914.4
G1 Y376.2375
G1 X912.9712
G0 Z3.0
G0 Y377.6663
G0 Z-3.9
G1 F120.0 Z-5.0
G1 F3000.0 X618.9662
G1 X618.9663 Y377.9838
G1 X912.9712
G1 Y377.6663
G0 Z3.0
G0 Y376.2375
G0 Z-3.9
G1 F120.0 Z-5.0
G1 F3000.0 X617.5375
G1 Y379.4125
G1 X914.4
G1 Y376.2375
G1 X912.9712
G0 Z3.0
G0 Y377.6663
G0 Z-4.9
G1 F120.0 Z-6.0
G1 F3000.0 X618.9662
G1 X618.9663 Y377.9838
G1 X912.9712
G1 Y377.6663
G0 Z3.0
G0 Y376.2375
G0 Z-4.9
G1 F120.0 Z-6.0
G1 F3000.0 X617.5375
G1 Y379.4125
G1 X914.4
G1 Y376.2375
G1 X912.9712
G0 Z3.0
G0 Y377.6663
G0 Z-5.9
G1 F120.0 Z-6.5
G1 F3000.0 X618.9662
G1 X618.9663 Y377.9838
G1 X912.9712
G1 Y377.6663
G0 Z3.0
G0 Y376.2375
G0 Z-5.9
G1 F120.0 Z-6.5
G1 F3000.0 X617.5375
G1 Y379.4125
G1 X914.4
G1 Y376.2375
G1 X912.9712
G0 Z3.0
G0 Y447.5163
G0 Z0.1
G1 F120.0 Z-1.0
G1 F3000.0 X618.9663
G1 Y447.8338
G1 X912.9713
G1 X912.9712 Y447.5163
G0 Z3.0
G0 Y446.0875
G0 Z0.1
G1 F120.0 Z-1.0
G1 F3000.0 X617.5375
G1 Y449.2625
G1 X914.4
G1 Y446.0875
G1 X912.9712
G0 Z3.0
G0 Y447.5163
G0 Z-0.9
G1 F120.0 Z-2.0
G1 F3000.0 X618.9663
G1 Y447.8338
G1 X912.9713
G1 X912.9712 Y447.5163
G0 Z3.0
G0 Y446.0875
G0 Z-0.9
G1 F120.0 Z-2.0
G1 F3000.0 X617.5375
G1 Y449.2625
G1 X914.4
G1 Y446.0875
G1 X912.9712
G0 Z3.0
G0 Y447.5163
G0 Z-1.9
G1 F120.0 Z-3.0
G1 F3000.0 X618.9663
G1 Y447.8338
G1 X912.9713
G1 X912.9712 Y447.5163
G0 Z3.0
G0 Y446.0875
G0 Z-1.9
G1 F120.0 Z-3.0
G1 F3000.0 X617.5375
G1 Y449.2625
G1 X914.4
G1 Y446.0875
G1 X912.9712
G0 Z3.0
G0 Y447.5163
G0 Z-2.9
G1 F120.0 Z-4.0
G1 F3000.0 X618.9663
G1 Y447.8338
G1 X912.9713
G1 X912.9712 Y447.5163
G0 Z3.0
G0 Y446.0875
G0 Z-2.9
G1 F120.0 Z-4.0
G1 F3000.0 X617.5375
G1 Y449.2625
G1 X914.4
G1 Y446.0875
G1 X912.9712
G0 Z3.0
G0 Y447.5163
G0 Z-3.9
G1 F120.0 Z-5.0
G1 F3000.0 X618.9663
G1 Y447.8338
G1 X912.9713
G1 X912.9712 Y447.5163
G0 Z3.0
G0 Y446.0875
G0 Z-3.9
G1 F120.0 Z-5.0
G1 F3000.0 X617.5375
G1 Y449.2625
G1 X914.4
G1 Y446.0875
G1 X912.9712
G0 Z3.0
G0 Y447.5163
G0 Z-4.9
G1 F120.0 Z-6.0
G1 F3000.0 X618.9663
G1 Y447.8338
G1 X912.9713
G1 X912.9712 Y447.5163
G0 Z3.0
G0 Y446.0875
G0 Z-4.9
G1 F120.0 Z-6.0
G1 F3000.0 X617.5375
G1 Y449.2625
G1 X914.4
G1 Y446.0875
G1 X912.9712
G0 Z3.0
G0 Y447.5163
G0 Z-5.9
G1 F120.0 Z-6.5
G1 F3000.0 X618.9663
G1 Y447.8338
G1 X912.9713
G1 X912.9712 Y447.5163
G0 Z3.0
G0 Y446.0875
G0 Z-5.9
G1 F120.0 Z-6.5
G1 F3000.0 X617.5375
G1 Y449.2625
G1 X914.4
G1 Y446.0875
G1 X912.9712
G0 Z3.0
G0 Y517.3663
G0 Z0.1
G1 F120.0 Z-1.0
G1 F3000.0 X618.9663
G1 Y517.6838
G1 X912.9713
G1 X912.9712 Y517.3663
G0 Z3.0
G0 X914.4 Y517.3662
G0 Z0.1
G1 F120.0 Z-1.0
G1 F3000.0 Y515.9375
G1 X617.5375
G1 Y519.1125
G1 X914.4
G1 Y517.3662
G0 Z3.0
G0 X912.9712 Y517.3663
G0 Z-0.9
G1 F120.0 Z-2.0
G1 F3000.0 X618.9663
G1 Y517.6838
G1 X912.9713
G1 X912.9712 Y517.3663
G0 Z3.0
G0 X914.4 Y517.3662
G0 Z-0.9
G1 F120.0 Z-2.0
G1 F3000.0 Y515.9375
G1 X617.5375
G1 Y519.1125
G1 X914.4
G1 Y517.3662
G0 Z3.0
G0 X912.9712 Y517.3663
G0 Z-1.9
G1 F120.0 Z-3.0
G1 F3000.0 X618.9663
G1 Y517.6838
G1 X912.9713
G1 X912.9712 Y517.3663
G0 Z3.0
G0 X914.4 Y517.3662
G0 Z-1.9
G1 F120.0 Z-3.0
G1 F3000.0 Y515.9375
G1 X617.5375
G1 Y519.1125
G1 X914.4
G1 Y517.3662
G0 Z3.0
G0 X912.9712 Y517.3663
G0 Z-2.9
G1 F120.0 Z-4.0
G1 F3000.0 X618.9663
G1 Y517.6838
G1 X912.9713
G1 X912.9712 Y517.3663
G0 Z3.0
G0 X914.4 Y517.3662
G0 Z-2.9
G1 F120.0 Z-4.0
G1 F3000.0 Y515.9375
G1 X617.5375
G1 Y519.1125
G1 X914.4
G1 Y517.3662
G0 Z3.0
G0 X912.9712 Y517.3663
G0 Z-3.9
G1 F120.0 Z-5.0
G1 F3000.0 X618.9663
G1 Y517.6838
G1 X912.9713
G1 X912.9712 Y517.3663
G0 Z3.0
G0 X914.4 Y517.3662
G0 Z-3.9
G1 F120.0 Z-5.0
G1 F3000.0 Y515.9375
G1 X617.5375
G1 Y519.1125
G1 X914.4
G1 Y517.3662
G0 Z3.0
G0 X912.9712 Y517.3663
G0 Z-4.9
G1 F120.0 Z-6.0
G1 F3000.0 X618.9663
G1 Y517.6838
G1 X912.9713
G1 X912.9712 Y517.3663
G0 Z3.0
G0 X914.4 Y517.3662
G0 Z-4.9
G1 F120.0 Z-6.0
G1 F3000.0 Y515.9375
G1 X617.5375
G1 Y519.1125
G1 X914.4
G1 Y517.3662
G0 Z3.0
G0 X912.9712 Y517.3663
G0 Z-5.9
G1 F120.0 Z-6.5
G1 F3000.0 X618.9663
G1 Y517.6838
G1 X912.9713
G1 X912.9712 Y517.3663
G0 Z3.0
G0 X914.4 Y517.3662
G0 Z-5.9
G1 F120.0 Z-6.5
G1 F3000.0 Y515.9375
G1 X617.5375
G1 Y519.1125
G1 X914.4
G1 Y517.3662
G0 Z3.0
G0 X912.9712 Y587.2163
G0 Z0.1
G1 F120.0 Z-1.0
G1 F3000.0 X618.9663
G1 X618.9662 Y587.5338
G1 X912.9712
G1 Y587.2163
G0 Z3.0
G0 Y585.7875
G0 Z0.1
G1 F120.0 Z-1.0
G1 F3000.0 X617.5375
G1 Y588.9625
G1 X914.4
G1 Y585.7875
G1 X912.9712
G0 Z3.0
G0 Y587.2163
G0 Z-0.9
G1 F120.0 Z-2.0
G1 F3000.0 X618.9663
G1 X618.9662 Y587.5338
G1 X912.9712
G1 Y587.2163
G0 Z3.0
G0 Y585.7875
G0 Z-0.9
G1 F120.0 Z-2.0
G1 F3000.0 X617.5375
G1 Y588.9625
G1 X914.4
G1 Y585.7875
G1 X912.9712
G0 Z3.0
G0 Y587.2163
G0 Z-1.9
G1 F120.0 Z-3.0
G1 F3000.0 X618.9663
G1 X618.9662 Y587.5338
G1 X912.9712
G1 Y587.2163
G0 Z3.0
G0 Y585.7875
G0 Z-1.9
G1 F120.0 Z-3.0
G1 F3000.0 X617.5375
G1 Y588.9625
G1 X914.4
G1 Y585.7875
G1 X912.9712
G0 Z3.0
G0 Y587.2163
G0 Z-2.9
G1 F120.0 Z-4.0
G1 F3000.0 X618.9663
G1 X618.9662 Y587.5338
G1 X912.9712
G1 Y587.2163
G0 Z3.0
G0 Y585.7875
G0 Z-2.9
G1 F120.0 Z-4.0
G1 F3000.0 X617.5375
G1 Y588.9625
G1 X914.4
G1 Y585.7875
G1 X912.9712
G0 Z3.0
G0 Y587.2163
G0 Z-3.9
G1 F120.0 Z-5.0
G1 F3000.0 X618.9663
G1 X618.9662 Y587.5338
G1 X912.9712
G1 Y587.2163
G0 Z3.0
G0 Y585.7875
G0 Z-3.9
G1 F120.0 Z-5.0
G1 F3000.0 X617.5375
G1 Y588.9625
G1 X914.4
G1 Y585.7875
G1 X912.9712
G0 Z3.0
G0 Y587.2163
G0 Z-4.9
G1 F120.0 Z-6.0
G1 F3000.0 X618.9663
G1 X618.9662 Y587.5338
G1 X912.9712
G1 Y587.2163
G0 Z3.0
G0 Y585.7875
G0 Z-4.9
G1 F120.0 Z-6.0
G1 F3000.0 X617.5375
G1 Y588.9625
G1 X914.4
G1 Y585.7875
G1 X912.9712
G0 Z3.0
G0 Y587.2163
G0 Z-5.9
G1 F120.0 Z-6.5
G1 F3000.0 X618.9663
G1 X618.9662 Y587.5338
G1 X912.9712
G1 Y587.2163
G0 Z3.0
G0 Y585.7875
G0 Z-5.9
G1 F120.0 Z-6.5
G1 F3000.0 X617.5375
G1 Y588.9625
G1 X914.4
G1 Y585.7875
G1 X912.9712
G0 Z3.0
G0 X912.9713 Y657.0663
G0 Z0.1
G1 F120.0 Z-1.0
G1 F3000.0 X618.9662
G1 X618.9663 Y657.3838
G1 X912.9712
G1 X912.9713 Y657.0663
G0 Z3.0
G0 X914.4
G0 Z0.1
G1 F120.0 Z-1.0
G1 F3000.0 Y655.6375
G1 X617.5375
G1 Y658.8125
G1 X914.4
G1 Y657.0663
G0 Z3.0
G0 X912.9713
G0 Z-0.9
G1 F120.0 Z-2.0
G1 F3000.0 X618.9662
G1 X618.9663 Y657.3838
G1 X912.9712
G1 X912.9713 Y657.0663
G0 Z3.0
G0 X914.4
G0 Z-0.9
G1 F120.0 Z-2.0
G1 F3000.0 Y655.6375
G1 X617.5375
G1 Y658.8125
G1 X914.4
G1 Y657.0663
G0 Z3.0
G0 X912.9713
G0 Z-1.9
G1 F120.0 Z-3.0
G1 F3000.0 X618.9662
G1 X618.9663 Y657.3838
G1 X912.9712
G1 X912.9713 Y657.0663
G0 Z3.0
G0 X914.4
G0 Z-1.9
G1 F120.0 Z-3.0
G1 F3000.0 Y655.6375
G1 X617.5375
G1 Y658.8125
G1 X914.4
G1 Y657.0663
G0 Z3.0
G0 X912.9713
G0 Z-2.9
G1 F120.0 Z-4.0
G1 F3000.0 X618.9662
G1 X618.9663 Y657.3838
G1 X912.9712
G1 X912.9713 Y657.0663
G0 Z3.0
G0 X914.4
G0 Z-2.9
G1 F120.0 Z-4.0
G1 F3000.0 Y655.6375
G1 X617.5375
G1 Y658.8125
G1 X914.4
G1 Y657.0663
G0 Z3.0
G0 X912.9713
G0 Z-3.9
G1 F120.0 Z-5.0
G1 F3000.0 X618.9662
G1 X618.9663 Y657.3838
G1 X912.9712
G1 X912.9713 Y657.0663
G0 Z3.0
G0 X914.4
G0 Z-3.9
G1 F120.0 Z-5.0
G1 F3000.0 Y655.6375
G1 X617.5375
G1 Y658.8125
G1 X914.4
G1 Y657.0663
G0 Z3.0
G0 X912.9713
G0 Z-4.9
G1 F120.0 Z-6.0
G1 F3000.0 X618.9662
G1 X618.9663 Y657.3838
G1 X912.9712
G1 X912.9713 Y657.0663
G0 Z3.0
G0 X914.4
G0 Z-4.9
G1 F120.0 Z-6.0
G1 F3000.0 Y655.6375
G1 X617.5375
G1 Y658.8125
G1 X914.4
G1 Y657.0663
G0 Z3.0
G0 X912.9713
G0 Z-5.9
G1 F120.0 Z-6.5
G1 F3000.0 X618.9662
G1 X618.9663 Y657.3838
G1 X912.9712
G1 X912.9713 Y657.0663
G0 Z3.0
G0 X914.4
G0 Z-5.9
G1 F120.0 Z-6.5
G1 F3000.0 Y655.6375
G1 X617.5375
G1 Y658.8125
G1 X914.4
G1 Y657.0663
G0 Z3.0
G0 X912.9712 Y726.9163
G0 Z0.1
G1 F120.0 Z-1.0
G1 F3000.0 X618.9662
G1 Y727.2338
G1 X912.9713
G1 X912.9712 Y726.9163
G0 Z3.0
G0 Y725.4875
G0 Z0.1
G1 F120.0 Z-1.0
G1 F3000.0 X617.5375
G1 Y728.6625
G1 X914.4
G1 Y725.4875
G1 X912.9712
G0 Z3.0
G0 Y726.9163
G0 Z-0.9
G1 F120.0 Z-2.0
G1 F3000.0 X618.9662
G1 Y727.2338
G1 X912.9713
G1 X912.9712 Y726.9163
G0 Z3.0
G0 Y725.4875
G0 Z-0.9
G1 F120.0 Z-2.0
G1 F3000.0 X617.5375
G1 Y728.6625
G1 X914.4
G1 Y725.4875
G1 X912.9712
G0 Z3.0
G0 Y726.9163
G0 Z-1.9
G1 F120.0 Z-3.0
G1 F3000.0 X618.9662
G1 Y727.2338
G1 X912.9713
G1 X912.9712 Y726.9163
G0 Z3.0
G0 Y725.4875
G0 Z-1.9
G1 F120.0 Z-3.0
G1 F3000.0 X617.5375
G1 Y728.6625
G1 X914.4
G1 Y725.4875
G1 X912.9712
G0 Z3.0
G0 Y726.9163
G0 Z-2.9
G1 F120.0 Z-4.0
G1 F3000.0 X618.9662
G1 Y727.2338
G1 X912.9713
G1 X912.9712 Y726.9163
G0 Z3.0
G0 Y725.4875
G0 Z-2.9
G1 F120.0 Z-4.0
G1 F3000.0 X617.5375
G1 Y728.6625
G1 X914.4
G1 Y725.4875
G1 X912.9712
G0 Z3.0
G0 Y726.9163
G0 Z-3.9
G1 F120.0 Z-5.0
G1 F3000.0 X618.9662
G1 Y727.2338
G1 X912.9713
G1 X912.9712 Y726.9163
G0 Z3.0
G0 Y725.4875
G0 Z-3.9
G1 F120.0 Z-5.0
G1 F3000.0 X617.5375
G1 Y728.6625
G1 X914.4
G1 Y725.4875
G1 X912.9712
G0 Z3.0
G0 Y726.9163
G0 Z-4.9
G1 F120.0 Z-6.0
G1 F3000.0 X618.9662
G1 Y727.2338
G1 X912.9713
G1 X912.9712 Y726.9163
G0 Z3.0
G0 Y725.4875
G0 Z-4.9
G1 F120.0 Z-6.0
G1 F3000.0 X617.5375
G1 Y728.6625
G1 X914.4
G1 Y725.4875
G1 X912.9712
G0 Z3.0
G0 Y726.9163
G0 Z-5.9
G1 F120.0 Z-6.5
G1 F3000.0 X618.9662
G1 Y727.2338
G1 X912.9713
G1 X912.9712 Y726.9163
G0 Z3.0
G0 Y725.4875
G0 Z-5.9
G1 F120.0 Z-6.5
G1 F3000.0 X617.5375
G1 Y728.6625
G1 X914.4
G1 Y725.4875
G1 X912.9712
( Profile1 )
S12000
G0 Z3.0
G0 X0.0 Y-1.5875
G0 Z0.1
G1 F120.0 Z-1.0
G1 F3000.0 X609.6
G3 X611.1875 Y0.0 I0.0 J1.5875
G1 Y730.25
G3 X609.6 Y731.8375 I-1.5875 J0.0
G1 X0.0
G3 X-1.5875 Y730.25 I0.0 J-1.5875
G1 Y0.0
G3 X0.0 Y-1.5875 I1.5875 J0.0
G0 Z3.0
G0 X614.3818 Y95.0034
G0 Z0.1
G1 F120.0 Z-1.0
G3 F3000.0 X615.95 Y93.6625 I1.5682 J0.2466
G1 X915.9875
G3 X917.575 Y95.25 I0.0 J1.5875
G1 Y730.25
G3 X915.9875 Y731.8375 I-1.5875 J0.0
G1 X615.95
G3 X614.3625 Y730.25 I0.0 J-1.5875
G1 Y95.25
G3 X614.3818 Y95.0034 I1.5875 J0.0
G1 F120.0 Z-2.0
G3 F3000.0 X615.95 Y93.6625 I1.5682 J0.2466
G1 X915.9875
G3 X917.575 Y95.25 I0.0 J1.5875
G1 Y730.25
G3 X915.9875 Y731.8375 I-1.5875 J0.0
G1 X615.95
G3 X614.3625 Y730.25 I0.0 J-1.5875
G1 Y95.25
G3 X614.3818 Y95.0034 I1.5875 J0.0
G0 Z3.0
G0 X611.1875
G0 Z-0.9
G1 F120.0 Z-2.0
G1 F3000.0 Y730.25
G3 X609.6 Y731.8375 I-1.5875 J0.0
G1 X0.0
G3 X-1.5875 Y730.25 I0.0 J-1.5875
G1 Y0.0
G3 X0.0 Y-1.5875 I1.5875 J0.0
G1 X609.6
G3 X611.1875 Y0.0 I0.0 J1.5875
G1 Y95.0034
G1 F120.0 Z-3.0
G1 F3000.0 Y730.25
G3 X609.6 Y731.8375 I-1.5875 J0.0
G1 X0.0
G3 X-1.5875 Y730.25 I0.0 J-1.5875
G1 Y0.0
G3 X0.0 Y-1.5875 I1.5875 J0.0
G1 X609.6
G3 X611.1875 Y0.0 I0.0 J1.5875
G1 Y95.0034
G0 Z3.0
G0 X614.3646 Y95.1679
G0 Z-1.9
G1 F120.0 Z-3.0
G3 F3000.0 X615.95 Y93.6625 I1.5854 J0.0821
G1 X915.9875
G3 X917.575 Y95.25 I0.0 J1.5875
G1 Y730.25
G3 X915.9875 Y731.8375 I-1.5875 J0.0
G1 X615.95
G3 X614.3625 Y730.25 I0.0 J-1.5875
G1 Y95.25
G3 X614.3646 Y95.1679 I1.5875 J0.0
G1 F120.0 Z-4.0
G3 F3000.0 X615.95 Y93.6625 I1.5854 J0.0821
G1 X915.9875
G3 X917.575 Y95.25 I0.0 J1.5875
G1 Y730.25
G3 X915.9875 Y731.8375 I-1.5875 J0.0
G1 X615.95
G3 X614.3625 Y730.25 I0.0 J-1.5875
G1 Y95.25
G3 X614.3646 Y95.1679 I1.5875 J0.0
G0 Z3.0
G0 X611.1875
G0 Z-2.9
G1 F120.0 Z-4.0
G1 F3000.0 Y730.25
G3 X609.6 Y731.8375 I-1.5875 J0.0
G1 X0.0
G3 X-1.5875 Y730.25 I0.0 J-1.5875
G1 Y0.0
G3 X0.0 Y-1.5875 I1.5875 J0.0
G1 X609.6
G3 X611.1875 Y0.0 I0.0 J1.5875
G1 Y95.1679
G1 F120.0 Z-5.0
G1 F3000.0 Y730.25
G3 X609.6 Y731.8375 I-1.5875 J0.0
G1 X0.0
G3 X-1.5875 Y730.25 I0.0 J-1.5875
G1 Y0.0
G3 X0.0 Y-1.5875 I1.5875 J0.0
G1 X609.6
G3 X611.1875 Y0.0 I0.0 J1.5875
G1 Y95.1679
G0 Z3.0
G0 X614.3627 Y95.2226
G0 Z-3.9
G1 F120.0 Z-5.0
G3 F3000.0 X615.95 Y93.6625 I1.5873 J0.0274
G1 X915.9875
G3 X917.575 Y95.25 I0.0 J1.5875
G1 Y730.25
G3 X915.9875 Y731.8375 I-1.5875 J0.0
G1 X615.95
G3 X614.3625 Y730.25 I0.0 J-1.5875
G1 Y95.25
G3 X614.3627 Y95.2226 I1.5875 J0.0
G1 F120.0 Z-6.0
G3 F3000.0 X615.95 Y93.6625 I1.5873 J0.0274
G1 X915.9875
G3 X917.575 Y95.25 I0.0 J1.5875
G1 Y730.25
G3 X915.9875 Y731.8375 I-1.5875 J0.0
G1 X615.95
G3 X614.3625 Y730.25 I0.0 J-1.5875
G1 Y95.25
G3 X614.3627 Y95.2226 I1.5875 J0.0
G0 Z3.0
G0 X611.1875
G0 Z-4.9
G1 F120.0 Z-6.0
G1 F3000.0 Y730.25
G3 X609.6 Y731.8375 I-1.5875 J0.0
G1 X0.0
G3 X-1.5875 Y730.25 I0.0 J-1.5875
G1 Y0.0
G3 X0.0 Y-1.5875 I1.5875 J0.0
G1 X609.6
G3 X611.1875 Y0.0 I0.0 J1.5875
G1 Y95.2226
G1 F120.0 Z-7.0
G1 F3000.0 Y730.25
G3 X609.6 Y731.8375 I-1.5875 J0.0
G1 X0.0
G3 X-1.5875 Y730.25 I0.0 J-1.5875
G1 Y0.0
G3 X0.0 Y-1.5875 I1.5875 J0.0
G1 X609.6
G3 X611.1875 Y0.0 I0.0 J1.5875
G1 Y95.2226
G0 Z3.0
G0 X614.3625 Y95.2409
G0 Z-5.9
G1 F120.0 Z-7.0
G3 F3000.0 X615.95 Y93.6625 I1.5875 J0.0091
G1 X915.9875
G3 X917.575 Y95.25 I0.0 J1.5875
G1 Y730.25
G3 X915.9875 Y731.8375 I-1.5875 J0.0
G1 X615.95
G3 X614.3625 Y730.25 I0.0 J-1.5875
G1 Y95.25
G3 Y95.2409 I1.5875 J0.0
G1 F120.0 Z-8.0
G3 F3000.0 X615.95 Y93.6625 I1.5875 J0.0091
G1 X915.9875
G3 X917.575 Y95.25 I0.0 J1.5875
G1 Y730.25
G3 X915.9875 Y731.8375 I-1.5875 J0.0
G1 X615.95
G3 X614.3625 Y730.25 I0.0 J-1.5875
G1 Y95.25
G3 Y95.2409 I1.5875 J0.0
G0 Z3.0
G0 X611.1875
G0 Z-6.9
G1 F120.0 Z-8.0
G1 F3000.0 Y730.25
G3 X609.6 Y731.8375 I-1.5875 J0.0
G1 X0.0
G3 X-1.5875 Y730.25 I0.0 J-1.5875
G1 Y0.0
G3 X0.0 Y-1.5875 I1.5875 J0.0
G1 X609.6
G3 X611.1875 Y0.0 I0.0 J1.5875
G1 Y95.2409
G1 F120.0 Z-9.0
G1 F3000.0 Y730.25
G3 X609.6 Y731.8375 I-1.5875 J0.0
G1 X0.0
G3 X-1.5875 Y730.25 I0.0 J-1.5875
G1 Y0.0
G3 X0.0 Y-1.5875 I1.5875 J0.0
G1 X609.6
G3 X611.1875 Y0.0 I0.0 J1.5875
G1 Y95.2409
G0 Z3.0
G0 X614.3625 Y95.247
G0 Z-7.9
G1 F120.0 Z-9.0
G3 F3000.0 X615.95 Y93.6625 I1.5875 J0.003
G1 X915.9875
G3 X917.575 Y95.25 I0.0 J1.5875
G1 Y730.25
G3 X915.9875 Y731.8375 I-1.5875 J0.0
G1 X615.95
G3 X614.3625 Y730.25 I0.0 J-1.5875
G1 Y95.25
G3 Y95.247 I1.5875 J0.0
G1 F120.0 Z-10.0
G3 F3000.0 X615.95 Y93.6625 I1.5875 J0.003
G1 X915.9875
G3 X917.575 Y95.25 I0.0 J1.5875
G1 Y730.25
G3 X915.9875 Y731.8375 I-1.5875 J0.0
G1 X615.95
G3 X614.3625 Y730.25 I0.0 J-1.5875
G1 Y95.25
G3 Y95.247 I1.5875 J0.0
G0 Z3.0
G0 X611.1875
G0 Z-8.9
G1 F120.0 Z-10.0
G1 F3000.0 Y730.25
G3 X609.6 Y731.8375 I-1.5875 J0.0
G1 X0.0
G3 X-1.5875 Y730.25 I0.0 J-1.5875
G1 Y0.0
G3 X0.0 Y-1.5875 I1.5875 J0.0
G1 X609.6
G3 X611.1875 Y0.0 I0.0 J1.5875
G1 Y95.247
G1 F120.0 Z-11.0
G1 F3000.0 Y730.25
G3 X609.6 Y731.8375 I-1.5875 J0.0
G1 X0.0
G3 X-1.5875 Y730.25 I0.0 J-1.5875
G1 Y0.0
G3 X0.0 Y-1.5875 I1.5875 J0.0
G1 X609.6
G3 X611.1875 Y0.0 I0.0 J1.5875
G1 Y95.247
G0 Z3.0
G0 X614.3625 Y95.249
G0 Z-9.9
G1 F120.0 Z-11.0
G3 F3000.0 X615.95 Y93.6625 I1.5875 J0.001
G1 X915.9875
G3 X917.575 Y95.25 I0.0 J1.5875
G1 Y730.25
G3 X915.9875 Y731.8375 I-1.5875 J0.0
G1 X615.95
G3 X614.3625 Y730.25 I0.0 J-1.5875
G1 Y95.25
G3 Y95.249 I1.5875 J0.0
G1 F120.0 Z-12.0
G3 F3000.0 X615.95 Y93.6625 I1.5875 J0.001
G1 X915.9875
G3 X917.575 Y95.25 I0.0 J1.5875
G1 Y730.25
G3 X915.9875 Y731.8375 I-1.5875 J0.0
G1 X615.95
G3 X614.3625 Y730.25 I0.0 J-1.5875
G1 Y95.25
G3 Y95.249 I1.5875 J0.0
G0 Z3.0
G0 X611.1875
G0 Z-10.9
G1 F120.0 Z-12.0
G1 F3000.0 Y730.25
G3 X609.6 Y731.8375 I-1.5875 J0.0
G1 X0.0
G3 X-1.5875 Y730.25 I0.0 J-1.5875
G1 Y0.0
G3 X0.0 Y-1.5875 I1.5875 J0.0
G1 X609.6
G3 X611.1875 Y0.0 I0.0 J1.5875
G1 Y95.249
G1 F120.0 Z-13.0
G1 F3000.0 Y124.23
G1 Y125.73 Z-12.0
G1 Y128.905
G1 Y130.405 Z-13.0
G1 Y138.9144
G1 Y140.4144 Z-12.0
G1 Y143.5894
G1 Y145.0894 Z-13.0
G1 Y232.4181
G1 Y233.9181 Z-12.0
G1 Y237.0931
G1 Y238.5931 Z-13.0
G1 Y258.215
G1 Y259.715 Z-12.0
G1 Y262.89
G1 Y264.39 Z-13.0
G1 Y325.9219
G1 Y327.4219 Z-12.0
G1 Y330.5969
G1 Y332.0969 Z-13.0
G1 Y392.2
G1 Y393.7 Z-12.0
G1 Y396.875
G1 Y398.375 Z-13.0
G1 Y419.4256
G1 Y420.9256 Z-12.0
G1 Y424.1006
G1 Y425.6006 Z-13.0
G1 Y512.9294
G1 Y514.4294 Z-12.0
G1 Y517.6044
G1 Y519.1044 Z-13.0
G1 Y526.185
G1 Y527.685 Z-12.0
G1 Y530.86
G1 Y532.36 Z-13.0
G1 Y606.4331
G1 Y607.9331 Z-12.0
G1 Y611.1081
G1 Y612.6081 Z-13.0
G1 Y660.17
G1 Y661.67 Z-12.0
G1 Y664.845
G1 Y666.345 Z-13.0
G1 Y699.9369
G1 Y701.4369 Z-12.0
G1 Y704.6119
G1 Y706.1119 Z-13.0
G1 Y730.25
G3 X609.6 Y731.8375 I-1.5875 J0.0
G1 X545.695
G1 X544.195 Z-12.0
G1 X541.02
G1 X539.52 Z-13.0
G1 X411.71
G1 X410.21 Z-12.0
G1 X407.035
G1 X405.535 Z-13.0
G1 X277.725
G1 X276.225 Z-12.0
G1 X273.05
G1 X271.55 Z-13.0
G1 X143.74
G1 X142.24 Z-12.0
G1 X139.065
G1 X137.565 Z-13.0
G1 X9.755
G1 X8.255 Z-12.0
G1 X5.08
G1 X3.58 Z-13.0
G1 X0.0
G3 X-1.5875 Y730.25 I0.0 J-1.5875
G1 Y606.02
G1 Y604.52 Z-12.0
G1 Y601.345
G1 Y599.845 Z-13.0
G1 Y472.035
G1 Y470.535 Z-12.0
G1 Y467.36
G1 Y465.86 Z-13.0
G1 Y338.05
G1 Y336.55 Z-12.0
G1 Y333.375
G1 Y331.875 Z-13.0
G1 Y204.065
G1 Y202.565 Z-12.0
G1 Y199.39
G1 Y197.89 Z-13.0
G1 Y70.08
G1 Y68.58 Z-12.0
G1 Y65.405
G1 Y63.905 Z-13.0
G1 Y0.0
G3 X0.0 Y-1.5875 I1.5875 J0.0
G1 X63.905
G1 X65.405 Z-12.0
G1 X68.58
G1 X70.08 Z-13.0
G1 X197.89
G1 X199.39 Z-12.0
G1 X202.565
G1 X204.065 Z-13.0
G1 X331.875
G1 X333.375 Z-12.0
G1 X336.55
G1 X338.05 Z-13.0
G1 X465.86
G1 X467.36 Z-12.0
G1 X470.535
G1 X472.035 Z-13.0
G1 X599.845
G1 X601.345 Z-12.0
G1 X604.52
G1 X606.02 Z-13.0
G1 X609.6
G3 X611.1875 Y0.0 I0.0 J1.5875
G1 Y95.249
G0 Z3.0
G0 X614.3625 Y95.2497
G0 Z-11.9
G1 F120.0 Z-13.0
G3 F3000.0 X615.95 Y93.6625 I1.5875 J0.0003
G1 X659.6144
G1 X661.1144 Z-12.0
G1 X664.2894
G1 X665.7894 Z-13.0
G1 X753.1181
G1 X754.6181 Z-12.0
G1 X757.7931
G1 X759.2931 Z-13.0
G1 X846.6219
G1 X848.1219 Z-12.0
G1 X851.2969
G1 X852.7969 Z-13.0
G1 X915.9875
G3 X917.575 Y95.25 I0.0 J1.5875
G1 Y119.3881
G1 Y120.8881 Z-12.0
G1 Y124.0631
G1 Y125.5631 Z-13.0
G1 Y212.8919
G1 Y214.3919 Z-12.0
G1 Y217.5669
G1 Y219.0669 Z-13.0
G1 Y306.3956
G1 Y307.8956 Z-12.0
G1 Y311.0706
G1 Y312.5706 Z-13.0
G1 Y399.8994
G1 Y401.3994 Z-12.0
G1 Y404.5744
G1 Y406.0744 Z-13.0
G1 Y493.4031
G1 Y494.9031 Z-12.0
G1 Y498.0781
G1 Y499.5781 Z-13.0
G1 Y586.9069
G1 Y588.4069 Z-12.0
G1 Y591.5819
G1 Y593.0819 Z-13.0
G1 Y680.4106
G1 Y681.9106 Z-12.0
G1 Y685.0856
G1 Y686.5856 Z-13.0
G1 Y730.25
G3 X915.9875 Y731.8375 I-1.5875 J0.0
G1 X872.3231
G1 X870.8231 Z-12.0
G1 X867.6481
G1 X866.1481 Z-13.0
G1 X778.8194
G1 X777.3194 Z-12.0
G1 X774.1444
G1 X772.6444 Z-13.0
G1 X685.3156
G1 X683.8156 Z-12.0
G1 X680.6406
G1 X679.1406 Z-13.0
G1 X615.95
G3 X614.3625 Y730.25 I0.0 J-1.5875
G1 Y706.1119
G1 Y704.6119 Z-12.0
G1 Y701.4369
G1 Y699.9369 Z-13.0
G1 Y666.345
G1 Y664.845 Z-12.0
G1 Y661.67
G1 Y660.17 Z-13.0
G1 Y612.6081
G1 Y611.1081 Z-12.0
G1 Y607.9331
G1 Y606.4331 Z-13.0
G1 Y532.36
G1 Y530.86 Z-12.0
G1 Y527.685
G1 Y526.185 Z-13.0
G1 Y519.1044
G1 Y517.6044 Z-12.0
G1 Y514.4294
G1 Y512.9294 Z-13.0
G1 Y425.6006
G1 Y424.1006 Z-12.0
G1 Y420.9256
G1 Y419.4256 Z-13.0
G1 Y398.375
G1 Y396.875 Z-12.0
G1 Y393.7
G1 Y392.2 Z-13.0
G1 Y332.0969
G1 Y330.5969 Z-12.0
G1 Y327.4219
G1 Y325.9219 Z-13.0
G1 Y264.39
G1 Y262.89 Z-12.0
G1 Y259.715
G1 Y258.215 Z-13.0
G1 Y238.5931
G1 Y237.0931 Z-12.0
G1 Y233.9181
G1 Y232.4181 Z-13.0
G1 Y145.0894
G1 Y143.5894 Z-12.0
G1 Y140.4144
G1 Y138.9144 Z-13.0
G1 Y130.405
G1 Y128.905 Z-12.0
G1 Y125.73
G1 Y124.23 Z-13.0
G1 Y95.25
G3 Y95.2497 I1.5875 J0.0
G1 F120.0 Z-14.0
G3 F3000.0 X615.95 Y93.6625 I1.5875 J0.0003
G1 X659.6144
G1 X661.1144 Z-12.0
G1 X664.2894
G1 X665.7894 Z-14.0
G1 X753.1181
G1 X754.6181 Z-12.0
G1 X757.7931
G1 X759.2931 Z-14.0
G1 X846.6219
G1 X848.1219 Z-12.0
G1 X851.2969
G1 X852.7969 Z-14.0
G1 X915.9875
G3 X917.575 Y95.25 I0.0 J1.5875
G1 Y119.3881
G1 Y120.8881 Z-12.0
G1 Y124.0631
G1 Y125.5631 Z-14.0
G1 Y212.8919
G1 Y214.3919 Z-12.0
G1 Y217.5669
G1 Y219.0669 Z-14.0
G1 Y306.3956
G1 Y307.8956 Z-12.0
G1 Y311.0706
G1 Y312.5706 Z-14.0
G1 Y399.8994
G1 Y401.3994 Z-12.0
G1 Y404.5744
G1 Y406.0744 Z-14.0
G1 Y493.4031
G1 Y494.9031 Z-12.0
G1 Y498.0781
G1 Y499.5781 Z-14.0
G1 Y586.9069
G1 Y588.4069 Z-12.0
G1 Y591.5819
G1 Y593.0819 Z-14.0
G1 Y680.4106
G1 Y681.9106 Z-12.0
G1 Y685.0856
G1 Y686.5856 Z-14.0
G1 Y730.25
G3 X915.9875 Y731.8375 I-1.5875 J0.0
G1 X872.3231
G1 X870.8231 Z-12.0
G1 X867.6481
G1 X866.1481 Z-14.0
G1 X778.8194
G1 X777.3194 Z-12.0
G1 X774.1444
G1 X772.6444 Z-14.0
G1 X685.3156
G1 X683.8156 Z-12.0
G1 X680.6406
G1 X679.1406 Z-14.0
G1 X615.95
G3 X614.3625 Y730.25 I0.0 J-1.5875
G1 Y706.1119
G1 Y704.6119 Z-12.0
G1 Y701.4369
G1 Y699.9369 Z-14.0
G1 Y666.345
G1 Y664.845 Z-12.0
G1 Y661.67
G1 Y660.17 Z-14.0
G1 Y612.6081
G1 Y611.1081 Z-12.0
G1 Y607.9331
G1 Y606.4331 Z-14.0
G1 Y532.36
G1 Y530.86 Z-12.0
G1 Y527.685
G1 Y526.185 Z-14.0
G1 Y519.1044
G1 Y517.6044 Z-12.0
G1 Y514.4294
G1 Y512.9294 Z-14.0
G1 Y425.6006
G1 Y424.1006 Z-12.0
G1 Y420.9256
G1 Y419.4256 Z-14.0
G1 Y398.375
G1 Y396.875 Z-12.0
G1 Y393.7
G1 Y392.2 Z-14.0
G1 Y332.0969
G1 Y330.5969 Z-12.0
G1 Y327.4219
G1 Y325.9219 Z-14.0
G1 Y264.39
G1 Y262.89 Z-12.0
G1 Y259.715
G1 Y258.215 Z-14.0
G1 Y238.5931
G1 Y237.0931 Z-12.0
G1 Y233.9181
G1 Y232.4181 Z-14.0
G1 Y145.0894
G1 Y143.5894 Z-12.0
G1 Y140.4144
G1 Y138.9144 Z-14.0
G1 Y130.405
G1 Y128.905 Z-12.0
G1 Y125.73
G1 Y124.23 Z-14.0
G1 Y95.25
G3 Y95.2497 I1.5875 J0.0
G0 Z3.0
G0 X611.1875
G0 Z-12.9
G1 F120.0 Z-14.0
G1 F3000.0 Y124.23
G1 Y125.73 Z-12.0
G1 Y128.905
G1 Y130.405 Z-14.0
G1 Y138.9144
G1 Y140.4144 Z-12.0
G1 Y143.5894
G1 Y145.0894 Z-14.0
G1 Y232.4181
G1 Y233.9181 Z-12.0
G1 Y237.0931
G1 Y238.5931 Z-14.0
G1 Y258.215
G1 Y259.715 Z-12.0
G1 Y262.89
G1 Y264.39 Z-14.0
G1 Y325.9219
G1 Y327.4219 Z-12.0
G1 Y330.5969
G1 Y332.0969 Z-14.0
G1 Y392.2
G1 Y393.7 Z-12.0
G1 Y396.875
G1 Y398.375 Z-14.0
G1 Y419.4256
G1 Y420.9256 Z-12.0
G1 Y424.1006
G1 Y425.6006 Z-14.0
G1 Y512.9294
G1 Y514.4294 Z-12.0
G1 Y517.6044
G1 Y519.1044 Z-14.0
G1 Y526.185
G1 Y527.685 Z-12.0
G1 Y530.86
G1 Y532.36 Z-14.0
G1 Y606.4331
G1 Y607.9331 Z-12.0
G1 Y611.1081
G1 Y612.6081 Z-14.0
G1 Y660.17
G1 Y661.67 Z-12.0
G1 Y664.845
G1 Y666.345 Z-14.0
G1 Y699.9369
G1 Y701.4369 Z-12.0
G1 Y704.6119
G1 Y706.1119 Z-14.0
G1 Y730.25
G3 X609.6 Y731.8375 I-1.5875 J0.0
G1 X545.695
G1 X544.195 Z-12.0
G1 X541.02
G1 X539.52 Z-14.0
G1 X411.71
G1 X410.21 Z-12.0
G1 X407.035
G1 X405.535 Z-14.0
G1 X277.725
G1 X276.225 Z-12.0
G1 X273.05
G1 X271.55 Z-14.0
G1 X143.74
G1 X142.24 Z-12.0
G1 X139.065
G1 X137.565 Z-14.0
G1 X9.755
G1 X8.255 Z-12.0
G1 X5.08
G1 X3.58 Z-14.0
G1 X0.0
G3 X-1.5875 Y730.25 I0.0 J-1.5875
G1 Y606.02
G1 Y604.52 Z-12.0
G1 Y601.345
G1 Y599.845 Z-14.0
G1 Y472.035
G1 Y470.535 Z-12.0
G1 Y467.36
G1 Y465.86 Z-14.0
G1 Y338.05
G1 Y336.55 Z-12.0
G1 Y333.375
G1 Y331.875 Z-14.0
G1 Y204.065
G1 Y202.565 Z-12.0
G1 Y199.39
G1 Y197.89 Z-14.0
G1 Y70.08
G1 Y68.58 Z-12.0
G1 Y65.405
G1 Y63.905 Z-14.0
G1 Y0.0
G3 X0.0 Y-1.5875 I1.5875 J0.0
G1 X63.905
G1 X65.405 Z-12.0
G1 X68.58
G1 X70.08 Z-14.0
G1 X197.89
G1 X199.39 Z-12.0
G1 X202.565
G1 X204.065 Z-14.0
G1 X331.875
G1 X333.375 Z-12.0
G1 X336.55
G1 X338.05 Z-14.0
G1 X465.86
G1 X467.36 Z-12.0
G1 X470.535
G1 X472.035 Z-14.0
G1 X599.845
G1 X601.345 Z-12.0
G1 X604.52
G1 X606.02 Z-14.0
G1 X609.6
G3 X611.1875 Y0.0 I0.0 J1.5875
G1 Y95.2497
G1 F120.0 Z-15.0
G1 F3000.0 Y124.23
G1 Y125.73 Z-12.0
G1 Y128.905
G1 Y130.405 Z-15.0
G1 Y138.9144
G1 Y140.4144 Z-12.0
G1 Y143.5894
G1 Y145.0894 Z-15.0
G1 Y232.4181
G1 Y233.9181 Z-12.0
G1 Y237.0931
G1 Y238.5931 Z-15.0
G1 Y258.215
G1 Y259.715 Z-12.0
G1 Y262.89
G1 Y264.39 Z-15.0
G1 Y325.9219
G1 Y327.4219 Z-12.0
G1 Y330.5969
G1 Y332.0969 Z-15.0
G1 Y392.2
G1 Y393.7 Z-12.0
G1 Y396.875
G1 Y398.375 Z-15.0
G1 Y419.4256
G1 Y420.9256 Z-12.0
G1 Y424.1006
G1 Y425.6006 Z-15.0
G1 Y512.9294
G1 Y514.4294 Z-12.0
G1 Y517.6044
G1 Y519.1044 Z-15.0
G1 Y526.185
G1 Y527.685 Z-12.0
G1 Y530.86
G1 Y532.36 Z-15.0
G1 Y606.4331
G1 Y607.9331 Z-12.0
G1 Y611.1081
G1 Y612.6081 Z-15.0
G1 Y660.17
G1 Y661.67 Z-12.0
G1 Y664.845
G1 Y666.345 Z-15.0
G1 Y699.9369
G1 Y701.4369 Z-12.0
G1 Y704.6119
G1 Y706.1119 Z-15.0
G1 Y730.25
G3 X609.6 Y731.8375 I-1.5875 J0.0
G1 X545.695
G1 X544.195 Z-12.0
G1 X541.02
G1 X539.52 Z-15.0
G1 X411.71
G1 X410.21 Z-12.0
G1 X407.035
G1 X405.535 Z-15.0
G1 X277.725
G1 X276.225 Z-12.0
G1 X273.05
G1 X271.55 Z-15.0
G1 X143.74
G1 X142.24 Z-12.0
G1 X139.065
G1 X137.565 Z-15.0
G1 X9.755
G1 X8.255 Z-12.0
G1 X5.08
G1 X3.58 Z-15.0
G1 X0.0
G3 X-1.5875 Y730.25 I0.0 J-1.5875
G1 Y606.02
G1 Y604.52 Z-12.0
G1 Y601.345
G1 Y599.845 Z-15.0
G1 Y472.035
G1 Y470.535 Z-12.0
G1 Y467.36
G1 Y465.86 Z-15.0
G1 Y338.05
G1 Y336.55 Z-12.0
G1 Y333.375
G1 Y331.875 Z-15.0
G1 Y204.065
G1 Y202.565 Z-12.0
G1 Y199.39
G1 Y197.89 Z-15.0
G1 Y70.08
G1 Y68.58 Z-12.0
G1 Y65.405
G1 Y63.905 Z-15.0
G1 Y0.0
G3 X0.0 Y-1.5875 I1.5875 J0.0
G1 X63.905
G1 X65.405 Z-12.0
G1 X68.58
G1 X70.08 Z-15.0
G1 X197.89
G1 X199.39 Z-12.0
G1 X202.565
G1 X204.065 Z-15.0
G1 X331.875
G1 X333.375 Z-12.0
G1 X336.55
G1 X338.05 Z-15.0
G1 X465.86
G1 X467.36 Z-12.0
G1 X470.535
G1 X472.035 Z-15.0
G1 X599.845
G1 X601.345 Z-12.0
G1 X604.52
G1 X606.02 Z-15.0
G1 X609.6
G3 X611.1875 Y0.0 I0.0 J1.5875
G1 Y95.2497
G0 Z3.0
G0 X614.3625 Y95.2499
G0 Z-13.9
G1 F120.0 Z-15.0
G3 F3000.0 X615.95 Y93.6625 I1.5875 J0.0001
G1 X659.6144
G1 X661.1144 Z-12.0
G1 X664.2894
G1 X665.7894 Z-15.0
G1 X753.1181
G1 X754.6181 Z-12.0
G1 X757.7931
G1 X759.2931 Z-15.0
G1 X846.6219
G1 X848.1219 Z-12.0
G1 X851.2969
G1 X852.7969 Z-15.0
G1 X915.9875
G3 X917.575 Y95.25 I0.0 J1.5875
G1 Y119.3881
G1 Y120.8881 Z-12.0
G1 Y124.0631
G1 Y125.5631 Z-15.0
G1 Y212.8919
G1 Y214.3919 Z-12.0
G1 Y217.5669
G1 Y219.0669 Z-15.0
G1 Y306.3956
G1 Y307.8956 Z-12.0
G1 Y311.0706
G1 Y312.5706 Z-15.0
G1 Y399.8994
G1 Y401.3994 Z-12.0
G1 Y404.5744
G1 Y406.0744 Z-15.0
G1 Y493.4031
G1 Y494.9031 Z-12.0
G1 Y498.0781
G1 Y499.5781 Z-15.0
G1 Y586.9069
G1 Y588.4069 Z-12.0
G1 Y591.5819
G1 Y593.0819 Z-15.0
G1 Y680.4106
G1 Y681.9106 Z-12.0
G1 Y685.0856
G1 Y686.5856 Z-15.0
G1 Y730.25
G3 X915.9875 Y731.8375 I-1.5875 J0.0
G1 X872.3231
G1 X870.8231 Z-12.0
G1 X867.6481
G1 X866.1481 Z-15.0
G1 X778.8194
G1 X777.3194 Z-12.0
G1 X774.1444
G1 X772.6444 Z-15.0
G1 X685.3156
G1 X683.8156 Z-12.0
G1 X680.6406
G1 X679.1406 Z-15.0
G1 X615.95
G3 X614.3625 Y730.25 I0.0 J-1.5875
G1 Y706.1119
G1 Y704.6119 Z-12.0
G1 Y701.4369
G1 Y699.9369 Z-15.0
G1 Y666.345
G1 Y664.845 Z-12.0
G1 Y661.67
G1 Y660.17 Z-15.0
G1 Y612.6081
G1 Y611.1081 Z-12.0
G1 Y607.9331
G1 Y606.4331 Z-15.0
G1 Y532.36
G1 Y530.86 Z-12.0
G1 Y527.685
G1 Y526.185 Z-15.0
G1 Y519.1044
G1 Y517.6044 Z-12.0
G1 Y514.4294
G1 Y512.9294 Z-15.0
G1 Y425.6006
G1 Y424.1006 Z-12.0
G1 Y420.9256
G1 Y419.4256 Z-15.0
G1 Y398.375
G1 Y396.875 Z-12.0
G1 Y393.7
G1 Y392.2 Z-15.0
G1 Y332.0969
G1 Y330.5969 Z-12.0
G1 Y327.4219
G1 Y325.9219 Z-15.0
G1 Y264.39
G1 Y262.89 Z-12.0
G1 Y259.715
G1 Y258.215 Z-15.0
G1 Y238.5931
G1 Y237.0931 Z-12.0
G1 Y233.9181
G1 Y232.4181 Z-15.0
G1 Y145.0894
G1 Y143.5894 Z-12.0
G1 Y140.4144
G1 Y138.9144 Z-15.0
G1 Y130.405
G1 Y128.905 Z-12.0
G1 Y125.73
G1 Y124.23 Z-15.0
G1 Y95.25
G3 Y95.2499 I1.5875 J0.0
G1 F120.0 Z-16.0
G3 F3000.0 X615.95 Y93.6625 I1.5875 J0.0001
G1 X659.6144
G1 X661.1144 Z-12.0
G1 X664.2894
G1 X665.7894 Z-16.0
G1 X753.1181
G1 X754.6181 Z-12.0
G1 X757.7931
G1 X759.2931 Z-16.0
G1 X846.6219
G1 X848.1219 Z-12.0
G1 X851.2969
G1 X852.7969 Z-16.0
G1 X915.9875
G3 X917.575 Y95.25 I0.0 J1.5875
G1 Y119.3881
G1 Y120.8881 Z-12.0
G1 Y124.0631
G1 Y125.5631 Z-16.0
G1 Y212.8919
G1 Y214.3919 Z-12.0
G1 Y217.5669
G1 Y219.0669 Z-16.0
G1 Y306.3956
G1 Y307.8956 Z-12.0
G1 Y311.0706
G1 Y312.5706 Z-16.0
G1 Y399.8994
G1 Y401.3994 Z-12.0
G1 Y404.5744
G1 Y406.0744 Z-16.0
G1 Y493.4031
G1 Y494.9031 Z-12.0
G1 Y498.0781
G1 Y499.5781 Z-16.0
G1 Y586.9069
G1 Y588.4069 Z-12.0
G1 Y591.5819
G1 Y593.0819 Z-16.0
G1 Y680.4106
G1 Y681.9106 Z-12.0
G1 Y685.0856
G1 Y686.5856 Z-16.0
G1 Y730.25
G3 X915.9875 Y731.8375 I-1.5875 J0.0
G1 X872.3231
G1 X870.8231 Z-12.0
G1 X867.6481
G1 X866.1481 Z-16.0
G1 X778.8194
G1 X777.3194 Z-12.0
G1 X774.1444
G1 X772.6444 Z-16.0
G1 X685.3156
G1 X683.8156 Z-12.0
G1 X680.6406
G1 X679.1406 Z-16.0
G1 X615.95
G3 X614.3625 Y730.25 I0.0 J-1.5875
G1 Y706.1119
G1 Y704.6119 Z-12.0
G1 Y701.4369
G1 Y699.9369 Z-16.0
G1 Y666.345
G1 Y664.845 Z-12.0
G1 Y661.67
G1 Y660.17 Z-16.0
G1 Y612.6081
G1 Y611.1081 Z-12.0
G1 Y607.9331
G1 Y606.4331 Z-16.0
G1 Y532.36
G1 Y530.86 Z-12.0
G1 Y527.685
G1 Y526.185 Z-16.0
G1 Y519.1044
G1 Y517.6044 Z-12.0
G1 Y514.4294
G1 Y512.9294 Z-16.0
G1 Y425.6006
G1 Y424.1006 Z-12.0
G1 Y420.9256
G1 Y419.4256 Z-16.0
G1 Y398.375
G1 Y396.875 Z-12.0
G1 Y393.7
G1 Y392.2 Z-16.0
G1 Y332.0969
G1 Y330.5969 Z-12.0
G1 Y327.4219
G1 Y325.9219 Z-16.0
G1 Y264.39
G1 Y262.89 Z-12.0
G1 Y259.715
G1 Y258.215 Z-16.0
G1 Y238.5931
G1 Y237.0931 Z-12.0
G1 Y233.9181
G1 Y232.4181 Z-16.0
G1 Y145.0894
G1 Y143.5894 Z-12.0
G1 Y140.4144
G1 Y138.9144 Z-16.0
G1 Y130.405
G1 Y128.905 Z-12.0
G1 Y125.73
G1 Y124.23 Z-16.0
G1 Y95.25
G3 Y95.2499 I1.5875 J0.0
G0 Z3.0
G0 X611.1875
G0 Z-14.9
G1 F120.0 Z-16.0
G1 F3000.0 Y124.23
G1 Y125.73 Z-12.0
G1 Y128.905
G1 Y130.405 Z-16.0
G1 Y138.9144
G1 Y140.4144 Z-12.0
G1 Y143.5894
G1 Y145.0894 Z-16.0
G1 Y232.4181
G1 Y233.9181 Z-12.0
G1 Y237.0931
G1 Y238.5931 Z-16.0
G1 Y258.215
G1 Y259.715 Z-12.0
G1 Y262.89
G1 Y264.39 Z-16.0
G1 Y325.9219
G1 Y327.4219 Z-12.0
G1 Y330.5969
G1 Y332.0969 Z-16.0
G1 Y392.2
G1 Y393.7 Z-12.0
G1 Y396.875
G1 Y398.375 Z-16.0
G1 Y419.4256
G1 Y420.9256 Z-12.0
G1 Y424.1006
G1 Y425.6006 Z-16.0
G1 Y512.9294
G1 Y514.4294 Z-12.0
G1 Y517.6044
G1 Y519.1044 Z-16.0
G1 Y526.185
G1 Y527.685 Z-12.0
G1 Y530.86
G1 Y532.36 Z-16.0
G1 Y606.4331
G1 Y607.9331 Z-12.0
G1 Y611.1081
G1 Y612.6081 Z-16.0
G1 Y660.17
G1 Y661.67 Z-12.0
G1 Y664.845
G1 Y666.345 Z-16.0
G1 Y699.9369
G1 Y701.4369 Z-12.0
G1 Y704.6119
G1 Y706.1119 Z-16.0
G1 Y730.25
G3 X609.6 Y731.8375 I-1.5875 J0.0
G1 X545.695
G1 X544.195 Z-12.0
G1 X541.02
G1 X539.52 Z-16.0
G1 X411.71
G1 X410.21 Z-12.0
G1 X407.035
G1 X405.535 Z-16.0
G1 X277.725
G1 X276.225 Z-12.0
G1 X273.05
G1 X271.55 Z-16.0
G1 X143.74
G1 X142.24 Z-12.0
G1 X139.065
G1 X137.565 Z-16.0
G1 X9.755
G1 X8.255 Z-12.0
G1 X5.08
G1 X3.58 Z-16.0
G1 X0.0
G3 X-1.5875 Y730.25 I0.0 J-1.5875
G1 Y606.02
G1 Y604.52 Z-12.0
G1 Y601.345
G1 Y599.845 Z-16.0
G1 Y472.035
G1 Y470.535 Z-12.0
G1 Y467.36
G1 Y465.86 Z-16.0
G1 Y338.05
G1 Y336.55 Z-12.0
G1 Y333.375
G1 Y331.875 Z-16.0
G1 Y204.065
G1 Y202.565 Z-12.0
G1 Y199.39
G1 Y197.89 Z-16.0
G1 Y70.08
G1 Y68.58 Z-12.0
G1 Y65.405
G1 Y63.905 Z-16.0
G1 Y0.0
G3 X0.0 Y-1.5875 I1.5875 J0.0
G1 X63.905
G1 X65.405 Z-12.0
G1 X68.58
G1 X70.08 Z-16.0
G1 X197.89
G1 X199.39 Z-12.0
G1 X202.565
G1 X204.065 Z-16.0
G1 X331.875
G1 X333.375 Z-12.0
G1 X336.55
G1 X338.05 Z-16.0
G1 X465.86
G1 X467.36 Z-12.0
G1 X470.535
G1 X472.035 Z-16.0
G1 X599.845
G1 X601.345 Z-12.0
G1 X604.52
G1 X606.02 Z-16.0
G1 X609.6
G3 X611.1875 Y0.0 I0.0 J1.5875
G1 Y95.2499
G1 F120.0 Z-17.0
G1 F3000.0 Y124.23
G1 Y125.73 Z-12.0
G1 Y128.905
G1 Y130.405 Z-17.0
G1 Y138.9144
G1 Y140.4144 Z-12.0
G1 Y143.5894
G1 Y145.0894 Z-17.0
G1 Y232.4181
G1 Y233.9181 Z-12.0
G1 Y237.0931
G1 Y238.5931 Z-17.0
G1 Y258.215
G1 Y259.715 Z-12.0
G1 Y262.89
G1 Y264.39 Z-17.0
G1 Y325.9219
G1 Y327.4219 Z-12.0
G1 Y330.5969
G1 Y332.0969 Z-17.0
G1 Y392.2
G1 Y393.7 Z-12.0
G1 Y396.875
G1 Y398.375 Z-17.0
G1 Y419.4256
G1 Y420.9256 Z-12.0
G1 Y424.1006
G1 Y425.6006 Z-17.0
G1 Y512.9294
G1 Y514.4294 Z-12.0
G1 Y517.6044
G1 Y519.1044 Z-17.0
G1 Y526.185
G1 Y527.685 Z-12.0
G1 Y530.86
G1 Y532.36 Z-17.0
G1 Y606.4331
G1 Y607.9331 Z-12.0
G1 Y611.1081
G1 Y612.6081 Z-17.0
G1 Y660.17
G1 Y661.67 Z-12.0
G1 Y664.845
G1 Y666.345 Z-17.0
G1 Y699.9369
G1 Y701.4369 Z-12.0
G1 Y704.6119
G1 Y706.1119 Z-17.0
G1 Y730.25
G3 X609.6 Y731.8375 I-1.5875 J0.0
G1 X545.695
G1 X544.195 Z-12.0
G1 X541.02
G1 X539.52 Z-17.0
G1 X411.71
G1 X410.21 Z-12.0
G1 X407.035
G1 X405.535 Z-17.0
G1 X277.725
G1 X276.225 Z-12.0
G1 X273.05
G1 X271.55 Z-17.0
G1 X143.74
G1 X142.24 Z-12.0
G1 X139.065
G1 X137.565 Z-17.0
G1 X9.755
G1 X8.255 Z-12.0
G1 X5.08
G1 X3.58 Z-17.0
G1 X0.0
G3 X-1.5875 Y730.25 I0.0 J-1.5875
G1 Y606.02
G1 Y604.52 Z-12.0
G1 Y601.345
G1 Y599.845 Z-17.0
G1 Y472.035
G1 Y470.535 Z-12.0
G1 Y467.36
G1 Y465.86 Z-17.0
G1 Y338.05
G1 Y336.55 Z-12.0
G1 Y333.375
G1 Y331.875 Z-17.0
G1 Y204.065
G1 Y202.565 Z-12.0
G1 Y199.39
G1 Y197.89 Z-17.0
G1 Y70.08
G1 Y68.58 Z-12.0
G1 Y65.405
G1 Y63.905 Z-17.0
G1 Y0.0
G3 X0.0 Y-1.5875 I1.5875 J0.0
G1 X63.905
G1 X65.405 Z-12.0
G1 X68.58
G1 X70.08 Z-17.0
G1 X197.89
G1 X199.39 Z-12.0
G1 X202.565
G1 X204.065 Z-17.0
G1 X331.875
G1 X333.375 Z-12.0
G1 X336.55
G1 X338.05 Z-17.0
G1 X465.86
G1 X467.36 Z-12.0
G1 X470.535
G1 X472.035 Z-17.0
G1 X599.845
G1 X601.345 Z-12.0
G1 X604.52
G1 X606.02 Z-17.0
G1 X609.6
G3 X611.1875 Y0.0 I0.0 J1.5875
G1 Y95.2499
G0 Z3.0
G0 X614.3625 Y95.25
G0 Z-15.9
G1 F120.0 Z-17.0
G3 F3000.0 X615.95 Y93.6625 I1.5875 J0.0
G1 X659.6144
G1 X661.1144 Z-12.0
G1 X664.2894
G1 X665.7894 Z-17.0
G1 X753.1181
G1 X754.6181 Z-12.0
G1 X757.7931
G1 X759.2931 Z-17.0
G1 X846.6219
G1 X848.1219 Z-12.0
G1 X851.2969
G1 X852.7969 Z-17.0
G1 X915.9875
G3 X917.575 Y95.25 I0.0 J1.5875
G1 Y119.3881
G1 Y120.8881 Z-12.0
G1 Y124.0631
G1 Y125.5631 Z-17.0
G1 Y212.8919
G1 Y214.3919 Z-12.0
G1 Y217.5669
G1 Y219.0669 Z-17.0
G1 Y306.3956
G1 Y307.8956 Z-12.0
G1 Y311.0706
G1 Y312.5706 Z-17.0
G1 Y399.8994
G1 Y401.3994 Z-12.0
G1 Y404.5744
G1 Y406.0744 Z-17.0
G1 Y493.4031
G1 Y494.9031 Z-12.0
G1 Y498.0781
G1 Y499.5781 Z-17.0
G1 Y586.9069
G1 Y588.4069 Z-12.0
G1 Y591.5819
G1 Y593.0819 Z-17.0
G1 Y680.4106
G1 Y681.9106 Z-12.0
G1 Y685.0856
G1 Y686.5856 Z-17.0
G1 Y730.25
G3 X915.9875 Y731.8375 I-1.5875 J0.0
G1 X872.3231
G1 X870.8231 Z-12.0
G1 X867.6481
G1 X866.1481 Z-17.0
G1 X778.8194
G1 X777.3194 Z-12.0
G1 X774.1444
G1 X772.6444 Z-17.0
G1 X685.3156
G1 X683.8156 Z-12.0
G1 X680.6406
G1 X679.1406 Z-17.0
G1 X615.95
G3 X614.3625 Y730.25 I0.0 J-1.5875
G1 Y706.1119
G1 Y704.6119 Z-12.0
G1 Y701.4369
G1 Y699.9369 Z-17.0
G1 Y666.345
G1 Y664.845 Z-12.0
G1 Y661.67
G1 Y660.17 Z-17.0
G1 Y612.6081
G1 Y611.1081 Z-12.0
G1 Y607.9331
G1 Y606.4331 Z-17.0
G1 Y532.36
G1 Y530.86 Z-12.0
G1 Y527.685
G1 Y526.185 Z-17.0
G1 Y519.1044
G1 Y517.6044 Z-12.0
G1 Y514.4294
G1 Y512.9294 Z-17.0
G1 Y425.6006
G1 Y424.1006 Z-12.0
G1 Y420.9256
G1 Y419.4256 Z-17.0
G1 Y398.375
G1 Y396.875 Z-12.0
G1 Y393.7
G1 Y392.2 Z-17.0
G1 Y332.0969
G1 Y330.5969 Z-12.0
G1 Y327.4219
G1 Y325.9219 Z-17.0
G1 Y264.39
G1 Y262.89 Z-12.0
G1 Y259.715
G1 Y258.215 Z-17.0
G1 Y238.5931
G1 Y237.0931 Z-12.0
G1 Y233.9181
G1 Y232.4181 Z-17.0
G1 Y145.0894
G1 Y143.5894 Z-12.0
G1 Y140.4144
G1 Y138.9144 Z-17.0
G1 Y130.405
G1 Y128.905 Z-12.0
G1 Y125.73
G1 Y124.23 Z-17.0
G1 Y95.25
G1 F120.0 Z-18.0
G3 F3000.0 X615.95 Y93.6625 I1.5875 J0.0
G1 X659.6144
G1 X661.1144 Z-12.0
G1 X664.2894
G1 X665.7894 Z-18.0
G1 X753.1181
G1 X754.6181 Z-12.0
G1 X757.7931
G1 X759.2931 Z-18.0
G1 X846.6219
G1 X848.1219 Z-12.0
G1 X851.2969
G1 X852.7969 Z-18.0
G1 X915.9875
G3 X917.575 Y95.25 I0.0 J1.5875
G1 Y119.3881
G1 Y120.8881 Z-12.0
G1 Y124.0631
G1 Y125.5631 Z-18.0
G1 Y212.8919
G1 Y214.3919 Z-12.0
G1 Y217.5669
G1 Y219.0669 Z-18.0
G1 Y306.3956
G1 Y307.8956 Z-12.0
G1 Y311.0706
G1 Y312.5706 Z-18.0
G1 Y399.8994
G1 Y401.3994 Z-12.0
G1 Y404.5744
G1 Y406.0744 Z-18.0
G1 Y493.4031
G1 Y494.9031 Z-12.0
G1 Y498.0781
G1 Y499.5781 Z-18.0
G1 Y586.9069
G1 Y588.4069 Z-12.0
G1 Y591.5819
G1 Y593.0819 Z-18.0
G1 Y680.4106
G1 Y681.9106 Z-12.0
G1 Y685.0856
G1 Y686.5856 Z-18.0
G1 Y730.25
G3 X915.9875 Y731.8375 I-1.5875 J0.0
G1 X872.3231
G1 X870.8231 Z-12.0
G1 X867.6481
G1 X866.1481 Z-18.0
G1 X778.8194
G1 X777.3194 Z-12.0
G1 X774.1444
G1 X772.6444 Z-18.0
G1 X685.3156
G1 X683.8156 Z-12.0
G1 X680.6406
G1 X679.1406 Z-18.0
G1 X615.95
G3 X614.3625 Y730.25 I0.0 J-1.5875
G1 Y706.1119
G1 Y704.6119 Z-12.0
G1 Y701.4369
G1 Y699.9369 Z-18.0
G1 Y666.345
G1 Y664.845 Z-12.0
G1 Y661.67
G1 Y660.17 Z-18.0
G1 Y612.6081
G1 Y611.1081 Z-12.0
G1 Y607.9331
G1 Y606.4331 Z-18.0
G1 Y532.36
G1 Y530.86 Z-12.0
G1 Y527.685
G1 Y526.185 Z-18.0
G1 Y519.1044
G1 Y517.6044 Z-12.0
G1 Y514.4294
G1 Y512.9294 Z-18.0
G1 Y425.6006
G1 Y424.1006 Z-12.0
G1 Y420.9256
G1 Y419.4256 Z-18.0
G1 Y398.375
G1 Y396.875 Z-12.0
G1 Y393.7
G1 Y392.2 Z-18.0
G1 Y332.0969
G1 Y330.5969 Z-12.0
G1 Y327.4219
G1 Y325.9219 Z-18.0
G1 Y264.39
G1 Y262.89 Z-12.0
G1 Y259.715
G1 Y258.215 Z-18.0
G1 Y238.5931
G1 Y237.0931 Z-12.0
G1 Y233.9181
G1 Y232.4181 Z-18.0
G1 Y145.0894
G1 Y143.5894 Z-12.0
G1 Y140.4144
G1 Y138.9144 Z-18.0
G1 Y130.405
G1 Y128.905 Z-12.0
G1 Y125.73
G1 Y124.23 Z-18.0
G1 Y95.25
G0 Z3.0
G0 X611.1875
G0 Z-16.9
G1 F120.0 Z-18.0
G1 F3000.0 Y124.23
G1 Y125.73 Z-12.0
G1 Y128.905
G1 Y130.405 Z-18.0
G1 Y138.9144
G1 Y140.4144 Z-12.0
G1 Y143.5894
G1 Y145.0894 Z-18.0
G1 Y232.4181
G1 Y233.9181 Z-12.0
G1 Y237.0931
G1 Y238.5931 Z-18.0
G1 Y258.215
G1 Y259.715 Z-12.0
G1 Y262.89
G1 Y264.39 Z-18.0
G1 Y325.9219
G1 Y327.4219 Z-12.0
G1 Y330.5969
G1 Y332.0969 Z-18.0
G1 Y392.2
G1 Y393.7 Z-12.0
G1 Y396.875
G1 Y398.375 Z-18.0
G1 Y419.4256
G1 Y420.9256 Z-12.0
G1 Y424.1006
G1 Y425.6006 Z-18.0
G1 Y512.9294
G1 Y514.4294 Z-12.0
G1 Y517.6044
G1 Y519.1044 Z-18.0
G1 Y526.185
G1 Y527.685 Z-12.0
G1 Y530.86
G1 Y532.36 Z-18.0
G1 Y606.4331
G1 Y607.9331 Z-12.0
G1 Y611.1081
G1 Y612.6081 Z-18.0
G1 Y660.17
G1 Y661.67 Z-12.0
G1 Y664.845
G1 Y666.345 Z-18.0
G1 Y699.9369
G1 Y701.4369 Z-12.0
G1 Y704.6119
G1 Y706.1119 Z-18.0
G1 Y730.25
G3 X609.6 Y731.8375 I-1.5875 J0.0
G1 X545.695
G1 X544.195 Z-12.0
G1 X541.02
G1 X539.52 Z-18.0
G1 X411.71
G1 X410.21 Z-12.0
G1 X407.035
G1 X405.535 Z-18.0
G1 X277.725
G1 X276.225 Z-12.0
G1 X273.05
G1 X271.55 Z-18.0
G1 X143.74
G1 X142.24 Z-12.0
G1 X139.065
G1 X137.565 Z-18.0
G1 X9.755
G1 X8.255 Z-12.0
G1 X5.08
G1 X3.58 Z-18.0
G1 X0.0
G3 X-1.5875 Y730.25 I0.0 J-1.5875
G1 Y606.02
G1 Y604.52 Z-12.0
G1 Y601.345
G1 Y599.845 Z-18.0
G1 Y472.035
G1 Y470.535 Z-12.0
G1 Y467.36
G1 Y465.86 Z-18.0
G1 Y338.05
G1 Y336.55 Z-12.0
G1 Y333.375
G1 Y331.875 Z-18.0
G1 Y204.065
G1 Y202.565 Z-12.0
G1 Y199.39
G1 Y197.89 Z-18.0
G1 Y70.08
G1 Y68.58 Z-12.0
G1 Y65.405
G1 Y63.905 Z-18.0
G1 Y0.0
G3 X0.0 Y-1.5875 I1.5875 J0.0
G1 X63.905
G1 X65.405 Z-12.0
G1 X68.58
G1 X70.08 Z-18.0
G1 X197.89
G1 X199.39 Z-12.0
G1 X202.565
G1 X204.065 Z-18.0
G1 X331.875
G1 X333.375 Z-12.0
G1 X336.55
G1 X338.05 Z-18.0
G1 X465.86
G1 X467.36 Z-12.0
G1 X470.535
G1 X472.035 Z-18.0
G1 X599.845
G1 X601.345 Z-12.0
G1 X604.52
G1 X606.02 Z-18.0
G1 X609.6
G3 X611.1875 Y0.0 I0.0 J1.5875
G1 Y95.25
G1 F120.0 Z-19.0
G1 F3000.0 Y124.23
G1 Y125.73 Z-12.0
G1 Y128.905
G1 Y130.405 Z-19.0
G1 Y138.9144
G1 Y140.4144 Z-12.0
G1 Y143.5894
G1 Y145.0894 Z-19.0
G1 Y232.4181
G1 Y233.9181 Z-12.0
G1 Y237.0931
G1 Y238.5931 Z-19.0
G1 Y258.215
G1 Y259.715 Z-12.0
G1 Y262.89
G1 Y264.39 Z-19.0
G1 Y325.9219
G1 Y327.4219 Z-12.0
G1 Y330.5969
G1 Y332.0969 Z-19.0
G1 Y392.2
G1 Y393.7 Z-12.0
G1 Y396.875
G1 Y398.375 Z-19.0
G1 Y419.4256
G1 Y420.9256 Z-12.0
G1 Y424.1006
G1 Y425.6006 Z-19.0
G1 Y512.9294
G1 Y514.4294 Z-12.0
G1 Y517.6044
G1 Y519.1044 Z-19.0
G1 Y526.185
G1 Y527.685 Z-12.0
G1 Y530.86
G1 Y532.36 Z-19.0
G1 Y606.4331
G1 Y607.9331 Z-12.0
G1 Y611.1081
G1 Y612.6081 Z-19.0
G1 Y660.17
G1 Y661.67 Z-12.0
G1 Y664.845
G1 Y666.345 Z-19.0
G1 Y699.9369
G1 Y701.4369 Z-12.0
G1 Y704.6119
G1 Y706.1119 Z-19.0
G1 Y730.25
G3 X609.6 Y731.8375 I-1.5875 J0.0
G1 X545.695
G1 X544.195 Z-12.0
G1 X541.02
G1 X539.52 Z-19.0
G1 X411.71
G1 X410.21 Z-12.0
G1 X407.035
G1 X405.535 Z-19.0
G1 X277.725
G1 X276.225 Z-12.0
G1 X273.05
G1 X271.55 Z-19.0
G1 X143.74
G1 X142.24 Z-12.0
G1 X139.065
G1 X137.565 Z-19.0
G1 X9.755
G1 X8.255 Z-12.0
G1 X5.08
G1 X3.58 Z-19.0
G1 X0.0
G3 X-1.5875 Y730.25 I0.0 J-1.5875
G1 Y606.02
G1 Y604.52 Z-12.0
G1 Y601.345
G1 Y599.845 Z-19.0
G1 Y472.035
G1 Y470.535 Z-12.0
G1 Y467.36
G1 Y465.86 Z-19.0
G1 Y338.05
G1 Y336.55 Z-12.0
G1 Y333.375
G1 Y331.875 Z-19.0
G1 Y204.065
G1 Y202.565 Z-12.0
G1 Y199.39
G1 Y197.89 Z-19.0
G1 Y70.08
G1 Y68.58 Z-12.0
G1 Y65.405
G1 Y63.905 Z-19.0
G1 Y0.0
G3 X0.0 Y-1.5875 I1.5875 J0.0
G1 X63.905
G1 X65.405 Z-12.0
G1 X68.58
G1 X70.08 Z-19.0
G1 X197.89
G1 X199.39 Z-12.0
G1 X202.565
G1 X204.065 Z-19.0
G1 X331.875
G1 X333.375 Z-12.0
G1 X336.55
G1 X338.05 Z-19.0
G1 X465.86
G1 X467.36 Z-12.0
G1 X470.535
G1 X472.035 Z-19.0
G1 X599.845
G1 X601.345 Z-12.0
G1 X604.52
G1 X606.02 Z-19.0
G1 X609.6
G3 X611.1875 Y0.0 I0.0 J1.5875
G1 Y95.25
G0 Z3.0
G0 X614.3625
G0 Z-17.9
G1 F120.0 Z-19.0
G3 F3000.0 X615.95 Y93.6625 I1.5875 J0.0
G1 X659.6144
G1 X661.1144 Z-12.0
G1 X664.2894
G1 X665.7894 Z-19.0
G1 X753.1181
G1 X754.6181 Z-12.0
G1 X757.7931
G1 X759.2931 Z-19.0
G1 X846.6219
G1 X848.1219 Z-12.0
G1 X851.2969
G1 X852.7969 Z-19.0
G1 X915.9875
G3 X917.575 Y95.25 I0.0 J1.5875
G1 Y119.3881
G1 Y120.8881 Z-12.0
G1 Y124.0631
G1 Y125.5631 Z-19.0
G1 Y212.8919
G1 Y214.3919 Z-12.0
G1 Y217.5669
G1 Y219.0669 Z-19.0
G1 Y306.3956
G1 Y307.8956 Z-12.0
G1 Y311.0706
G1 Y312.5706 Z-19.0
G1 Y399.8994
G1 Y401.3994 Z-12.0
G1 Y404.5744
G1 Y406.0744 Z-19.0
G1 Y493.4031
G1 Y494.9031 Z-12.0
G1 Y498.0781
G1 Y499.5781 Z-19.0
G1 Y586.9069
G1 Y588.4069 Z-12.0
G1 Y591.5819
G1 Y593.0819 Z-19.0
G1 Y680.4106
G1 Y681.9106 Z-12.0
G1 Y685.0856
G1 Y686.5856 Z-19.0
G1 Y730.25
G3 X915.9875 Y731.8375 I-1.5875 J0.0
G1 X872.3231
G1 X870.8231 Z-12.0
G1 X867.6481
G1 X866.1481 Z-19.0
G1 X778.8194
G1 X777.3194 Z-12.0
G1 X774.1444
G1 X772.6444 Z-19.0
G1 X685.3156
G1 X683.8156 Z-12.0
G1 X680.6406
G1 X679.1406 Z-19.0
G1 X615.95
G3 X614.3625 Y730.25 I0.0 J-1.5875
G1 Y706.1119
G1 Y704.6119 Z-12.0
G1 Y701.4369
G1 Y699.9369 Z-19.0
G1 Y666.345
G1 Y664.845 Z-12.0
G1 Y661.67
G1 Y660.17 Z-19.0
G1 Y612.6081
G1 Y611.1081 Z-12.0
G1 Y607.9331
G1 Y606.4331 Z-19.0
G1 Y532.36
G1 Y530.86 Z-12.0
G1 Y527.685
G1 Y526.185 Z-19.0
G1 Y519.1044
G1 Y517.6044 Z-12.0
G1 Y514.4294
G1 Y512.9294 Z-19.0
G1 Y425.6006
G1 Y424.1006 Z-12.0
G1 Y420.9256
G1 Y419.4256 Z-19.0
G1 Y398.375
G1 Y396.875 Z-12.0
G1 Y393.7
G1 Y392.2 Z-19.0
G1 Y332.0969
G1 Y330.5969 Z-12.0
G1 Y327.4219
G1 Y325.9219 Z-19.0
G1 Y264.39
G1 Y262.89 Z-12.0
G1 Y259.715
G1 Y258.215 Z-19.0
G1 Y238.5931
G1 Y237.0931 Z-12.0
G1 Y233.9181
G1 Y232.4181 Z-19.0
G1 Y145.0894
G1 Y143.5894 Z-12.0
G1 Y140.4144
G1 Y138.9144 Z-19.0
G1 Y130.405
G1 Y128.905 Z-12.0
G1 Y125.73
G1 Y124.23 Z-19.0
G1 Y95.25
G1 F120.0 Z-20.0
G3 F3000.0 X615.95 Y93.6625 I1.5875 J0.0
G1 X659.6144
G1 X661.1144 Z-12.0
G1 X664.2894
G1 X665.7894 Z-20.0
G1 X753.1181
G1 X754.6181 Z-12.0
G1 X757.7931
G1 X759.2931 Z-20.0
G1 X846.6219
G1 X848.1219 Z-12.0
G1 X851.2969
G1 X852.7969 Z-20.0
G1 X915.9875
G3 X917.575 Y95.25 I0.0 J1.5875
G1 Y119.3881
G1 Y120.8881 Z-12.0
G1 Y124.0631
G1 Y125.5631 Z-20.0
G1 Y212.8919
G1 Y214.3919 Z-12.0
G1 Y217.5669
G1 Y219.0669 Z-20.0
G1 Y306.3956
G1 Y307.8956 Z-12.0
G1 Y311.0706
G1 Y312.5706 Z-20.0
G1 Y399.8994
G1 Y401.3994 Z-12.0
G1 Y404.5744
G1 Y406.0744 Z-20.0
G1 Y493.4031
G1 Y494.9031 Z-12.0
G1 Y498.0781
G1 Y499.5781 Z-20.0
G1 Y586.9069
G1 Y588.4069 Z-12.0
G1 Y591.5819
G1 Y593.0819 Z-20.0
G1 Y680.4106
G1 Y681.9106 Z-12.0
G1 Y685.0856
G1 Y686.5856 Z-20.0
G1 Y730.25
G3 X915.9875 Y731.8375 I-1.5875 J0.0
G1 X872.3231
G1 X870.8231 Z-12.0
G1 X867.6481
G1 X866.1481 Z-20.0
G1 X778.8194
G1 X777.3194 Z-12.0
G1 X774.1444
G1 X772.6444 Z-20.0
G1 X685.3156
G1 X683.8156 Z-12.0
G1 X680.6406
G1 X679.1406 Z-20.0
G1 X615.95
G3 X614.3625 Y730.25 I0.0 J-1.5875
G1 Y706.1119
G1 Y704.6119 Z-12.0
G1 Y701.4369
G1 Y699.9369 Z-20.0
G1 Y666.345
G1 Y664.845 Z-12.0
G1 Y661.67
G1 Y660.17 Z-20.0
G1 Y612.6081
G1 Y611.1081 Z-12.0
G1 Y607.9331
G1 Y606.4331 Z-20.0
G1 Y532.36
G1 Y530.86 Z-12.0
G1 Y527.685
G1 Y526.185 Z-20.0
G1 Y519.1044
G1 Y517.6044 Z-12.0
G1 Y514.4294
G1 Y512.9294 Z-20.0
G1 Y425.6006
G1 Y424.1006 Z-12.0
G1 Y420.9256
G1 Y419.4256 Z-20.0
G1 Y398.375
G1 Y396.875 Z-12.0
G1 Y393.7
G1 Y392.2 Z-20.0
G1 Y332.0969
G1 Y330.5969 Z-12.0
G1 Y327.4219
G1 Y325.9219 Z-20.0
G1 Y264.39
G1 Y262.89 Z-12.0
G1 Y259.715
G1 Y258.215 Z-20.0
G1 Y238.5931
G1 Y237.0931 Z-12.0
G1 Y233.9181
G1 Y232.4181 Z-20.0
G1 Y145.0894
G1 Y143.5894 Z-12.0
G1 Y140.4144
G1 Y138.9144 Z-20.0
G1 Y130.405
G1 Y128.905 Z-12.0
G1 Y125.73
G1 Y124.23 Z-20.0
G1 Y95.25
G0 Z3.0
G0 X611.1875
G0 Z-18.9
G1 F120.0 Z-20.0
G1 F3000.0 Y124.23
G1 Y125.73 Z-12.0
G1 Y128.905
G1 Y130.405 Z-20.0
G1 Y138.9144
G1 Y140.4144 Z-12.0
G1 Y143.5894
G1 Y145.0894 Z-20.0
G1 Y232.4181
G1 Y233.9181 Z-12.0
G1 Y237.0931
G1 Y238.5931 Z-20.0
G1 Y258.215
G1 Y259.715 Z-12.0
G1 Y262.89
G1 Y264.39 Z-20.0
G1 Y325.9219
G1 Y327.4219 Z-12.0
G1 Y330.5969
G1 Y332.0969 Z-20.0
G1 Y392.2
G1 Y393.7 Z-12.0
G1 Y396.875
G1 Y398.375 Z-20.0
G1 Y419.4256
G1 Y420.9256 Z-12.0
G1 Y424.1006
G1 Y425.6006 Z-20.0
G1 Y512.9294
G1 Y514.4294 Z-12.0
G1 Y517.6044
G1 Y519.1044 Z-20.0
G1 Y526.185
G1 Y527.685 Z-12.0
G1 Y530.86
G1 Y532.36 Z-20.0
G1 Y606.4331
G1 Y607.9331 Z-12.0
G1 Y611.1081
G1 Y612.6081 Z-20.0
G1 Y660.17
G1 Y661.67 Z-12.0
G1 Y664.845
G1 Y666.345 Z-20.0
G1 Y699.9369
G1 Y701.4369 Z-12.0
G1 Y704.6119
G1 Y706.1119 Z-20.0
G1 Y730.25
G3 X609.6 Y731.8375 I-1.5875 J0.0
G1 X545.695
G1 X544.195 Z-12.0
G1 X541.02
G1 X539.52 Z-20.0
G1 X411.71
G1 X410.21 Z-12.0
G1 X407.035
G1 X405.535 Z-20.0
G1 X277.725
G1 X276.225 Z-12.0
G1 X273.05
G1 X271.55 Z-20.0
G1 X143.74
G1 X142.24 Z-12.0
G1 X139.065
G1 X137.565 Z-20.0
G1 X9.755
G1 X8.255 Z-12.0
G1 X5.08
G1 X3.58 Z-20.0
G1 X0.0
G3 X-1.5875 Y730.25 I0.0 J-1.5875
G1 Y606.02
G1 Y604.52 Z-12.0
G1 Y601.345
G1 Y599.845 Z-20.0
G1 Y472.035
G1 Y470.535 Z-12.0
G1 Y467.36
G1 Y465.86 Z-20.0
G1 Y338.05
G1 Y336.55 Z-12.0
G1 Y333.375
G1 Y331.875 Z-20.0
G1 Y204.065
G1 Y202.565 Z-12.0
G1 Y199.39
G1 Y197.89 Z-20.0
G1 Y70.08
G1 Y68.58 Z-12.0
G1 Y65.405
G1 Y63.905 Z-20.0
G1 Y0.0
G3 X0.0 Y-1.5875 I1.5875 J0.0
G1 X63.905
G1 X65.405 Z-12.0
G1 X68.58
G1 X70.08 Z-20.0
G1 X197.89
G1 X199.39 Z-12.0
G1 X202.565
G1 X204.065 Z-20.0
G1 X331.875
G1 X333.375 Z-12.0
G1 X336.55
G1 X338.05 Z-20.0
G1 X465.86
G1 X467.36 Z-12.0
G1 X470.535
G1 X472.035 Z-20.0
G1 X599.845
G1 X601.345 Z-12.0
G1 X604.52
G1 X606.02 Z-20.0
G1 X609.6
G3 X611.1875 Y0.0 I0.0 J1.5875
G1 Y95.25
G0 Z3.0
M5
M30
