( Made using CamBam - http://www.cambam.co.uk )
( L_MidlineDiv_Back_Repair 1/7/2020 11:20:29 AM )
( T18 : 3.175 )
G21 G90 G91.1 G64 G40
G0 Z25.0
( T18 : 3.175 )
T18 M6
( Pocket1 )
G17
M3 S12000
G0 X1028.6528 Y280.9875
G0 Z0.1
G1 F120.0 Z-0.25
G1 F3000.0 Y284.1625
G1 X1100.4778
G1 Y280.9875
G1 X1028.6528
G1 F120.0 Z-0.5
G1 F3000.0 Y284.1625
G1 X1100.4778
G1 Y280.9875
G1 X1028.6528
G1 F120.0 Z-0.75
G1 F3000.0 Y284.1625
G1 X1100.4778
G1 Y280.9875
G1 X1028.6528
G1 F120.0 Z-1.0
G1 F3000.0 Y284.1625
G1 X1100.4778
G1 Y280.9875
G1 X1028.6528
G1 F120.0 Z-1.25
G1 F3000.0 Y284.1625
G1 X1100.4778
G1 Y280.9875
G1 X1028.6528
G1 F120.0 Z-1.5
G1 F3000.0 Y284.1625
G1 X1100.4778
G1 Y280.9875
G1 X1028.6528
G1 F120.0 Z-1.75
G1 F3000.0 Y284.1625
G1 X1100.4778
G1 Y280.9875
G1 X1028.6528
G1 F120.0 Z-2.0
G1 F3000.0 Y284.1625
G1 X1100.4778
G1 Y280.9875
G1 X1028.6528
G1 F120.0 Z-2.25
G1 F3000.0 Y284.1625
G1 X1100.4778
G1 Y280.9875
G1 X1028.6528
G1 F120.0 Z-2.5
G1 F3000.0 Y284.1625
G1 X1100.4778
G1 Y280.9875
G1 X1028.6528
G1 F120.0 Z-2.75
G1 F3000.0 Y284.1625
G1 X1100.4778
G1 Y280.9875
G1 X1028.6528
G1 F120.0 Z-3.0
G1 F3000.0 Y284.1625
G1 X1100.4778
G1 Y280.9875
G1 X1028.6528
G1 F120.0 Z-3.25
G1 F3000.0 Y284.1625
G1 X1100.4778
G1 Y280.9875
G1 X1028.6528
G1 F120.0 Z-3.5
G1 F3000.0 Y284.1625
G1 X1100.4778
G1 Y280.9875
G1 X1028.6528
G1 F120.0 Z-3.75
G1 F3000.0 Y284.1625
G1 X1100.4778
G1 Y280.9875
G1 X1028.6528
G1 F120.0 Z-4.0
G1 F3000.0 Y284.1625
G1 X1100.4778
G1 Y280.9875
G1 X1028.6528
G1 F120.0 Z-4.25
G1 F3000.0 Y284.1625
G1 X1100.4778
G1 Y280.9875
G1 X1028.6528
G1 F120.0 Z-4.5
G1 F3000.0 Y284.1625
G1 X1100.4778
G1 Y280.9875
G1 X1028.6528
G1 F120.0 Z-4.75
G1 F3000.0 Y284.1625
G1 X1100.4778
G1 Y280.9875
G1 X1028.6528
G1 F120.0 Z-5.0
G1 F3000.0 Y284.1625
G1 X1100.4778
G1 Y280.9875
G1 X1028.6528
G1 F120.0 Z-5.25
G1 F3000.0 Y284.1625
G1 X1100.4778
G1 Y280.9875
G1 X1028.6528
G1 F120.0 Z-5.5
G1 F3000.0 Y284.1625
G1 X1100.4778
G1 Y280.9875
G1 X1028.6528
G1 F120.0 Z-5.75
G1 F3000.0 Y284.1625
G1 X1100.4778
G1 Y280.9875
G1 X1028.6528
G1 F120.0 Z-6.0
G1 F3000.0 Y284.1625
G1 X1100.4778
G1 Y280.9875
G1 X1028.6528
G0 Z25.0
G0 Y214.3125
G0 Z0.1
G1 F120.0 Z-0.25
G1 F3000.0 X1100.4778
G1 Y211.1375
G1 X1028.6528
G1 Y214.3125
G1 F120.0 Z-0.5
G1 F3000.0 X1100.4778
G1 Y211.1375
G1 X1028.6528
G1 Y214.3125
G1 F120.0 Z-0.75
G1 F3000.0 X1100.4778
G1 Y211.1375
G1 X1028.6528
G1 Y214.3125
G1 F120.0 Z-1.0
G1 F3000.0 X1100.4778
G1 Y211.1375
G1 X1028.6528
G1 Y214.3125
G1 F120.0 Z-1.25
G1 F3000.0 X1100.4778
G1 Y211.1375
G1 X1028.6528
G1 Y214.3125
G1 F120.0 Z-1.5
G1 F3000.0 X1100.4778
G1 Y211.1375
G1 X1028.6528
G1 Y214.3125
G1 F120.0 Z-1.75
G1 F3000.0 X1100.4778
G1 Y211.1375
G1 X1028.6528
G1 Y214.3125
G1 F120.0 Z-2.0
G1 F3000.0 X1100.4778
G1 Y211.1375
G1 X1028.6528
G1 Y214.3125
G1 F120.0 Z-2.25
G1 F3000.0 X1100.4778
G1 Y211.1375
G1 X1028.6528
G1 Y214.3125
G1 F120.0 Z-2.5
G1 F3000.0 X1100.4778
G1 Y211.1375
G1 X1028.6528
G1 Y214.3125
G1 F120.0 Z-2.75
G1 F3000.0 X1100.4778
G1 Y211.1375
G1 X1028.6528
G1 Y214.3125
G1 F120.0 Z-3.0
G1 F3000.0 X1100.4778
G1 Y211.1375
G1 X1028.6528
G1 Y214.3125
G1 F120.0 Z-3.25
G1 F3000.0 X1100.4778
G1 Y211.1375
G1 X1028.6528
G1 Y214.3125
G1 F120.0 Z-3.5
G1 F3000.0 X1100.4778
G1 Y211.1375
G1 X1028.6528
G1 Y214.3125
G1 F120.0 Z-3.75
G1 F3000.0 X1100.4778
G1 Y211.1375
G1 X1028.6528
G1 Y214.3125
G1 F120.0 Z-4.0
G1 F3000.0 X1100.4778
G1 Y211.1375
G1 X1028.6528
G1 Y214.3125
G1 F120.0 Z-4.25
G1 F3000.0 X1100.4778
G1 Y211.1375
G1 X1028.6528
G1 Y214.3125
G1 F120.0 Z-4.5
G1 F3000.0 X1100.4778
G1 Y211.1375
G1 X1028.6528
G1 Y214.3125
G1 F120.0 Z-4.75
G1 F3000.0 X1100.4778
G1 Y211.1375
G1 X1028.6528
G1 Y214.3125
G1 F120.0 Z-5.0
G1 F3000.0 X1100.4778
G1 Y211.1375
G1 X1028.6528
G1 Y214.3125
G1 F120.0 Z-5.25
G1 F3000.0 X1100.4778
G1 Y211.1375
G1 X1028.6528
G1 Y214.3125
G1 F120.0 Z-5.5
G1 F3000.0 X1100.4778
G1 Y211.1375
G1 X1028.6528
G1 Y214.3125
G1 F120.0 Z-5.75
G1 F3000.0 X1100.4778
G1 Y211.1375
G1 X1028.6528
G1 Y214.3125
G1 F120.0 Z-6.0
G1 F3000.0 X1100.4778
G1 Y211.1375
G1 X1028.6528
G1 Y214.3125
G0 Z25.0
G0 Y144.4625
G0 Z0.1
G1 F120.0 Z-0.25
G1 F3000.0 X1100.4778
G1 Y141.2875
G1 X1028.6528
G1 Y144.4625
G1 F120.0 Z-0.5
G1 F3000.0 X1100.4778
G1 Y141.2875
G1 X1028.6528
G1 Y144.4625
G1 F120.0 Z-0.75
G1 F3000.0 X1100.4778
G1 Y141.2875
G1 X1028.6528
G1 Y144.4625
G1 F120.0 Z-1.0
G1 F3000.0 X1100.4778
G1 Y141.2875
G1 X1028.6528
G1 Y144.4625
G1 F120.0 Z-1.25
G1 F3000.0 X1100.4778
G1 Y141.2875
G1 X1028.6528
G1 Y144.4625
G1 F120.0 Z-1.5
G1 F3000.0 X1100.4778
G1 Y141.2875
G1 X1028.6528
G1 Y144.4625
G1 F120.0 Z-1.75
G1 F3000.0 X1100.4778
G1 Y141.2875
G1 X1028.6528
G1 Y144.4625
G1 F120.0 Z-2.0
G1 F3000.0 X1100.4778
G1 Y141.2875
G1 X1028.6528
G1 Y144.4625
G1 F120.0 Z-2.25
G1 F3000.0 X1100.4778
G1 Y141.2875
G1 X1028.6528
G1 Y144.4625
G1 F120.0 Z-2.5
G1 F3000.0 X1100.4778
G1 Y141.2875
G1 X1028.6528
G1 Y144.4625
G1 F120.0 Z-2.75
G1 F3000.0 X1100.4778
G1 Y141.2875
G1 X1028.6528
G1 Y144.4625
G1 F120.0 Z-3.0
G1 F3000.0 X1100.4778
G1 Y141.2875
G1 X1028.6528
G1 Y144.4625
G1 F120.0 Z-3.25
G1 F3000.0 X1100.4778
G1 Y141.2875
G1 X1028.6528
G1 Y144.4625
G1 F120.0 Z-3.5
G1 F3000.0 X1100.4778
G1 Y141.2875
G1 X1028.6528
G1 Y144.4625
G1 F120.0 Z-3.75
G1 F3000.0 X1100.4778
G1 Y141.2875
G1 X1028.6528
G1 Y144.4625
G1 F120.0 Z-4.0
G1 F3000.0 X1100.4778
G1 Y141.2875
G1 X1028.6528
G1 Y144.4625
G1 F120.0 Z-4.25
G1 F3000.0 X1100.4778
G1 Y141.2875
G1 X1028.6528
G1 Y144.4625
G1 F120.0 Z-4.5
G1 F3000.0 X1100.4778
G1 Y141.2875
G1 X1028.6528
G1 Y144.4625
G1 F120.0 Z-4.75
G1 F3000.0 X1100.4778
G1 Y141.2875
G1 X1028.6528
G1 Y144.4625
G1 F120.0 Z-5.0
G1 F3000.0 X1100.4778
G1 Y141.2875
G1 X1028.6528
G1 Y144.4625
G1 F120.0 Z-5.25
G1 F3000.0 X1100.4778
G1 Y141.2875
G1 X1028.6528
G1 Y144.4625
G1 F120.0 Z-5.5
G1 F3000.0 X1100.4778
G1 Y141.2875
G1 X1028.6528
G1 Y144.4625
G1 F120.0 Z-5.75
G1 F3000.0 X1100.4778
G1 Y141.2875
G1 X1028.6528
G1 Y144.4625
G1 F120.0 Z-6.0
G1 F3000.0 X1100.4778
G1 Y141.2875
G1 X1028.6528
G1 Y144.4625
G0 Z25.0
G0 Y74.6125
G0 Z0.1
G1 F120.0 Z-0.25
G1 F3000.0 X1100.4778
G1 Y71.4375
G1 X1028.6528
G1 Y74.6125
G1 F120.0 Z-0.5
G1 F3000.0 X1100.4778
G1 Y71.4375
G1 X1028.6528
G1 Y74.6125
G1 F120.0 Z-0.75
G1 F3000.0 X1100.4778
G1 Y71.4375
G1 X1028.6528
G1 Y74.6125
G1 F120.0 Z-1.0
G1 F3000.0 X1100.4778
G1 Y71.4375
G1 X1028.6528
G1 Y74.6125
G1 F120.0 Z-1.25
G1 F3000.0 X1100.4778
G1 Y71.4375
G1 X1028.6528
G1 Y74.6125
G1 F120.0 Z-1.5
G1 F3000.0 X1100.4778
G1 Y71.4375
G1 X1028.6528
G1 Y74.6125
G1 F120.0 Z-1.75
G1 F3000.0 X1100.4778
G1 Y71.4375
G1 X1028.6528
G1 Y74.6125
G1 F120.0 Z-2.0
G1 F3000.0 X1100.4778
G1 Y71.4375
G1 X1028.6528
G1 Y74.6125
G1 F120.0 Z-2.25
G1 F3000.0 X1100.4778
G1 Y71.4375
G1 X1028.6528
G1 Y74.6125
G1 F120.0 Z-2.5
G1 F3000.0 X1100.4778
G1 Y71.4375
G1 X1028.6528
G1 Y74.6125
G1 F120.0 Z-2.75
G1 F3000.0 X1100.4778
G1 Y71.4375
G1 X1028.6528
G1 Y74.6125
G1 F120.0 Z-3.0
G1 F3000.0 X1100.4778
G1 Y71.4375
G1 X1028.6528
G1 Y74.6125
G1 F120.0 Z-3.25
G1 F3000.0 X1100.4778
G1 Y71.4375
G1 X1028.6528
G1 Y74.6125
G1 F120.0 Z-3.5
G1 F3000.0 X1100.4778
G1 Y71.4375
G1 X1028.6528
G1 Y74.6125
G1 F120.0 Z-3.75
G1 F3000.0 X1100.4778
G1 Y71.4375
G1 X1028.6528
G1 Y74.6125
G1 F120.0 Z-4.0
G1 F3000.0 X1100.4778
G1 Y71.4375
G1 X1028.6528
G1 Y74.6125
G1 F120.0 Z-4.25
G1 F3000.0 X1100.4778
G1 Y71.4375
G1 X1028.6528
G1 Y74.6125
G1 F120.0 Z-4.5
G1 F3000.0 X1100.4778
G1 Y71.4375
G1 X1028.6528
G1 Y74.6125
G1 F120.0 Z-4.75
G1 F3000.0 X1100.4778
G1 Y71.4375
G1 X1028.6528
G1 Y74.6125
G1 F120.0 Z-5.0
G1 F3000.0 X1100.4778
G1 Y71.4375
G1 X1028.6528
G1 Y74.6125
G1 F120.0 Z-5.25
G1 F3000.0 X1100.4778
G1 Y71.4375
G1 X1028.6528
G1 Y74.6125
G1 F120.0 Z-5.5
G1 F3000.0 X1100.4778
G1 Y71.4375
G1 X1028.6528
G1 Y74.6125
G1 F120.0 Z-5.75
G1 F3000.0 X1100.4778
G1 Y71.4375
G1 X1028.6528
G1 Y74.6125
G1 F120.0 Z-6.0
G1 F3000.0 X1100.4778
G1 Y71.4375
G1 X1028.6528
G1 Y74.6125
G0 Z25.0
M5
M30
