( Made using CamBam - http://www.cambam.co.uk )
( L_MidlineDiv 1/4/2020 7:27:53 PM )
( T18 : 3.175 )
G21 G90 G91.1 G64 G40
G0 Z25.0
( T18 : 3.175 )
T18 M6
( Pocket1 )
G17
M3 S12000
G0 X661.985 Y720.725
G0 Z0.1
G1 F120.0 Z-1.0
G1 F3000.0 Y635.0
G3 X662.5297 Y631.825 I9.525 J0.0
G3 X661.985 Y628.65 I8.9803 J-3.175
G1 Y565.15
G3 X662.5297 Y561.975 I9.525 J0.0
G3 X661.985 Y558.8 I8.9803 J-3.175
G1 Y495.3
G3 X662.5297 Y492.125 I9.525 J0.0
G3 X661.985 Y488.95 I8.9803 J-3.175
G1 Y425.45
G3 X662.5297 Y422.275 I9.525 J0.0
G3 X661.985 Y419.1 I8.9803 J-3.175
G1 Y355.6
G3 X662.5297 Y352.425 I9.525 J0.0
G3 X661.985 Y349.25 I8.9803 J-3.175
G1 Y285.75
G3 X662.5297 Y282.575 I9.525 J0.0
G3 X661.985 Y279.4 I8.9803 J-3.175
G1 Y215.9
G3 X662.5297 Y212.725 I9.525 J0.0
G3 X661.985 Y209.55 I8.9803 J-3.175
G1 Y146.05
G3 X662.5297 Y142.875 I9.525 J0.0
G3 X661.985 Y139.7 I8.9803 J-3.175
G1 Y76.2
G3 X662.5297 Y73.025 I9.525 J0.0
G3 X661.985 Y69.85 I8.9803 J-3.175
G1 Y9.525
G1 Y69.85
G3 X661.4368 Y73.0345 I-9.525 J0.0
G3 X661.9786 Y76.2 I-8.9769 J3.1655
G1 Y139.7
G3 X661.4335 Y142.875 I-9.5186 J0.0
G3 X661.9786 Y146.05 I-8.9735 J3.175
G1 Y209.55
G3 X661.4335 Y212.725 I-9.5186 J0.0
G3 X661.9786 Y215.9 I-8.9735 J3.175
G1 Y279.4
G3 X661.4335 Y282.575 I-9.5186 J0.0
G3 X661.9786 Y285.75 I-8.9735 J3.175
G1 Y349.25
G3 X661.4335 Y352.425 I-9.5186 J0.0
G3 X661.9786 Y355.6 I-8.9735 J3.175
G1 Y419.1
G3 X661.4335 Y422.275 I-9.5186 J0.0
G3 X661.9786 Y425.45 I-8.9735 J3.175
G1 Y488.95
G3 X661.4335 Y492.125 I-9.5186 J0.0
G3 X661.9786 Y495.3 I-8.9735 J3.175
G1 Y558.8
G3 X661.4335 Y561.975 I-9.5186 J0.0
G3 X661.9786 Y565.15 I-8.9735 J3.175
G1 Y628.65
G3 X661.4368 Y631.8155 I-9.5186 J0.0
G3 X661.985 Y635.0 I-8.9769 J3.1845
G1 Y720.725
G0 Z25.0
G0 X660.3975
G0 Z0.1
G1 F120.0 Z-1.0
G1 F3000.0 Y722.3125
G1 X663.5725
G1 Y635.0
G3 X664.2351 Y631.825 I7.9375 J0.0
G3 X663.5725 Y628.65 I7.2748 J-3.175
G1 Y565.15
G3 X664.2351 Y561.975 I7.9375 J0.0
G3 X663.5725 Y558.8 I7.2748 J-3.175
G1 Y495.3
G3 X664.2351 Y492.125 I7.9375 J0.0
G3 X663.5725 Y488.95 I7.2748 J-3.175
G1 Y425.45
G3 X664.2351 Y422.275 I7.9375 J0.0
G3 X663.5725 Y419.1 I7.2748 J-3.175
G1 Y355.6
G3 X664.2351 Y352.425 I7.9375 J0.0
G3 X663.5725 Y349.25 I7.2748 J-3.175
G1 Y285.75
G3 X664.2351 Y282.575 I7.9375 J0.0
G3 X663.5725 Y279.4 I7.2748 J-3.175
G1 Y215.9
G3 X664.2351 Y212.725 I7.9375 J0.0
G3 X663.5725 Y209.55 I7.2748 J-3.175
G1 Y146.05
G3 X664.2351 Y142.875 I7.9375 J0.0
G3 X663.5725 Y139.7 I7.2748 J-3.175
G1 Y76.2
G3 X664.2351 Y73.025 I7.9375 J0.0
G3 X663.5725 Y69.85 I7.2748 J-3.175
G1 Y7.9375
G1 X660.3975
G1 Y69.85
G3 X659.7313 Y73.0329 I-7.9375 J0.0
G3 X660.3911 Y76.2 I-7.2714 J3.1671
G1 Y139.7
G3 X659.7279 Y142.875 I-7.9312 J0.0
G3 X660.3911 Y146.05 I-7.2679 J3.175
G1 Y209.55
G3 X659.7279 Y212.725 I-7.9312 J0.0
G3 X660.3911 Y215.9 I-7.2679 J3.175
G1 Y279.4
G3 X659.7279 Y282.575 I-7.9312 J0.0
G3 X660.3911 Y285.75 I-7.2679 J3.175
G1 Y349.25
G3 X659.7279 Y352.425 I-7.9312 J0.0
G3 X660.3911 Y355.6 I-7.2679 J3.175
G1 Y419.1
G3 X659.7279 Y422.275 I-7.9312 J0.0
G3 X660.3911 Y425.45 I-7.2679 J3.175
G1 Y488.95
G3 X659.7279 Y492.125 I-7.9312 J0.0
G3 X660.3911 Y495.3 I-7.2679 J3.175
G1 Y558.8
G3 X659.7279 Y561.975 I-7.9312 J0.0
G3 X660.3911 Y565.15 I-7.2679 J3.175
G1 Y628.65
G3 X659.7313 Y631.8171 I-7.9312 J0.0
G3 X660.3975 Y635.0 I-7.2714 J3.1829
G1 Y720.725
G0 Z25.0
G0 X657.2225
G0 Z0.1
G1 F120.0 Z-1.0
G1 F3000.0 Y725.4875
G1 X666.7475
G1 Y635.0
G3 X667.9602 Y631.825 I4.7625 J0.0
G3 X666.7475 Y628.65 I3.5498 J-3.175
G1 Y565.15
G3 X667.9602 Y561.975 I4.7625 J0.0
G3 X666.7475 Y558.8 I3.5498 J-3.175
G1 Y495.3
G3 X667.9602 Y492.125 I4.7625 J0.0
G3 X666.7475 Y488.95 I3.5498 J-3.175
G1 Y425.45
G3 X667.9602 Y422.275 I4.7625 J0.0
G3 X666.7475 Y419.1 I3.5498 J-3.175
G1 Y355.6
G3 X667.9602 Y352.425 I4.7625 J0.0
G3 X666.7475 Y349.25 I3.5498 J-3.175
G1 Y285.75
G3 X667.9602 Y282.575 I4.7625 J0.0
G3 X666.7475 Y279.4 I3.5498 J-3.175
G1 Y215.9
G3 X667.9602 Y212.725 I4.7625 J0.0
G3 X666.7475 Y209.55 I3.5498 J-3.175
G1 Y146.05
G3 X667.9602 Y142.875 I4.7625 J0.0
G3 X666.7475 Y139.7 I3.5498 J-3.175
G1 Y76.2
G3 X667.9602 Y73.025 I4.7625 J0.0
G3 X666.7475 Y69.85 I3.5498 J-3.175
G1 Y4.7625
G1 X657.2225
G1 Y69.85
G3 X656.0055 Y73.0298 I-4.7625 J0.0
G3 X657.2161 Y76.2 I-3.5455 J3.1702
G1 Y139.7
G3 X656.0012 Y142.875 I-4.7562 J0.0
G3 X657.2161 Y146.05 I-3.5412 J3.175
G1 Y209.55
G3 X656.0012 Y212.725 I-4.7562 J0.0
G3 X657.2161 Y215.9 I-3.5412 J3.175
G1 Y279.4
G3 X656.0012 Y282.575 I-4.7562 J0.0
G3 X657.2161 Y285.75 I-3.5412 J3.175
G1 Y349.25
G3 X656.0012 Y352.425 I-4.7562 J0.0
G3 X657.2161 Y355.6 I-3.5412 J3.175
G1 Y419.1
G3 X656.0012 Y422.275 I-4.7562 J0.0
G3 X657.2161 Y425.45 I-3.5412 J3.175
G1 Y488.95
G3 X656.0012 Y492.125 I-4.7562 J0.0
G3 X657.2161 Y495.3 I-3.5412 J3.175
G1 Y558.8
G3 X656.0012 Y561.975 I-4.7562 J0.0
G3 X657.2161 Y565.15 I-3.5412 J3.175
G1 Y628.65
G3 X656.0055 Y631.8202 I-4.7562 J0.0
G3 X657.2225 Y635.0 I-3.5455 J3.1798
G1 Y720.725
G0 Z25.0
G0 X439.74
G0 Z0.1
G1 F120.0 Z-1.0
G1 F3000.0 Y635.0
G3 X440.2882 Y631.8155 I9.525 J0.0
G3 X439.7464 Y628.65 I8.9769 J-3.1655
G1 Y565.15
G3 X440.2915 Y561.975 I9.5187 J0.0
G3 X439.7464 Y558.8 I8.9735 J-3.175
G1 Y495.3
G3 X440.2915 Y492.125 I9.5186 J0.0
G3 X439.7464 Y488.95 I8.9735 J-3.175
G1 Y425.45
G3 X440.2915 Y422.275 I9.5186 J0.0
G3 X439.7464 Y419.1 I8.9735 J-3.175
G1 Y355.6
G3 X440.2915 Y352.425 I9.5186 J0.0
G3 X439.7464 Y349.25 I8.9735 J-3.175
G1 Y285.75
G3 X440.2915 Y282.575 I9.5186 J0.0
G3 X439.7464 Y279.4 I8.9735 J-3.175
G1 Y215.9
G3 X440.2915 Y212.725 I9.5186 J0.0
G3 X439.7464 Y209.55 I8.9735 J-3.175
G1 Y146.05
G3 X440.2915 Y142.875 I9.5186 J0.0
G3 X439.7464 Y139.7 I8.9735 J-3.175
G1 Y76.2
G3 X440.2882 Y73.0345 I9.5186 J0.0
G3 X439.74 Y69.85 I8.9769 J-3.1845
G1 Y9.525
G1 Y69.85
G3 X439.1953 Y73.025 I-9.525 J0.0
G3 X439.74 Y76.2 I-8.9803 J3.175
G1 Y139.7
G3 X439.1953 Y142.875 I-9.525 J0.0
G3 X439.74 Y146.05 I-8.9803 J3.175
G1 Y209.55
G3 X439.1953 Y212.725 I-9.525 J0.0
G3 X439.74 Y215.9 I-8.9803 J3.175
G1 Y279.4
G3 X439.1953 Y282.575 I-9.525 J0.0
G3 X439.74 Y285.75 I-8.9803 J3.175
G1 Y349.25
G3 X439.1953 Y352.425 I-9.525 J0.0
G3 X439.74 Y355.6 I-8.9803 J3.175
G1 Y419.1
G3 X439.1953 Y422.275 I-9.525 J0.0
G3 X439.74 Y425.45 I-8.9803 J3.175
G1 Y488.95
G3 X439.1953 Y492.125 I-9.525 J0.0
G3 X439.74 Y495.3 I-8.9803 J3.175
G1 Y558.8
G3 X439.1953 Y561.975 I-9.525 J0.0
G3 X439.74 Y565.15 I-8.9803 J3.175
G1 Y628.65
G3 X439.1953 Y631.825 I-9.525 J0.0
G3 X439.74 Y635.0 I-8.9803 J3.175
G1 Y720.725
G0 Z25.0
G0 Y722.3125
G0 Z0.1
G1 F120.0 Z-1.0
G1 F3000.0 X441.3275
G1 Y635.0
G3 X441.9937 Y631.8171 I7.9375 J0.0
G3 X441.3339 Y628.65 I7.2714 J-3.1671
G1 Y565.15
G3 X441.9971 Y561.975 I7.9312 J0.0
G3 X441.3339 Y558.8 I7.2679 J-3.175
G1 Y495.3
G3 X441.9971 Y492.125 I7.9312 J0.0
G3 X441.3339 Y488.95 I7.2679 J-3.175
G1 Y425.45
G3 X441.9971 Y422.275 I7.9312 J0.0
G3 X441.3339 Y419.1 I7.2679 J-3.175
G1 Y355.6
G3 X441.9971 Y352.425 I7.9312 J0.0
G3 X441.3339 Y349.25 I7.2679 J-3.175
G1 Y285.75
G3 X441.9971 Y282.575 I7.9312 J0.0
G3 X441.3339 Y279.4 I7.2679 J-3.175
G1 Y215.9
G3 X441.9971 Y212.725 I7.9312 J0.0
G3 X441.3339 Y209.55 I7.2679 J-3.175
G1 Y146.05
G3 X441.9971 Y142.875 I7.9312 J0.0
G3 X441.3339 Y139.7 I7.2679 J-3.175
G1 Y76.2
G3 X441.9937 Y73.0329 I7.9312 J0.0
G3 X441.3275 Y69.85 I7.2714 J-3.1829
G1 Y7.9375
G1 X438.1525
G1 Y69.85
G3 X437.4899 Y73.025 I-7.9375 J0.0
G3 X438.1525 Y76.2 I-7.2748 J3.175
G1 Y139.7
G3 X437.4899 Y142.875 I-7.9375 J0.0
G3 X438.1525 Y146.05 I-7.2748 J3.175
G1 Y209.55
G3 X437.4899 Y212.725 I-7.9375 J0.0
G3 X438.1525 Y215.9 I-7.2748 J3.175
G1 Y279.4
G3 X437.4899 Y282.575 I-7.9375 J0.0
G3 X438.1525 Y285.75 I-7.2748 J3.175
G1 Y349.25
G3 X437.4899 Y352.425 I-7.9375 J0.0
G3 X438.1525 Y355.6 I-7.2748 J3.175
G1 Y419.1
G3 X437.4899 Y422.275 I-7.9375 J0.0
G3 X438.1525 Y425.45 I-7.2748 J3.175
G1 Y488.95
G3 X437.4899 Y492.125 I-7.9375 J0.0
G3 X438.1525 Y495.3 I-7.2748 J3.175
G1 Y558.8
G3 X437.4899 Y561.975 I-7.9375 J0.0
G3 X438.1525 Y565.15 I-7.2748 J3.175
G1 Y628.65
G3 X437.4899 Y631.825 I-7.9375 J0.0
G3 X438.1525 Y635.0 I-7.2748 J3.175
G1 Y722.3125
G1 X439.74
G0 Z25.0
G0 Y725.4875
G0 Z0.1
G1 F120.0 Z-1.0
G1 F3000.0 X444.5025
G1 Y635.0
G3 X445.7195 Y631.8202 I4.7625 J0.0
G3 X444.5089 Y628.65 I3.5455 J-3.1702
G1 Y565.15
G3 X445.7238 Y561.975 I4.7562 J0.0
G3 X444.5089 Y558.8 I3.5412 J-3.175
G1 Y495.3
G3 X445.7238 Y492.125 I4.7561 J0.0
G3 X444.5089 Y488.95 I3.5412 J-3.175
G1 Y425.45
G3 X445.7238 Y422.275 I4.7561 J0.0
G3 X444.5089 Y419.1 I3.5412 J-3.175
G1 Y355.6
G3 X445.7238 Y352.425 I4.7561 J0.0
G3 X444.5089 Y349.25 I3.5412 J-3.175
G1 Y285.75
G3 X445.7238 Y282.575 I4.7561 J0.0
G3 X444.5089 Y279.4 I3.5412 J-3.175
G1 Y215.9
G3 X445.7238 Y212.725 I4.7561 J0.0
G3 X444.5089 Y209.55 I3.5412 J-3.175
G1 Y146.05
G3 X445.7238 Y142.875 I4.7561 J0.0
G3 X444.5089 Y139.7 I3.5412 J-3.175
G1 Y76.2
G3 X445.7195 Y73.0298 I4.7561 J0.0
G3 X444.5025 Y69.85 I3.5455 J-3.1798
G1 Y4.7625
G1 X434.9775
G1 Y69.85
G3 X433.7648 Y73.025 I-4.7625 J0.0
G3 X434.9775 Y76.2 I-3.5498 J3.175
G1 Y139.7
G3 X433.7648 Y142.875 I-4.7625 J0.0
G3 X434.9775 Y146.05 I-3.5498 J3.175
G1 Y209.55
G3 X433.7648 Y212.725 I-4.7625 J0.0
G3 X434.9775 Y215.9 I-3.5498 J3.175
G1 Y279.4
G3 X433.7648 Y282.575 I-4.7625 J0.0
G3 X434.9775 Y285.75 I-3.5498 J3.175
G1 Y349.25
G3 X433.7648 Y352.425 I-4.7625 J0.0
G3 X434.9775 Y355.6 I-3.5498 J3.175
G1 Y419.1
G3 X433.7648 Y422.275 I-4.7625 J0.0
G3 X434.9775 Y425.45 I-3.5498 J3.175
G1 Y488.95
G3 X433.7648 Y492.125 I-4.7625 J0.0
G3 X434.9775 Y495.3 I-3.5498 J3.175
G1 Y558.8
G3 X433.7648 Y561.975 I-4.7625 J0.0
G3 X434.9775 Y565.15 I-3.5498 J3.175
G1 Y628.65
G3 X433.7648 Y631.825 I-4.7625 J0.0
G3 X434.9775 Y635.0 I-3.5498 J3.175
G1 Y725.4875
G1 X439.74
G0 Z25.0
G0 Y728.6625
G0 Z0.1
G1 F120.0 Z-1.0
G1 F3000.0 X447.6775
G1 Y635.0
G3 X449.265 Y633.4125 I1.5875 J0.0
G1 X652.46
G3 X654.0475 Y635.0 I0.0 J1.5875
G1 Y728.6625
G1 X669.9225
G1 Y635.0
G3 X671.51 Y633.4125 I1.5875 J0.0
G1 X1100.1375
G1 Y630.2375
G1 X671.51
G3 X669.9225 Y628.65 I0.0 J-1.5875
G1 Y565.15
G3 X671.51 Y563.5625 I1.5875 J0.0
G1 X1100.1375
G1 Y560.3875
G1 X671.51
G3 X669.9225 Y558.8 I0.0 J-1.5875
G1 Y495.3
G3 X671.51 Y493.7125 I1.5875 J0.0
G1 X1100.1375
G1 Y490.5375
G1 X671.51
G3 X669.9225 Y488.95 I0.0 J-1.5875
G1 Y425.45
G3 X671.51 Y423.8625 I1.5875 J0.0
G1 X1100.1375
G1 Y420.6875
G1 X671.51
G3 X669.9225 Y419.1 I0.0 J-1.5875
G1 Y355.6
G3 X671.51 Y354.0125 I1.5875 J0.0
G1 X1100.1375
G1 Y350.8375
G1 X671.51
G3 X669.9225 Y349.25 I0.0 J-1.5875
G1 Y285.75
G3 X671.51 Y284.1625 I1.5875 J0.0
G1 X1100.1375
G1 Y280.9875
G1 X671.51
G3 X669.9225 Y279.4 I0.0 J-1.5875
G1 Y215.9
G3 X671.51 Y214.3125 I1.5875 J0.0
G1 X1100.1375
G1 Y211.1375
G1 X671.51
G3 X669.9225 Y209.55 I0.0 J-1.5875
G1 Y146.05
G3 X671.51 Y144.4625 I1.5875 J0.0
G1 X1100.1375
G1 Y141.2875
G1 X671.51
G3 X669.9225 Y139.7 I0.0 J-1.5875
G1 Y76.2
G3 X671.51 Y74.6125 I1.5875 J0.0
G1 X1100.1375
G1 Y71.4375
G1 X671.51
G3 X669.9225 Y69.85 I0.0 J-1.5875
G1 Y1.5875
G1 X654.0475
G1 Y69.85
G3 X652.46 Y71.4375 I-1.5875 J0.0
G1 X449.265
G3 X447.6775 Y69.85 I0.0 J-1.5875
G1 Y1.5875
G1 X431.8025
G1 Y69.85
G3 X430.215 Y71.4375 I-1.5875 J0.0
G1 X1.5875
G1 Y74.6125
G1 X430.215
G3 X431.8025 Y76.2 I0.0 J1.5875
G1 Y139.7
G3 X430.215 Y141.2875 I-1.5875 J0.0
G1 X1.5875
G1 Y144.4625
G1 X430.215
G3 X431.8025 Y146.05 I0.0 J1.5875
G1 Y209.55
G3 X430.215 Y211.1375 I-1.5875 J0.0
G1 X1.5875
G1 Y214.3125
G1 X430.215
G3 X431.8025 Y215.9 I0.0 J1.5875
G1 Y279.4
G3 X430.215 Y280.9875 I-1.5875 J0.0
G1 X1.5875
G1 Y284.1625
G1 X430.215
G3 X431.8025 Y285.75 I0.0 J1.5875
G1 Y349.25
G3 X430.215 Y350.8375 I-1.5875 J0.0
G1 X1.5875
G1 Y354.0125
G1 X430.215
G3 X431.8025 Y355.6 I0.0 J1.5875
G1 Y419.1
G3 X430.215 Y420.6875 I-1.5875 J0.0
G1 X1.5875
G1 Y423.8625
G1 X430.215
G3 X431.8025 Y425.45 I0.0 J1.5875
G1 Y488.95
G3 X430.215 Y490.5375 I-1.5875 J0.0
G1 X1.5875
G1 Y493.7125
G1 X430.215
G3 X431.8025 Y495.3 I0.0 J1.5875
G1 Y558.8
G3 X430.215 Y560.3875 I-1.5875 J0.0
G1 X1.5875
G1 Y563.5625
G1 X430.215
G3 X431.8025 Y565.15 I0.0 J1.5875
G1 Y628.65
G3 X430.215 Y630.2375 I-1.5875 J0.0
G1 X1.5875
G1 Y633.4125
G1 X430.215
G3 X431.8025 Y635.0 I0.0 J1.5875
G1 Y728.6625
G1 X439.74
G0 Z25.0
G0 X449.1145 Y630.2303
G0 Z0.1
G1 F120.0 Z-1.0
G3 F3000.0 X447.6775 Y628.65 I0.1505 J-1.5803
G1 Y565.15
G3 X449.265 Y563.5625 I1.5875 J0.0
G1 X652.46
G3 X654.0475 Y565.15 I0.0 J1.5875
G1 Y628.65
G3 X652.46 Y630.2375 I-1.5875 J0.0
G1 X449.265
G3 X449.1145 Y630.2303 I0.0 J-1.5875
G0 Z25.0
G0 X449.2617 Y560.3875
G0 Z0.1
G1 F120.0 Z-1.0
G3 F3000.0 X447.6775 Y558.8 I0.0033 J-1.5875
G1 Y495.3
G3 X449.265 Y493.7125 I1.5875 J0.0
G1 X652.46
G3 X654.0475 Y495.3 I0.0 J1.5875
G1 Y558.8
G3 X652.46 Y560.3875 I-1.5875 J0.0
G1 X449.265
G3 X449.2617 I0.0 J-1.5875
G0 Z25.0
G0 X449.265 Y490.5375
G0 Z0.1
G1 F120.0 Z-1.0
G3 F3000.0 X447.6775 Y488.95 I0.0001 J-1.5875
G1 Y425.45
G3 X449.265 Y423.8625 I1.5875 J0.0
G1 X652.46
G3 X654.0475 Y425.45 I0.0 J1.5875
G1 Y488.95
G3 X652.46 Y490.5375 I-1.5875 J0.0
G1 X449.265
G0 Z25.0
G0 Y420.6875
G0 Z0.1
G1 F120.0 Z-1.0
G3 F3000.0 X447.6775 Y419.1 I0.0 J-1.5875
G1 Y355.6
G3 X449.265 Y354.0125 I1.5875 J0.0
G1 X652.46
G3 X654.0475 Y355.6 I0.0 J1.5875
G1 Y419.1
G3 X652.46 Y420.6875 I-1.5875 J0.0
G1 X449.265
G0 Z25.0
G0 Y350.8375
G0 Z0.1
G1 F120.0 Z-1.0
G3 F3000.0 X447.6775 Y349.25 I0.0 J-1.5875
G1 Y285.75
G3 X449.265 Y284.1625 I1.5875 J0.0
G1 X652.46
G3 X654.0475 Y285.75 I0.0 J1.5875
G1 Y349.25
G3 X652.46 Y350.8375 I-1.5875 J0.0
G1 X449.265
G0 Z25.0
G0 Y280.9875
G0 Z0.1
G1 F120.0 Z-1.0
G3 F3000.0 X447.6775 Y279.4 I0.0 J-1.5875
G1 Y215.9
G3 X449.265 Y214.3125 I1.5875 J0.0
G1 X652.46
G3 X654.0475 Y215.9 I0.0 J1.5875
G1 Y279.4
G3 X652.46 Y280.9875 I-1.5875 J0.0
G1 X449.265
G0 Z25.0
G0 Y211.1375
G0 Z0.1
G1 F120.0 Z-1.0
G3 F3000.0 X447.6775 Y209.55 I0.0 J-1.5875
G1 Y146.05
G3 X449.265 Y144.4625 I1.5875 J0.0
G1 X652.46
G3 X654.0475 Y146.05 I0.0 J1.5875
G1 Y209.55
G3 X652.46 Y211.1375 I-1.5875 J0.0
G1 X449.265
G0 Z25.0
G0 Y141.2875
G0 Z0.1
G1 F120.0 Z-1.0
G3 F3000.0 X447.6775 Y139.7 I0.0 J-1.5875
G1 Y76.2
G3 X449.265 Y74.6125 I1.5875 J0.0
G1 X652.46
G3 X654.0475 Y76.2 I0.0 J1.5875
G1 Y139.7
G3 X652.46 Y141.2875 I-1.5875 J0.0
G1 X449.265
G1 F120.0 Z-2.0
G3 F3000.0 X447.6775 Y139.7 I0.0 J-1.5875
G1 Y76.2
G3 X449.265 Y74.6125 I1.5875 J0.0
G1 X652.46
G3 X654.0475 Y76.2 I0.0 J1.5875
G1 Y139.7
G3 X652.46 Y141.2875 I-1.5875 J0.0
G1 X449.265
G0 Z25.0
G0 Y144.4625
G0 Z-0.9
G1 F120.0 Z-2.0
G1 F3000.0 X652.46
G3 X654.0475 Y146.05 I0.0 J1.5875
G1 Y209.55
G3 X652.46 Y211.1375 I-1.5875 J0.0
G1 X449.265
G3 X447.6775 Y209.55 I0.0 J-1.5875
G1 Y146.05
G3 X449.265 Y144.4625 I1.5875 J0.0
G0 Z25.0
G0 X440.2915 Y142.875
G0 Z-0.9
G1 F120.0 Z-2.0
G3 F3000.0 X439.7464 Y139.7 I8.9735 J-3.175
G1 Y76.2
G3 X440.2882 Y73.0345 I9.5186 J0.0
G3 X439.74 Y69.85 I8.9769 J-3.1845
G1 Y9.525
G1 Y69.85
G3 X439.1953 Y73.025 I-9.525 J0.0
G3 X439.74 Y76.2 I-8.9803 J3.175
G1 Y139.7
G3 X439.1953 Y142.875 I-9.525 J0.0
G3 X439.74 Y146.05 I-8.9803 J3.175
G1 Y209.55
G3 X439.1953 Y212.725 I-9.525 J0.0
G3 X439.74 Y215.9 I-8.9803 J3.175
G1 Y279.4
G3 X439.1953 Y282.575 I-9.525 J0.0
G3 X439.74 Y285.75 I-8.9803 J3.175
G1 Y349.25
G3 X439.1953 Y352.425 I-9.525 J0.0
G3 X439.74 Y355.6 I-8.9803 J3.175
G1 Y419.1
G3 X439.1953 Y422.275 I-9.525 J0.0
G3 X439.74 Y425.45 I-8.9803 J3.175
G1 Y488.95
G3 X439.1953 Y492.125 I-9.525 J0.0
G3 X439.74 Y495.3 I-8.9803 J3.175
G1 Y558.8
G3 X439.1953 Y561.975 I-9.525 J0.0
G3 X439.74 Y565.15 I-8.9803 J3.175
G1 Y628.65
G3 X439.1953 Y631.825 I-9.525 J0.0
G3 X439.74 Y635.0 I-8.9803 J3.175
G1 Y720.725
G1 Y635.0
G3 X440.2882 Y631.8155 I9.525 J0.0
G3 X439.7464 Y628.65 I8.9769 J-3.1655
G1 Y565.15
G3 X440.2915 Y561.975 I9.5187 J0.0
G3 X439.7464 Y558.8 I8.9735 J-3.175
G1 Y495.3
G3 X440.2915 Y492.125 I9.5186 J0.0
G3 X439.7464 Y488.95 I8.9735 J-3.175
G1 Y425.45
G3 X440.2915 Y422.275 I9.5186 J0.0
G3 X439.7464 Y419.1 I8.9735 J-3.175
G1 Y355.6
G3 X440.2915 Y352.425 I9.5186 J0.0
G3 X439.7464 Y349.25 I8.9735 J-3.175
G1 Y285.75
G3 X440.2915 Y282.575 I9.5186 J0.0
G3 X439.7464 Y279.4 I8.9735 J-3.175
G1 Y215.9
G3 X440.2915 Y212.725 I9.5186 J0.0
G3 X439.7464 Y209.55 I8.9735 J-3.175
G1 Y146.05
G3 X440.2915 Y142.875 I9.5186 J0.0
G0 Z25.0
G0 X441.7881 Y143.4045
G0 Z-0.9
G1 F120.0 Z-2.0
G3 F3000.0 X441.9971 Y142.875 I7.4769 J2.6455
G3 X441.3339 Y139.7 I7.2679 J-3.175
G1 Y76.2
G3 X441.9937 Y73.0329 I7.9312 J0.0
G3 X441.3275 Y69.85 I7.2714 J-3.1829
G1 Y7.9375
G1 X438.1525
G1 Y69.85
G3 X437.4899 Y73.025 I-7.9375 J0.0
G3 X438.1525 Y76.2 I-7.2748 J3.175
G1 Y139.7
G3 X437.4899 Y142.875 I-7.9375 J0.0
G3 X438.1525 Y146.05 I-7.2748 J3.175
G1 Y209.55
G3 X437.4899 Y212.725 I-7.9375 J0.0
G3 X438.1525 Y215.9 I-7.2748 J3.175
G1 Y279.4
G3 X437.4899 Y282.575 I-7.9375 J0.0
G3 X438.1525 Y285.75 I-7.2748 J3.175
G1 Y349.25
G3 X437.4899 Y352.425 I-7.9375 J0.0
G3 X438.1525 Y355.6 I-7.2748 J3.175
G1 Y419.1
G3 X437.4899 Y422.275 I-7.9375 J0.0
G3 X438.1525 Y425.45 I-7.2748 J3.175
G1 Y488.95
G3 X437.4899 Y492.125 I-7.9375 J0.0
G3 X438.1525 Y495.3 I-7.2748 J3.175
G1 Y558.8
G3 X437.4899 Y561.975 I-7.9375 J0.0
G3 X438.1525 Y565.15 I-7.2748 J3.175
G1 Y628.65
G3 X437.4899 Y631.825 I-7.9375 J0.0
G3 X438.1525 Y635.0 I-7.2748 J3.175
G1 Y722.3125
G1 X441.3275
G1 Y635.0
G3 X441.9937 Y631.8171 I7.9375 J0.0
G3 X441.3339 Y628.65 I7.2714 J-3.1671
G1 Y565.15
G3 X441.9971 Y561.975 I7.9312 J0.0
G3 X441.3339 Y558.8 I7.2679 J-3.175
G1 Y495.3
G3 X441.9971 Y492.125 I7.9312 J0.0
G3 X441.3339 Y488.95 I7.2679 J-3.175
G1 Y425.45
G3 X441.9971 Y422.275 I7.9312 J0.0
G3 X441.3339 Y419.1 I7.2679 J-3.175
G1 Y355.6
G3 X441.9971 Y352.425 I7.9312 J0.0
G3 X441.3339 Y349.25 I7.2679 J-3.175
G1 Y285.75
G3 X441.9971 Y282.575 I7.9312 J0.0
G3 X441.3339 Y279.4 I7.2679 J-3.175
G1 Y215.9
G3 X441.9971 Y212.725 I7.9312 J0.0
G3 X441.3339 Y209.55 I7.2679 J-3.175
G1 Y146.05
G3 X441.7881 Y143.4045 I7.9312 J0.0
G0 Z25.0
G0 X444.7813 Y144.4636
G0 Z-0.9
G1 F120.0 Z-2.0
G3 F3000.0 X445.7238 Y142.875 I4.4838 J1.5864
G3 X444.5089 Y139.7 I3.5412 J-3.175
G1 Y76.2
G3 X445.7195 Y73.0298 I4.7561 J0.0
G3 X444.5025 Y69.85 I3.5455 J-3.1798
G1 Y4.7625
G1 X434.9775
G1 Y69.85
G3 X433.7648 Y73.025 I-4.7625 J0.0
G3 X434.9775 Y76.2 I-3.5498 J3.175
G1 Y139.7
G3 X433.7648 Y142.875 I-4.7625 J0.0
G3 X434.9775 Y146.05 I-3.5498 J3.175
G1 Y209.55
G3 X433.7648 Y212.725 I-4.7625 J0.0
G3 X434.9775 Y215.9 I-3.5498 J3.175
G1 Y279.4
G3 X433.7648 Y282.575 I-4.7625 J0.0
G3 X434.9775 Y285.75 I-3.5498 J3.175
G1 Y349.25
G3 X433.7648 Y352.425 I-4.7625 J0.0
G3 X434.9775 Y355.6 I-3.5498 J3.175
G1 Y419.1
G3 X433.7648 Y422.275 I-4.7625 J0.0
G3 X434.9775 Y425.45 I-3.5498 J3.175
G1 Y488.95
G3 X433.7648 Y492.125 I-4.7625 J0.0
G3 X434.9775 Y495.3 I-3.5498 J3.175
G1 Y558.8
G3 X433.7648 Y561.975 I-4.7625 J0.0
G3 X434.9775 Y565.15 I-3.5498 J3.175
G1 Y628.65
G3 X433.7648 Y631.825 I-4.7625 J0.0
G3 X434.9775 Y635.0 I-3.5498 J3.175
G1 Y725.4875
G1 X444.5025
G1 Y635.0
G3 X445.7195 Y631.8202 I4.7625 J0.0
G3 X444.5089 Y628.65 I3.5455 J-3.1702
G1 Y565.15
G3 X445.7238 Y561.975 I4.7562 J0.0
G3 X444.5089 Y558.8 I3.5412 J-3.175
G1 Y495.3
G3 X445.7238 Y492.125 I4.7561 J0.0
G3 X444.5089 Y488.95 I3.5412 J-3.175
G1 Y425.45
G3 X445.7238 Y422.275 I4.7561 J0.0
G3 X444.5089 Y419.1 I3.5412 J-3.175
G1 Y355.6
G3 X445.7238 Y352.425 I4.7561 J0.0
G3 X444.5089 Y349.25 I3.5412 J-3.175
G1 Y285.75
G3 X445.7238 Y282.575 I4.7561 J0.0
G3 X444.5089 Y279.4 I3.5412 J-3.175
G1 Y215.9
G3 X445.7238 Y212.725 I4.7561 J0.0
G3 X444.5089 Y209.55 I3.5412 J-3.175
G1 Y146.05
G3 X444.7813 Y144.4636 I4.7561 J0.0
G0 Z25.0
G0 X661.4335 Y142.875
G0 Z-0.9
G1 F120.0 Z-2.0
G3 F3000.0 X661.9786 Y146.05 I-8.9735 J3.175
G1 Y209.55
G3 X661.4335 Y212.725 I-9.5186 J0.0
G3 X661.9786 Y215.9 I-8.9735 J3.175
G1 Y279.4
G3 X661.4335 Y282.575 I-9.5186 J0.0
G3 X661.9786 Y285.75 I-8.9735 J3.175
G1 Y349.25
G3 X661.4335 Y352.425 I-9.5186 J0.0
G3 X661.9786 Y355.6 I-8.9735 J3.175
G1 Y419.1
G3 X661.4335 Y422.275 I-9.5186 J0.0
G3 X661.9786 Y425.45 I-8.9735 J3.175
G1 Y488.95
G3 X661.4335 Y492.125 I-9.5186 J0.0
G3 X661.9786 Y495.3 I-8.9735 J3.175
G1 Y558.8
G3 X661.4335 Y561.975 I-9.5186 J0.0
G3 X661.9786 Y565.15 I-8.9735 J3.175
G1 Y628.65
G3 X661.4368 Y631.8155 I-9.5186 J0.0
G3 X661.985 Y635.0 I-8.9769 J3.1845
G1 Y720.725
G1 Y635.0
G3 X662.5297 Y631.825 I9.525 J0.0
G3 X661.985 Y628.65 I8.9803 J-3.175
G1 Y565.15
G3 X662.5297 Y561.975 I9.525 J0.0
G3 X661.985 Y558.8 I8.9803 J-3.175
G1 Y495.3
G3 X662.5297 Y492.125 I9.525 J0.0
G3 X661.985 Y488.95 I8.9803 J-3.175
G1 Y425.45
G3 X662.5297 Y422.275 I9.525 J0.0
G3 X661.985 Y419.1 I8.9803 J-3.175
G1 Y355.6
G3 X662.5297 Y352.425 I9.525 J0.0
G3 X661.985 Y349.25 I8.9803 J-3.175
G1 Y285.75
G3 X662.5297 Y282.575 I9.525 J0.0
G3 X661.985 Y279.4 I8.9803 J-3.175
G1 Y215.9
G3 X662.5297 Y212.725 I9.525 J0.0
G3 X661.985 Y209.55 I8.9803 J-3.175
G1 Y146.05
G3 X662.5297 Y142.875 I9.525 J0.0
G3 X661.985 Y139.7 I8.9803 J-3.175
G1 Y76.2
G3 X662.5297 Y73.025 I9.525 J0.0
G3 X661.985 Y69.85 I8.9803 J-3.175
G1 Y9.525
G1 Y69.85
G3 X661.4368 Y73.0345 I-9.525 J0.0
G3 X661.9786 Y76.2 I-8.9769 J3.1655
G1 Y139.7
G3 X661.4335 Y142.875 I-9.5186 J0.0
G0 Z25.0
G0 X659.9369 Y142.3455
G0 Z-0.9
G1 F120.0 Z-2.0
G3 F3000.0 X659.7279 Y142.875 I-7.4769 J-2.6455
G3 X660.3911 Y146.05 I-7.2679 J3.175
G1 Y209.55
G3 X659.7279 Y212.725 I-7.9312 J0.0
G3 X660.3911 Y215.9 I-7.2679 J3.175
G1 Y279.4
G3 X659.7279 Y282.575 I-7.9312 J0.0
G3 X660.3911 Y285.75 I-7.2679 J3.175
G1 Y349.25
G3 X659.7279 Y352.425 I-7.9312 J0.0
G3 X660.3911 Y355.6 I-7.2679 J3.175
G1 Y419.1
G3 X659.7279 Y422.275 I-7.9312 J0.0
G3 X660.3911 Y425.45 I-7.2679 J3.175
G1 Y488.95
G3 X659.7279 Y492.125 I-7.9312 J0.0
G3 X660.3911 Y495.3 I-7.2679 J3.175
G1 Y558.8
G3 X659.7279 Y561.975 I-7.9312 J0.0
G3 X660.3911 Y565.15 I-7.2679 J3.175
G1 Y628.65
G3 X659.7313 Y631.8171 I-7.9312 J0.0
G3 X660.3975 Y635.0 I-7.2714 J3.1829
G1 Y722.3125
G1 X663.5725
G1 Y635.0
G3 X664.2351 Y631.825 I7.9375 J0.0
G3 X663.5725 Y628.65 I7.2748 J-3.175
G1 Y565.15
G3 X664.2351 Y561.975 I7.9375 J0.0
G3 X663.5725 Y558.8 I7.2748 J-3.175
G1 Y495.3
G3 X664.2351 Y492.125 I7.9375 J0.0
G3 X663.5725 Y488.95 I7.2748 J-3.175
G1 Y425.45
G3 X664.2351 Y422.275 I7.9375 J0.0
G3 X663.5725 Y419.1 I7.2748 J-3.175
G1 Y355.6
G3 X664.2351 Y352.425 I7.9375 J0.0
G3 X663.5725 Y349.25 I7.2748 J-3.175
G1 Y285.75
G3 X664.2351 Y282.575 I7.9375 J0.0
G3 X663.5725 Y279.4 I7.2748 J-3.175
G1 Y215.9
G3 X664.2351 Y212.725 I7.9375 J0.0
G3 X663.5725 Y209.55 I7.2748 J-3.175
G1 Y146.05
G3 X664.2351 Y142.875 I7.9375 J0.0
G3 X663.5725 Y139.7 I7.2748 J-3.175
G1 Y76.2
G3 X664.2351 Y73.025 I7.9375 J0.0
G3 X663.5725 Y69.85 I7.2748 J-3.175
G1 Y7.9375
G1 X660.3975
G1 Y69.85
G3 X659.7313 Y73.0329 I-7.9375 J0.0
G3 X660.3911 Y76.2 I-7.2714 J3.1671
G1 Y139.7
G3 X659.9369 Y142.3455 I-7.9312 J0.0
G0 Z25.0
G0 X656.9437 Y141.2864
G0 Z-0.9
G1 F120.0 Z-2.0
G3 F3000.0 X656.0012 Y142.875 I-4.4838 J-1.5864
G3 X657.2161 Y146.05 I-3.5412 J3.175
G1 Y209.55
G3 X656.0012 Y212.725 I-4.7562 J0.0
G3 X657.2161 Y215.9 I-3.5412 J3.175
G1 Y279.4
G3 X656.0012 Y282.575 I-4.7562 J0.0
G3 X657.2161 Y285.75 I-3.5412 J3.175
G1 Y349.25
G3 X656.0012 Y352.425 I-4.7562 J0.0
G3 X657.2161 Y355.6 I-3.5412 J3.175
G1 Y419.1
G3 X656.0012 Y422.275 I-4.7562 J0.0
G3 X657.2161 Y425.45 I-3.5412 J3.175
G1 Y488.95
G3 X656.0012 Y492.125 I-4.7562 J0.0
G3 X657.2161 Y495.3 I-3.5412 J3.175
G1 Y558.8
G3 X656.0012 Y561.975 I-4.7562 J0.0
G3 X657.2161 Y565.15 I-3.5412 J3.175
G1 Y628.65
G3 X656.0055 Y631.8202 I-4.7562 J0.0
G3 X657.2225 Y635.0 I-3.5455 J3.1798
G1 Y725.4875
G1 X666.7475
G1 Y635.0
G3 X667.9602 Y631.825 I4.7625 J0.0
G3 X666.7475 Y628.65 I3.5498 J-3.175
G1 Y565.15
G3 X667.9602 Y561.975 I4.7625 J0.0
G3 X666.7475 Y558.8 I3.5498 J-3.175
G1 Y495.3
G3 X667.9602 Y492.125 I4.7625 J0.0
G3 X666.7475 Y488.95 I3.5498 J-3.175
G1 Y425.45
G3 X667.9602 Y422.275 I4.7625 J0.0
G3 X666.7475 Y419.1 I3.5498 J-3.175
G1 Y355.6
G3 X667.9602 Y352.425 I4.7625 J0.0
G3 X666.7475 Y349.25 I3.5498 J-3.175
G1 Y285.75
G3 X667.9602 Y282.575 I4.7625 J0.0
G3 X666.7475 Y279.4 I3.5498 J-3.175
G1 Y215.9
G3 X667.9602 Y212.725 I4.7625 J0.0
G3 X666.7475 Y209.55 I3.5498 J-3.175
G1 Y146.05
G3 X667.9602 Y142.875 I4.7625 J0.0
G3 X666.7475 Y139.7 I3.5498 J-3.175
G1 Y76.2
G3 X667.9602 Y73.025 I4.7625 J0.0
G3 X666.7475 Y69.85 I3.5498 J-3.175
G1 Y4.7625
G1 X657.2225
G1 Y69.85
G3 X656.0055 Y73.0298 I-4.7625 J0.0
G3 X657.2161 Y76.2 I-3.5455 J3.1702
G1 Y139.7
G3 X656.9437 Y141.2864 I-4.7562 J0.0
G0 Z25.0
G0 X669.9318 Y139.8719
G0 Z-0.9
G1 F120.0 Z-2.0
G3 F3000.0 X669.9225 Y139.7 I1.5782 J-0.1719
G1 Y76.2
G3 X671.51 Y74.6125 I1.5875 J0.0
G1 X1100.1375
G1 Y71.4375
G1 X671.51
G3 X669.9225 Y69.85 I0.0 J-1.5875
G1 Y1.5875
G1 X654.0475
G1 Y69.85
G3 X652.46 Y71.4375 I-1.5875 J0.0
G1 X449.265
G3 X447.6775 Y69.85 I0.0 J-1.5875
G1 Y1.5875
G1 X431.8025
G1 Y69.85
G3 X430.215 Y71.4375 I-1.5875 J0.0
G1 X1.5875
G1 Y74.6125
G1 X430.215
G3 X431.8025 Y76.2 I0.0 J1.5875
G1 Y139.7
G3 X430.215 Y141.2875 I-1.5875 J0.0
G1 X1.5875
G1 Y144.4625
G1 X430.215
G3 X431.8025 Y146.05 I0.0 J1.5875
G1 Y209.55
G3 X430.215 Y211.1375 I-1.5875 J0.0
G1 X1.5875
G1 Y214.3125
G1 X430.215
G3 X431.8025 Y215.9 I0.0 J1.5875
G1 Y279.4
G3 X430.215 Y280.9875 I-1.5875 J0.0
G1 X1.5875
G1 Y284.1625
G1 X430.215
G3 X431.8025 Y285.75 I0.0 J1.5875
G1 Y349.25
G3 X430.215 Y350.8375 I-1.5875 J0.0
G1 X1.5875
G1 Y354.0125
G1 X430.215
G3 X431.8025 Y355.6 I0.0 J1.5875
G1 Y419.1
G3 X430.215 Y420.6875 I-1.5875 J0.0
G1 X1.5875
G1 Y423.8625
G1 X430.215
G3 X431.8025 Y425.45 I0.0 J1.5875
G1 Y488.95
G3 X430.215 Y490.5375 I-1.5875 J0.0
G1 X1.5875
G1 Y493.7125
G1 X430.215
G3 X431.8025 Y495.3 I0.0 J1.5875
G1 Y558.8
G3 X430.215 Y560.3875 I-1.5875 J0.0
G1 X1.5875
G1 Y563.5625
G1 X430.215
G3 X431.8025 Y565.15 I0.0 J1.5875
G1 Y628.65
G3 X430.215 Y630.2375 I-1.5875 J0.0
G1 X1.5875
G1 Y633.4125
G1 X430.215
G3 X431.8025 Y635.0 I0.0 J1.5875
G1 Y728.6625
G1 X447.6775
G1 Y635.0
G3 X449.265 Y633.4125 I1.5875 J0.0
G1 X652.46
G3 X654.0475 Y635.0 I0.0 J1.5875
G1 Y728.6625
G1 X669.9225
G1 Y635.0
G3 X671.51 Y633.4125 I1.5875 J0.0
G1 X1100.1375
G1 Y630.2375
G1 X671.51
G3 X669.9225 Y628.65 I0.0 J-1.5875
G1 Y565.15
G3 X671.51 Y563.5625 I1.5875 J0.0
G1 X1100.1375
G1 Y560.3875
G1 X671.51
G3 X669.9225 Y558.8 I0.0 J-1.5875
G1 Y495.3
G3 X671.51 Y493.7125 I1.5875 J0.0
G1 X1100.1375
G1 Y490.5375
G1 X671.51
G3 X669.9225 Y488.95 I0.0 J-1.5875
G1 Y425.45
G3 X671.51 Y423.8625 I1.5875 J0.0
G1 X1100.1375
G1 Y420.6875
G1 X671.51
G3 X669.9225 Y419.1 I0.0 J-1.5875
G1 Y355.6
G3 X671.51 Y354.0125 I1.5875 J0.0
G1 X1100.1375
G1 Y350.8375
G1 X671.51
G3 X669.9225 Y349.25 I0.0 J-1.5875
G1 Y285.75
G3 X671.51 Y284.1625 I1.5875 J0.0
G1 X1100.1375
G1 Y280.9875
G1 X671.51
G3 X669.9225 Y279.4 I0.0 J-1.5875
G1 Y215.9
G3 X671.51 Y214.3125 I1.5875 J0.0
G1 X1100.1375
G1 Y211.1375
G1 X671.51
G3 X669.9225 Y209.55 I0.0 J-1.5875
G1 Y146.05
G3 X671.51 Y144.4625 I1.5875 J0.0
G1 X1100.1375
G1 Y141.2875
G1 X671.51
G3 X669.9318 Y139.8719 I0.0 J-1.5875
G0 Z25.0
G0 X652.8155 Y214.3528
G0 Z-0.9
G1 F120.0 Z-2.0
G3 F3000.0 X654.0475 Y215.9 I-0.3556 J1.5472
G1 Y279.4
G3 X652.46 Y280.9875 I-1.5875 J0.0
G1 X449.265
G3 X447.6775 Y279.4 I0.0 J-1.5875
G1 Y215.9
G3 X449.265 Y214.3125 I1.5875 J0.0
G1 X652.46
G3 X652.8155 Y214.3528 I0.0 J1.5875
G0 Z25.0
G0 X652.4679 Y284.1625
G0 Z-0.9
G1 F120.0 Z-2.0
G3 F3000.0 X654.0475 Y285.75 I-0.0079 J1.5875
G1 Y349.25
G3 X652.46 Y350.8375 I-1.5875 J0.0
G1 X449.265
G3 X447.6775 Y349.25 I0.0 J-1.5875
G1 Y285.75
G3 X449.265 Y284.1625 I1.5875 J0.0
G1 X652.46
G3 X652.4679 I0.0 J1.5875
G0 Z25.0
G0 X652.4601 Y354.0125
G0 Z-0.9
G1 F120.0 Z-2.0
G3 F3000.0 X654.0475 Y355.6 I-0.0002 J1.5875
G1 Y419.1
G3 X652.46 Y420.6875 I-1.5875 J0.0
G1 X449.265
G3 X447.6775 Y419.1 I0.0 J-1.5875
G1 Y355.6
G3 X449.265 Y354.0125 I1.5875 J0.0
G1 X652.46
G3 X652.4601 I0.0 J1.5875
G0 Z25.0
G0 X652.46 Y423.8625
G0 Z-0.9
G1 F120.0 Z-2.0
G3 F3000.0 X654.0475 Y425.45 I0.0 J1.5875
G1 Y488.95
G3 X652.46 Y490.5375 I-1.5875 J0.0
G1 X449.265
G3 X447.6775 Y488.95 I0.0 J-1.5875
G1 Y425.45
G3 X449.265 Y423.8625 I1.5875 J0.0
G1 X652.46
G0 Z25.0
G0 Y493.7125
G0 Z-0.9
G1 F120.0 Z-2.0
G3 F3000.0 X654.0475 Y495.3 I0.0 J1.5875
G1 Y558.8
G3 X652.46 Y560.3875 I-1.5875 J0.0
G1 X449.265
G3 X447.6775 Y558.8 I0.0 J-1.5875
G1 Y495.3
G3 X449.265 Y493.7125 I1.5875 J0.0
G1 X652.46
G0 Z25.0
G0 Y563.5625
G0 Z-0.9
G1 F120.0 Z-2.0
G3 F3000.0 X654.0475 Y565.15 I0.0 J1.5875
G1 Y628.65
G3 X652.46 Y630.2375 I-1.5875 J0.0
G1 X449.265
G3 X447.6775 Y628.65 I0.0 J-1.5875
G1 Y565.15
G3 X449.265 Y563.5625 I1.5875 J0.0
G1 X652.46
G1 F120.0 Z-3.0
G3 F3000.0 X654.0475 Y565.15 I0.0 J1.5875
G1 Y628.65
G3 X652.46 Y630.2375 I-1.5875 J0.0
G1 X449.265
G3 X447.6775 Y628.65 I0.0 J-1.5875
G1 Y565.15
G3 X449.265 Y563.5625 I1.5875 J0.0
G1 X652.46
G0 Z25.0
G0 Y560.3875
G0 Z-1.9
G1 F120.0 Z-3.0
G1 F3000.0 X449.265
G3 X447.6775 Y558.8 I0.0 J-1.5875
G1 Y495.3
G3 X449.265 Y493.7125 I1.5875 J0.0
G1 X652.46
G3 X654.0475 Y495.3 I0.0 J1.5875
G1 Y558.8
G3 X652.46 Y560.3875 I-1.5875 J0.0
G0 Z25.0
G0 X661.4335 Y561.975
G0 Z-1.9
G1 F120.0 Z-3.0
G3 F3000.0 X661.9786 Y565.15 I-8.9735 J3.175
G1 Y628.65
G3 X661.4368 Y631.8155 I-9.5186 J0.0
G3 X661.985 Y635.0 I-8.9769 J3.1845
G1 Y720.725
G1 Y635.0
G3 X662.5297 Y631.825 I9.525 J0.0
G3 X661.985 Y628.65 I8.9803 J-3.175
G1 Y565.15
G3 X662.5297 Y561.975 I9.525 J0.0
G3 X661.985 Y558.8 I8.9803 J-3.175
G1 Y495.3
G3 X662.5297 Y492.125 I9.525 J0.0
G3 X661.985 Y488.95 I8.9803 J-3.175
G1 Y425.45
G3 X662.5297 Y422.275 I9.525 J0.0
G3 X661.985 Y419.1 I8.9803 J-3.175
G1 Y355.6
G3 X662.5297 Y352.425 I9.525 J0.0
G3 X661.985 Y349.25 I8.9803 J-3.175
G1 Y285.75
G3 X662.5297 Y282.575 I9.525 J0.0
G3 X661.985 Y279.4 I8.9803 J-3.175
G1 Y215.9
G3 X662.5297 Y212.725 I9.525 J0.0
G3 X661.985 Y209.55 I8.9803 J-3.175
G1 Y146.05
G3 X662.5297 Y142.875 I9.525 J0.0
G3 X661.985 Y139.7 I8.9803 J-3.175
G1 Y76.2
G3 X662.5297 Y73.025 I9.525 J0.0
G3 X661.985 Y69.85 I8.9803 J-3.175
G1 Y9.525
G1 Y69.85
G3 X661.4368 Y73.0345 I-9.525 J0.0
G3 X661.9786 Y76.2 I-8.9769 J3.1655
G1 Y139.7
G3 X661.4335 Y142.875 I-9.5186 J0.0
G3 X661.9786 Y146.05 I-8.9735 J3.175
G1 Y209.55
G3 X661.4335 Y212.725 I-9.5186 J0.0
G3 X661.9786 Y215.9 I-8.9735 J3.175
G1 Y279.4
G3 X661.4335 Y282.575 I-9.5186 J0.0
G3 X661.9786 Y285.75 I-8.9735 J3.175
G1 Y349.25
G3 X661.4335 Y352.425 I-9.5186 J0.0
G3 X661.9786 Y355.6 I-8.9735 J3.175
G1 Y419.1
G3 X661.4335 Y422.275 I-9.5186 J0.0
G3 X661.9786 Y425.45 I-8.9735 J3.175
G1 Y488.95
G3 X661.4335 Y492.125 I-9.5186 J0.0
G3 X661.9786 Y495.3 I-8.9735 J3.175
G1 Y558.8
G3 X661.4335 Y561.975 I-9.5186 J0.0
G0 Z25.0
G0 X659.9369 Y561.4455
G0 Z-1.9
G1 F120.0 Z-3.0
G3 F3000.0 X659.7279 Y561.975 I-7.4769 J-2.6455
G3 X660.3911 Y565.15 I-7.2679 J3.175
G1 Y628.65
G3 X659.7313 Y631.8171 I-7.9312 J0.0
G3 X660.3975 Y635.0 I-7.2714 J3.1829
G1 Y722.3125
G1 X663.5725
G1 Y635.0
G3 X664.2351 Y631.825 I7.9375 J0.0
G3 X663.5725 Y628.65 I7.2748 J-3.175
G1 Y565.15
G3 X664.2351 Y561.975 I7.9375 J0.0
G3 X663.5725 Y558.8 I7.2748 J-3.175
G1 Y495.3
G3 X664.2351 Y492.125 I7.9375 J0.0
G3 X663.5725 Y488.95 I7.2748 J-3.175
G1 Y425.45
G3 X664.2351 Y422.275 I7.9375 J0.0
G3 X663.5725 Y419.1 I7.2748 J-3.175
G1 Y355.6
G3 X664.2351 Y352.425 I7.9375 J0.0
G3 X663.5725 Y349.25 I7.2748 J-3.175
G1 Y285.75
G3 X664.2351 Y282.575 I7.9375 J0.0
G3 X663.5725 Y279.4 I7.2748 J-3.175
G1 Y215.9
G3 X664.2351 Y212.725 I7.9375 J0.0
G3 X663.5725 Y209.55 I7.2748 J-3.175
G1 Y146.05
G3 X664.2351 Y142.875 I7.9375 J0.0
G3 X663.5725 Y139.7 I7.2748 J-3.175
G1 Y76.2
G3 X664.2351 Y73.025 I7.9375 J0.0
G3 X663.5725 Y69.85 I7.2748 J-3.175
G1 Y7.9375
G1 X660.3975
G1 Y69.85
G3 X659.7313 Y73.0329 I-7.9375 J0.0
G3 X660.3911 Y76.2 I-7.2714 J3.1671
G1 Y139.7
G3 X659.7279 Y142.875 I-7.9312 J0.0
G3 X660.3911 Y146.05 I-7.2679 J3.175
G1 Y209.55
G3 X659.7279 Y212.725 I-7.9312 J0.0
G3 X660.3911 Y215.9 I-7.2679 J3.175
G1 Y279.4
G3 X659.7279 Y282.575 I-7.9312 J0.0
G3 X660.3911 Y285.75 I-7.2679 J3.175
G1 Y349.25
G3 X659.7279 Y352.425 I-7.9312 J0.0
G3 X660.3911 Y355.6 I-7.2679 J3.175
G1 Y419.1
G3 X659.7279 Y422.275 I-7.9312 J0.0
G3 X660.3911 Y425.45 I-7.2679 J3.175
G1 Y488.95
G3 X659.7279 Y492.125 I-7.9312 J0.0
G3 X660.3911 Y495.3 I-7.2679 J3.175
G1 Y558.8
G3 X659.9369 Y561.4455 I-7.9312 J0.0
G0 Z25.0
G0 X656.9437 Y560.3864
G0 Z-1.9
G1 F120.0 Z-3.0
G3 F3000.0 X656.0012 Y561.975 I-4.4838 J-1.5864
G3 X657.2161 Y565.15 I-3.5412 J3.175
G1 Y628.65
G3 X656.0055 Y631.8202 I-4.7562 J0.0
G3 X657.2225 Y635.0 I-3.5455 J3.1798
G1 Y725.4875
G1 X666.7475
G1 Y635.0
G3 X667.9602 Y631.825 I4.7625 J0.0
G3 X666.7475 Y628.65 I3.5498 J-3.175
G1 Y565.15
G3 X667.9602 Y561.975 I4.7625 J0.0
G3 X666.7475 Y558.8 I3.5498 J-3.175
G1 Y495.3
G3 X667.9602 Y492.125 I4.7625 J0.0
G3 X666.7475 Y488.95 I3.5498 J-3.175
G1 Y425.45
G3 X667.9602 Y422.275 I4.7625 J0.0
G3 X666.7475 Y419.1 I3.5498 J-3.175
G1 Y355.6
G3 X667.9602 Y352.425 I4.7625 J0.0
G3 X666.7475 Y349.25 I3.5498 J-3.175
G1 Y285.75
G3 X667.9602 Y282.575 I4.7625 J0.0
G3 X666.7475 Y279.4 I3.5498 J-3.175
G1 Y215.9
G3 X667.9602 Y212.725 I4.7625 J0.0
G3 X666.7475 Y209.55 I3.5498 J-3.175
G1 Y146.05
G3 X667.9602 Y142.875 I4.7625 J0.0
G3 X666.7475 Y139.7 I3.5498 J-3.175
G1 Y76.2
G3 X667.9602 Y73.025 I4.7625 J0.0
G3 X666.7475 Y69.85 I3.5498 J-3.175
G1 Y4.7625
G1 X657.2225
G1 Y69.85
G3 X656.0055 Y73.0298 I-4.7625 J0.0
G3 X657.2161 Y76.2 I-3.5455 J3.1702
G1 Y139.7
G3 X656.0012 Y142.875 I-4.7562 J0.0
G3 X657.2161 Y146.05 I-3.5412 J3.175
G1 Y209.55
G3 X656.0012 Y212.725 I-4.7562 J0.0
G3 X657.2161 Y215.9 I-3.5412 J3.175
G1 Y279.4
G3 X656.0012 Y282.575 I-4.7562 J0.0
G3 X657.2161 Y285.75 I-3.5412 J3.175
G1 Y349.25
G3 X656.0012 Y352.425 I-4.7562 J0.0
G3 X657.2161 Y355.6 I-3.5412 J3.175
G1 Y419.1
G3 X656.0012 Y422.275 I-4.7562 J0.0
G3 X657.2161 Y425.45 I-3.5412 J3.175
G1 Y488.95
G3 X656.0012 Y492.125 I-4.7562 J0.0
G3 X657.2161 Y495.3 I-3.5412 J3.175
G1 Y558.8
G3 X656.9437 Y560.3864 I-4.7562 J0.0
G0 Z25.0
G0 X440.2915 Y561.975
G0 Z-1.9
G1 F120.0 Z-3.0
G3 F3000.0 X439.7464 Y558.8 I8.9735 J-3.175
G1 Y495.3
G3 X440.2915 Y492.125 I9.5186 J0.0
G3 X439.7464 Y488.95 I8.9735 J-3.175
G1 Y425.45
G3 X440.2915 Y422.275 I9.5186 J0.0
G3 X439.7464 Y419.1 I8.9735 J-3.175
G1 Y355.6
G3 X440.2915 Y352.425 I9.5186 J0.0
G3 X439.7464 Y349.25 I8.9735 J-3.175
G1 Y285.75
G3 X440.2915 Y282.575 I9.5186 J0.0
G3 X439.7464 Y279.4 I8.9735 J-3.175
G1 Y215.9
G3 X440.2915 Y212.725 I9.5186 J0.0
G3 X439.7464 Y209.55 I8.9735 J-3.175
G1 Y146.05
G3 X440.2915 Y142.875 I9.5186 J0.0
G3 X439.7464 Y139.7 I8.9735 J-3.175
G1 Y76.2
G3 X440.2882 Y73.0345 I9.5186 J0.0
G3 X439.74 Y69.85 I8.9769 J-3.1845
G1 Y9.525
G1 Y69.85
G3 X439.1953 Y73.025 I-9.525 J0.0
G3 X439.74 Y76.2 I-8.9803 J3.175
G1 Y139.7
G3 X439.1953 Y142.875 I-9.525 J0.0
G3 X439.74 Y146.05 I-8.9803 J3.175
G1 Y209.55
G3 X439.1953 Y212.725 I-9.525 J0.0
G3 X439.74 Y215.9 I-8.9803 J3.175
G1 Y279.4
G3 X439.1953 Y282.575 I-9.525 J0.0
G3 X439.74 Y285.75 I-8.9803 J3.175
G1 Y349.25
G3 X439.1953 Y352.425 I-9.525 J0.0
G3 X439.74 Y355.6 I-8.9803 J3.175
G1 Y419.1
G3 X439.1953 Y422.275 I-9.525 J0.0
G3 X439.74 Y425.45 I-8.9803 J3.175
G1 Y488.95
G3 X439.1953 Y492.125 I-9.525 J0.0
G3 X439.74 Y495.3 I-8.9803 J3.175
G1 Y558.8
G3 X439.1953 Y561.975 I-9.525 J0.0
G3 X439.74 Y565.15 I-8.9803 J3.175
G1 Y628.65
G3 X439.1953 Y631.825 I-9.525 J0.0
G3 X439.74 Y635.0 I-8.9803 J3.175
G1 Y720.725
G1 Y635.0
G3 X440.2882 Y631.8155 I9.525 J0.0
G3 X439.7464 Y628.65 I8.9769 J-3.1655
G1 Y565.15
G3 X440.2915 Y561.975 I9.5187 J0.0
G0 Z25.0
G0 X441.7881 Y562.5045
G0 Z-1.9
G1 F120.0 Z-3.0
G3 F3000.0 X441.9971 Y561.975 I7.4769 J2.6455
G3 X441.3339 Y558.8 I7.2679 J-3.175
G1 Y495.3
G3 X441.9971 Y492.125 I7.9312 J0.0
G3 X441.3339 Y488.95 I7.2679 J-3.175
G1 Y425.45
G3 X441.9971 Y422.275 I7.9312 J0.0
G3 X441.3339 Y419.1 I7.2679 J-3.175
G1 Y355.6
G3 X441.9971 Y352.425 I7.9312 J0.0
G3 X441.3339 Y349.25 I7.2679 J-3.175
G1 Y285.75
G3 X441.9971 Y282.575 I7.9312 J0.0
G3 X441.3339 Y279.4 I7.2679 J-3.175
G1 Y215.9
G3 X441.9971 Y212.725 I7.9312 J0.0
G3 X441.3339 Y209.55 I7.2679 J-3.175
G1 Y146.05
G3 X441.9971 Y142.875 I7.9312 J0.0
G3 X441.3339 Y139.7 I7.2679 J-3.175
G1 Y76.2
G3 X441.9937 Y73.0329 I7.9312 J0.0
G3 X441.3275 Y69.85 I7.2714 J-3.1829
G1 Y7.9375
G1 X438.1525
G1 Y69.85
G3 X437.4899 Y73.025 I-7.9375 J0.0
G3 X438.1525 Y76.2 I-7.2748 J3.175
G1 Y139.7
G3 X437.4899 Y142.875 I-7.9375 J0.0
G3 X438.1525 Y146.05 I-7.2748 J3.175
G1 Y209.55
G3 X437.4899 Y212.725 I-7.9375 J0.0
G3 X438.1525 Y215.9 I-7.2748 J3.175
G1 Y279.4
G3 X437.4899 Y282.575 I-7.9375 J0.0
G3 X438.1525 Y285.75 I-7.2748 J3.175
G1 Y349.25
G3 X437.4899 Y352.425 I-7.9375 J0.0
G3 X438.1525 Y355.6 I-7.2748 J3.175
G1 Y419.1
G3 X437.4899 Y422.275 I-7.9375 J0.0
G3 X438.1525 Y425.45 I-7.2748 J3.175
G1 Y488.95
G3 X437.4899 Y492.125 I-7.9375 J0.0
G3 X438.1525 Y495.3 I-7.2748 J3.175
G1 Y558.8
G3 X437.4899 Y561.975 I-7.9375 J0.0
G3 X438.1525 Y565.15 I-7.2748 J3.175
G1 Y628.65
G3 X437.4899 Y631.825 I-7.9375 J0.0
G3 X438.1525 Y635.0 I-7.2748 J3.175
G1 Y722.3125
G1 X441.3275
G1 Y635.0
G3 X441.9937 Y631.8171 I7.9375 J0.0
G3 X441.3339 Y628.65 I7.2714 J-3.1671
G1 Y565.15
G3 X441.7881 Y562.5045 I7.9312 J0.0
G0 Z25.0
G0 X444.7813 Y563.5636
G0 Z-1.9
G1 F120.0 Z-3.0
G3 F3000.0 X445.7238 Y561.975 I4.4838 J1.5864
G3 X444.5089 Y558.8 I3.5412 J-3.175
G1 Y495.3
G3 X445.7238 Y492.125 I4.7561 J0.0
G3 X444.5089 Y488.95 I3.5412 J-3.175
G1 Y425.45
G3 X445.7238 Y422.275 I4.7561 J0.0
G3 X444.5089 Y419.1 I3.5412 J-3.175
G1 Y355.6
G3 X445.7238 Y352.425 I4.7561 J0.0
G3 X444.5089 Y349.25 I3.5412 J-3.175
G1 Y285.75
G3 X445.7238 Y282.575 I4.7561 J0.0
G3 X444.5089 Y279.4 I3.5412 J-3.175
G1 Y215.9
G3 X445.7238 Y212.725 I4.7561 J0.0
G3 X444.5089 Y209.55 I3.5412 J-3.175
G1 Y146.05
G3 X445.7238 Y142.875 I4.7561 J0.0
G3 X444.5089 Y139.7 I3.5412 J-3.175
G1 Y76.2
G3 X445.7195 Y73.0298 I4.7561 J0.0
G3 X444.5025 Y69.85 I3.5455 J-3.1798
G1 Y4.7625
G1 X434.9775
G1 Y69.85
G3 X433.7648 Y73.025 I-4.7625 J0.0
G3 X434.9775 Y76.2 I-3.5498 J3.175
G1 Y139.7
G3 X433.7648 Y142.875 I-4.7625 J0.0
G3 X434.9775 Y146.05 I-3.5498 J3.175
G1 Y209.55
G3 X433.7648 Y212.725 I-4.7625 J0.0
G3 X434.9775 Y215.9 I-3.5498 J3.175
G1 Y279.4
G3 X433.7648 Y282.575 I-4.7625 J0.0
G3 X434.9775 Y285.75 I-3.5498 J3.175
G1 Y349.25
G3 X433.7648 Y352.425 I-4.7625 J0.0
G3 X434.9775 Y355.6 I-3.5498 J3.175
G1 Y419.1
G3 X433.7648 Y422.275 I-4.7625 J0.0
G3 X434.9775 Y425.45 I-3.5498 J3.175
G1 Y488.95
G3 X433.7648 Y492.125 I-4.7625 J0.0
G3 X434.9775 Y495.3 I-3.5498 J3.175
G1 Y558.8
G3 X433.7648 Y561.975 I-4.7625 J0.0
G3 X434.9775 Y565.15 I-3.5498 J3.175
G1 Y628.65
G3 X433.7648 Y631.825 I-4.7625 J0.0
G3 X434.9775 Y635.0 I-3.5498 J3.175
G1 Y725.4875
G1 X444.5025
G1 Y635.0
G3 X445.7195 Y631.8202 I4.7625 J0.0
G3 X444.5089 Y628.65 I3.5455 J-3.1702
G1 Y565.15
G3 X444.7813 Y563.5636 I4.7562 J0.0
G0 Z25.0
G0 X431.7932 Y564.9781
G0 Z-1.9
G1 F120.0 Z-3.0
G3 F3000.0 X431.8025 Y565.15 I-1.5782 J0.1719
G1 Y628.65
G3 X430.215 Y630.2375 I-1.5875 J0.0
G1 X1.5875
G1 Y633.4125
G1 X430.215
G3 X431.8025 Y635.0 I0.0 J1.5875
G1 Y728.6625
G1 X447.6775
G1 Y635.0
G3 X449.265 Y633.4125 I1.5875 J0.0
G1 X652.46
G3 X654.0475 Y635.0 I0.0 J1.5875
G1 Y728.6625
G1 X669.9225
G1 Y635.0
G3 X671.51 Y633.4125 I1.5875 J0.0
G1 X1100.1375
G1 Y630.2375
G1 X671.51
G3 X669.9225 Y628.65 I0.0 J-1.5875
G1 Y565.15
G3 X671.51 Y563.5625 I1.5875 J0.0
G1 X1100.1375
G1 Y560.3875
G1 X671.51
G3 X669.9225 Y558.8 I0.0 J-1.5875
G1 Y495.3
G3 X671.51 Y493.7125 I1.5875 J0.0
G1 X1100.1375
G1 Y490.5375
G1 X671.51
G3 X669.9225 Y488.95 I0.0 J-1.5875
G1 Y425.45
G3 X671.51 Y423.8625 I1.5875 J0.0
G1 X1100.1375
G1 Y420.6875
G1 X671.51
G3 X669.9225 Y419.1 I0.0 J-1.5875
G1 Y355.6
G3 X671.51 Y354.0125 I1.5875 J0.0
G1 X1100.1375
G1 Y350.8375
G1 X671.51
G3 X669.9225 Y349.25 I0.0 J-1.5875
G1 Y285.75
G3 X671.51 Y284.1625 I1.5875 J0.0
G1 X1100.1375
G1 Y280.9875
G1 X671.51
G3 X669.9225 Y279.4 I0.0 J-1.5875
G1 Y215.9
G3 X671.51 Y214.3125 I1.5875 J0.0
G1 X1100.1375
G1 Y211.1375
G1 X671.51
G3 X669.9225 Y209.55 I0.0 J-1.5875
G1 Y146.05
G3 X671.51 Y144.4625 I1.5875 J0.0
G1 X1100.1375
G1 Y141.2875
G1 X671.51
G3 X669.9225 Y139.7 I0.0 J-1.5875
G1 Y76.2
G3 X671.51 Y74.6125 I1.5875 J0.0
G1 X1100.1375
G1 Y71.4375
G1 X671.51
G3 X669.9225 Y69.85 I0.0 J-1.5875
G1 Y1.5875
G1 X654.0475
G1 Y69.85
G3 X652.46 Y71.4375 I-1.5875 J0.0
G1 X449.265
G3 X447.6775 Y69.85 I0.0 J-1.5875
G1 Y1.5875
G1 X431.8025
G1 Y69.85
G3 X430.215 Y71.4375 I-1.5875 J0.0
G1 X1.5875
G1 Y74.6125
G1 X430.215
G3 X431.8025 Y76.2 I0.0 J1.5875
G1 Y139.7
G3 X430.215 Y141.2875 I-1.5875 J0.0
G1 X1.5875
G1 Y144.4625
G1 X430.215
G3 X431.8025 Y146.05 I0.0 J1.5875
G1 Y209.55
G3 X430.215 Y211.1375 I-1.5875 J0.0
G1 X1.5875
G1 Y214.3125
G1 X430.215
G3 X431.8025 Y215.9 I0.0 J1.5875
G1 Y279.4
G3 X430.215 Y280.9875 I-1.5875 J0.0
G1 X1.5875
G1 Y284.1625
G1 X430.215
G3 X431.8025 Y285.75 I0.0 J1.5875
G1 Y349.25
G3 X430.215 Y350.8375 I-1.5875 J0.0
G1 X1.5875
G1 Y354.0125
G1 X430.215
G3 X431.8025 Y355.6 I0.0 J1.5875
G1 Y419.1
G3 X430.215 Y420.6875 I-1.5875 J0.0
G1 X1.5875
G1 Y423.8625
G1 X430.215
G3 X431.8025 Y425.45 I0.0 J1.5875
G1 Y488.95
G3 X430.215 Y490.5375 I-1.5875 J0.0
G1 X1.5875
G1 Y493.7125
G1 X430.215
G3 X431.8025 Y495.3 I0.0 J1.5875
G1 Y558.8
G3 X430.215 Y560.3875 I-1.5875 J0.0
G1 X1.5875
G1 Y563.5625
G1 X430.215
G3 X431.7932 Y564.9781 I0.0 J1.5875
G0 Z25.0
G0 X448.9095 Y490.4972
G0 Z-1.9
G1 F120.0 Z-3.0
G3 F3000.0 X447.6775 Y488.95 I0.3556 J-1.5472
G1 Y425.45
G3 X449.265 Y423.8625 I1.5875 J0.0
G1 X652.46
G3 X654.0475 Y425.45 I0.0 J1.5875
G1 Y488.95
G3 X652.46 Y490.5375 I-1.5875 J0.0
G1 X449.265
G3 X448.9095 Y490.4972 I0.0 J-1.5875
G0 Z25.0
G0 X449.2571 Y420.6875
G0 Z-1.9
G1 F120.0 Z-3.0
G3 F3000.0 X447.6775 Y419.1 I0.0079 J-1.5875
G1 Y355.6
G3 X449.265 Y354.0125 I1.5875 J0.0
G1 X652.46
G3 X654.0475 Y355.6 I0.0 J1.5875
G1 Y419.1
G3 X652.46 Y420.6875 I-1.5875 J0.0
G1 X449.265
G3 X449.2571 I0.0 J-1.5875
G0 Z25.0
G0 X449.2649 Y350.8375
G0 Z-1.9
G1 F120.0 Z-3.0
G3 F3000.0 X447.6775 Y349.25 I0.0002 J-1.5875
G1 Y285.75
G3 X449.265 Y284.1625 I1.5875 J0.0
G1 X652.46
G3 X654.0475 Y285.75 I0.0 J1.5875
G1 Y349.25
G3 X652.46 Y350.8375 I-1.5875 J0.0
G1 X449.265
G3 X449.2649 I0.0 J-1.5875
G0 Z25.0
G0 X449.265 Y280.9875
G0 Z-1.9
G1 F120.0 Z-3.0
G3 F3000.0 X447.6775 Y279.4 I0.0 J-1.5875
G1 Y215.9
G3 X449.265 Y214.3125 I1.5875 J0.0
G1 X652.46
G3 X654.0475 Y215.9 I0.0 J1.5875
G1 Y279.4
G3 X652.46 Y280.9875 I-1.5875 J0.0
G1 X449.265
G0 Z25.0
G0 Y211.1375
G0 Z-1.9
G1 F120.0 Z-3.0
G3 F3000.0 X447.6775 Y209.55 I0.0 J-1.5875
G1 Y146.05
G3 X449.265 Y144.4625 I1.5875 J0.0
G1 X652.46
G3 X654.0475 Y146.05 I0.0 J1.5875
G1 Y209.55
G3 X652.46 Y211.1375 I-1.5875 J0.0
G1 X449.265
G0 Z25.0
G0 Y141.2875
G0 Z-1.9
G1 F120.0 Z-3.0
G3 F3000.0 X447.6775 Y139.7 I0.0 J-1.5875
G1 Y76.2
G3 X449.265 Y74.6125 I1.5875 J0.0
G1 X652.46
G3 X654.0475 Y76.2 I0.0 J1.5875
G1 Y139.7
G3 X652.46 Y141.2875 I-1.5875 J0.0
G1 X449.265
G1 F120.0 Z-4.0
G3 F3000.0 X447.6775 Y139.7 I0.0 J-1.5875
G1 Y76.2
G3 X449.265 Y74.6125 I1.5875 J0.0
G1 X652.46
G3 X654.0475 Y76.2 I0.0 J1.5875
G1 Y139.7
G3 X652.46 Y141.2875 I-1.5875 J0.0
G1 X449.265
G0 Z25.0
G0 Y144.4625
G0 Z-2.9
G1 F120.0 Z-4.0
G1 F3000.0 X652.46
G3 X654.0475 Y146.05 I0.0 J1.5875
G1 Y209.55
G3 X652.46 Y211.1375 I-1.5875 J0.0
G1 X449.265
G3 X447.6775 Y209.55 I0.0 J-1.5875
G1 Y146.05
G3 X449.265 Y144.4625 I1.5875 J0.0
G0 Z25.0
G0 X440.2915 Y142.875
G0 Z-2.9
G1 F120.0 Z-4.0
G3 F3000.0 X439.7464 Y139.7 I8.9735 J-3.175
G1 Y76.2
G3 X440.2882 Y73.0345 I9.5186 J0.0
G3 X439.74 Y69.85 I8.9769 J-3.1845
G1 Y9.525
G1 Y69.85
G3 X439.1953 Y73.025 I-9.525 J0.0
G3 X439.74 Y76.2 I-8.9803 J3.175
G1 Y139.7
G3 X439.1953 Y142.875 I-9.525 J0.0
G3 X439.74 Y146.05 I-8.9803 J3.175
G1 Y209.55
G3 X439.1953 Y212.725 I-9.525 J0.0
G3 X439.74 Y215.9 I-8.9803 J3.175
G1 Y279.4
G3 X439.1953 Y282.575 I-9.525 J0.0
G3 X439.74 Y285.75 I-8.9803 J3.175
G1 Y349.25
G3 X439.1953 Y352.425 I-9.525 J0.0
G3 X439.74 Y355.6 I-8.9803 J3.175
G1 Y419.1
G3 X439.1953 Y422.275 I-9.525 J0.0
G3 X439.74 Y425.45 I-8.9803 J3.175
G1 Y488.95
G3 X439.1953 Y492.125 I-9.525 J0.0
G3 X439.74 Y495.3 I-8.9803 J3.175
G1 Y558.8
G3 X439.1953 Y561.975 I-9.525 J0.0
G3 X439.74 Y565.15 I-8.9803 J3.175
G1 Y628.65
G3 X439.1953 Y631.825 I-9.525 J0.0
G3 X439.74 Y635.0 I-8.9803 J3.175
G1 Y720.725
G1 Y635.0
G3 X440.2882 Y631.8155 I9.525 J0.0
G3 X439.7464 Y628.65 I8.9769 J-3.1655
G1 Y565.15
G3 X440.2915 Y561.975 I9.5187 J0.0
G3 X439.7464 Y558.8 I8.9735 J-3.175
G1 Y495.3
G3 X440.2915 Y492.125 I9.5186 J0.0
G3 X439.7464 Y488.95 I8.9735 J-3.175
G1 Y425.45
G3 X440.2915 Y422.275 I9.5186 J0.0
G3 X439.7464 Y419.1 I8.9735 J-3.175
G1 Y355.6
G3 X440.2915 Y352.425 I9.5186 J0.0
G3 X439.7464 Y349.25 I8.9735 J-3.175
G1 Y285.75
G3 X440.2915 Y282.575 I9.5186 J0.0
G3 X439.7464 Y279.4 I8.9735 J-3.175
G1 Y215.9
G3 X440.2915 Y212.725 I9.5186 J0.0
G3 X439.7464 Y209.55 I8.9735 J-3.175
G1 Y146.05
G3 X440.2915 Y142.875 I9.5186 J0.0
G0 Z25.0
G0 X441.7881 Y143.4045
G0 Z-2.9
G1 F120.0 Z-4.0
G3 F3000.0 X441.9971 Y142.875 I7.4769 J2.6455
G3 X441.3339 Y139.7 I7.2679 J-3.175
G1 Y76.2
G3 X441.9937 Y73.0329 I7.9312 J0.0
G3 X441.3275 Y69.85 I7.2714 J-3.1829
G1 Y7.9375
G1 X438.1525
G1 Y69.85
G3 X437.4899 Y73.025 I-7.9375 J0.0
G3 X438.1525 Y76.2 I-7.2748 J3.175
G1 Y139.7
G3 X437.4899 Y142.875 I-7.9375 J0.0
G3 X438.1525 Y146.05 I-7.2748 J3.175
G1 Y209.55
G3 X437.4899 Y212.725 I-7.9375 J0.0
G3 X438.1525 Y215.9 I-7.2748 J3.175
G1 Y279.4
G3 X437.4899 Y282.575 I-7.9375 J0.0
G3 X438.1525 Y285.75 I-7.2748 J3.175
G1 Y349.25
G3 X437.4899 Y352.425 I-7.9375 J0.0
G3 X438.1525 Y355.6 I-7.2748 J3.175
G1 Y419.1
G3 X437.4899 Y422.275 I-7.9375 J0.0
G3 X438.1525 Y425.45 I-7.2748 J3.175
G1 Y488.95
G3 X437.4899 Y492.125 I-7.9375 J0.0
G3 X438.1525 Y495.3 I-7.2748 J3.175
G1 Y558.8
G3 X437.4899 Y561.975 I-7.9375 J0.0
G3 X438.1525 Y565.15 I-7.2748 J3.175
G1 Y628.65
G3 X437.4899 Y631.825 I-7.9375 J0.0
G3 X438.1525 Y635.0 I-7.2748 J3.175
G1 Y722.3125
G1 X441.3275
G1 Y635.0
G3 X441.9937 Y631.8171 I7.9375 J0.0
G3 X441.3339 Y628.65 I7.2714 J-3.1671
G1 Y565.15
G3 X441.9971 Y561.975 I7.9312 J0.0
G3 X441.3339 Y558.8 I7.2679 J-3.175
G1 Y495.3
G3 X441.9971 Y492.125 I7.9312 J0.0
G3 X441.3339 Y488.95 I7.2679 J-3.175
G1 Y425.45
G3 X441.9971 Y422.275 I7.9312 J0.0
G3 X441.3339 Y419.1 I7.2679 J-3.175
G1 Y355.6
G3 X441.9971 Y352.425 I7.9312 J0.0
G3 X441.3339 Y349.25 I7.2679 J-3.175
G1 Y285.75
G3 X441.9971 Y282.575 I7.9312 J0.0
G3 X441.3339 Y279.4 I7.2679 J-3.175
G1 Y215.9
G3 X441.9971 Y212.725 I7.9312 J0.0
G3 X441.3339 Y209.55 I7.2679 J-3.175
G1 Y146.05
G3 X441.7881 Y143.4045 I7.9312 J0.0
G0 Z25.0
G0 X444.7813 Y144.4636
G0 Z-2.9
G1 F120.0 Z-4.0
G3 F3000.0 X445.7238 Y142.875 I4.4838 J1.5864
G3 X444.5089 Y139.7 I3.5412 J-3.175
G1 Y76.2
G3 X445.7195 Y73.0298 I4.7561 J0.0
G3 X444.5025 Y69.85 I3.5455 J-3.1798
G1 Y4.7625
G1 X434.9775
G1 Y69.85
G3 X433.7648 Y73.025 I-4.7625 J0.0
G3 X434.9775 Y76.2 I-3.5498 J3.175
G1 Y139.7
G3 X433.7648 Y142.875 I-4.7625 J0.0
G3 X434.9775 Y146.05 I-3.5498 J3.175
G1 Y209.55
G3 X433.7648 Y212.725 I-4.7625 J0.0
G3 X434.9775 Y215.9 I-3.5498 J3.175
G1 Y279.4
G3 X433.7648 Y282.575 I-4.7625 J0.0
G3 X434.9775 Y285.75 I-3.5498 J3.175
G1 Y349.25
G3 X433.7648 Y352.425 I-4.7625 J0.0
G3 X434.9775 Y355.6 I-3.5498 J3.175
G1 Y419.1
G3 X433.7648 Y422.275 I-4.7625 J0.0
G3 X434.9775 Y425.45 I-3.5498 J3.175
G1 Y488.95
G3 X433.7648 Y492.125 I-4.7625 J0.0
G3 X434.9775 Y495.3 I-3.5498 J3.175
G1 Y558.8
G3 X433.7648 Y561.975 I-4.7625 J0.0
G3 X434.9775 Y565.15 I-3.5498 J3.175
G1 Y628.65
G3 X433.7648 Y631.825 I-4.7625 J0.0
G3 X434.9775 Y635.0 I-3.5498 J3.175
G1 Y725.4875
G1 X444.5025
G1 Y635.0
G3 X445.7195 Y631.8202 I4.7625 J0.0
G3 X444.5089 Y628.65 I3.5455 J-3.1702
G1 Y565.15
G3 X445.7238 Y561.975 I4.7562 J0.0
G3 X444.5089 Y558.8 I3.5412 J-3.175
G1 Y495.3
G3 X445.7238 Y492.125 I4.7561 J0.0
G3 X444.5089 Y488.95 I3.5412 J-3.175
G1 Y425.45
G3 X445.7238 Y422.275 I4.7561 J0.0
G3 X444.5089 Y419.1 I3.5412 J-3.175
G1 Y355.6
G3 X445.7238 Y352.425 I4.7561 J0.0
G3 X444.5089 Y349.25 I3.5412 J-3.175
G1 Y285.75
G3 X445.7238 Y282.575 I4.7561 J0.0
G3 X444.5089 Y279.4 I3.5412 J-3.175
G1 Y215.9
G3 X445.7238 Y212.725 I4.7561 J0.0
G3 X444.5089 Y209.55 I3.5412 J-3.175
G1 Y146.05
G3 X444.7813 Y144.4636 I4.7561 J0.0
G0 Z25.0
G0 X661.4335 Y142.875
G0 Z-2.9
G1 F120.0 Z-4.0
G3 F3000.0 X661.9786 Y146.05 I-8.9735 J3.175
G1 Y209.55
G3 X661.4335 Y212.725 I-9.5186 J0.0
G3 X661.9786 Y215.9 I-8.9735 J3.175
G1 Y279.4
G3 X661.4335 Y282.575 I-9.5186 J0.0
G3 X661.9786 Y285.75 I-8.9735 J3.175
G1 Y349.25
G3 X661.4335 Y352.425 I-9.5186 J0.0
G3 X661.9786 Y355.6 I-8.9735 J3.175
G1 Y419.1
G3 X661.4335 Y422.275 I-9.5186 J0.0
G3 X661.9786 Y425.45 I-8.9735 J3.175
G1 Y488.95
G3 X661.4335 Y492.125 I-9.5186 J0.0
G3 X661.9786 Y495.3 I-8.9735 J3.175
G1 Y558.8
G3 X661.4335 Y561.975 I-9.5186 J0.0
G3 X661.9786 Y565.15 I-8.9735 J3.175
G1 Y628.65
G3 X661.4368 Y631.8155 I-9.5186 J0.0
G3 X661.985 Y635.0 I-8.9769 J3.1845
G1 Y720.725
G1 Y635.0
G3 X662.5297 Y631.825 I9.525 J0.0
G3 X661.985 Y628.65 I8.9803 J-3.175
G1 Y565.15
G3 X662.5297 Y561.975 I9.525 J0.0
G3 X661.985 Y558.8 I8.9803 J-3.175
G1 Y495.3
G3 X662.5297 Y492.125 I9.525 J0.0
G3 X661.985 Y488.95 I8.9803 J-3.175
G1 Y425.45
G3 X662.5297 Y422.275 I9.525 J0.0
G3 X661.985 Y419.1 I8.9803 J-3.175
G1 Y355.6
G3 X662.5297 Y352.425 I9.525 J0.0
G3 X661.985 Y349.25 I8.9803 J-3.175
G1 Y285.75
G3 X662.5297 Y282.575 I9.525 J0.0
G3 X661.985 Y279.4 I8.9803 J-3.175
G1 Y215.9
G3 X662.5297 Y212.725 I9.525 J0.0
G3 X661.985 Y209.55 I8.9803 J-3.175
G1 Y146.05
G3 X662.5297 Y142.875 I9.525 J0.0
G3 X661.985 Y139.7 I8.9803 J-3.175
G1 Y76.2
G3 X662.5297 Y73.025 I9.525 J0.0
G3 X661.985 Y69.85 I8.9803 J-3.175
G1 Y9.525
G1 Y69.85
G3 X661.4368 Y73.0345 I-9.525 J0.0
G3 X661.9786 Y76.2 I-8.9769 J3.1655
G1 Y139.7
G3 X661.4335 Y142.875 I-9.5186 J0.0
G0 Z25.0
G0 X659.9369 Y142.3455
G0 Z-2.9
G1 F120.0 Z-4.0
G3 F3000.0 X659.7279 Y142.875 I-7.4769 J-2.6455
G3 X660.3911 Y146.05 I-7.2679 J3.175
G1 Y209.55
G3 X659.7279 Y212.725 I-7.9312 J0.0
G3 X660.3911 Y215.9 I-7.2679 J3.175
G1 Y279.4
G3 X659.7279 Y282.575 I-7.9312 J0.0
G3 X660.3911 Y285.75 I-7.2679 J3.175
G1 Y349.25
G3 X659.7279 Y352.425 I-7.9312 J0.0
G3 X660.3911 Y355.6 I-7.2679 J3.175
G1 Y419.1
G3 X659.7279 Y422.275 I-7.9312 J0.0
G3 X660.3911 Y425.45 I-7.2679 J3.175
G1 Y488.95
G3 X659.7279 Y492.125 I-7.9312 J0.0
G3 X660.3911 Y495.3 I-7.2679 J3.175
G1 Y558.8
G3 X659.7279 Y561.975 I-7.9312 J0.0
G3 X660.3911 Y565.15 I-7.2679 J3.175
G1 Y628.65
G3 X659.7313 Y631.8171 I-7.9312 J0.0
G3 X660.3975 Y635.0 I-7.2714 J3.1829
G1 Y722.3125
G1 X663.5725
G1 Y635.0
G3 X664.2351 Y631.825 I7.9375 J0.0
G3 X663.5725 Y628.65 I7.2748 J-3.175
G1 Y565.15
G3 X664.2351 Y561.975 I7.9375 J0.0
G3 X663.5725 Y558.8 I7.2748 J-3.175
G1 Y495.3
G3 X664.2351 Y492.125 I7.9375 J0.0
G3 X663.5725 Y488.95 I7.2748 J-3.175
G1 Y425.45
G3 X664.2351 Y422.275 I7.9375 J0.0
G3 X663.5725 Y419.1 I7.2748 J-3.175
G1 Y355.6
G3 X664.2351 Y352.425 I7.9375 J0.0
G3 X663.5725 Y349.25 I7.2748 J-3.175
G1 Y285.75
G3 X664.2351 Y282.575 I7.9375 J0.0
G3 X663.5725 Y279.4 I7.2748 J-3.175
G1 Y215.9
G3 X664.2351 Y212.725 I7.9375 J0.0
G3 X663.5725 Y209.55 I7.2748 J-3.175
G1 Y146.05
G3 X664.2351 Y142.875 I7.9375 J0.0
G3 X663.5725 Y139.7 I7.2748 J-3.175
G1 Y76.2
G3 X664.2351 Y73.025 I7.9375 J0.0
G3 X663.5725 Y69.85 I7.2748 J-3.175
G1 Y7.9375
G1 X660.3975
G1 Y69.85
G3 X659.7313 Y73.0329 I-7.9375 J0.0
G3 X660.3911 Y76.2 I-7.2714 J3.1671
G1 Y139.7
G3 X659.9369 Y142.3455 I-7.9312 J0.0
G0 Z25.0
G0 X656.9437 Y141.2864
G0 Z-2.9
G1 F120.0 Z-4.0
G3 F3000.0 X656.0012 Y142.875 I-4.4838 J-1.5864
G3 X657.2161 Y146.05 I-3.5412 J3.175
G1 Y209.55
G3 X656.0012 Y212.725 I-4.7562 J0.0
G3 X657.2161 Y215.9 I-3.5412 J3.175
G1 Y279.4
G3 X656.0012 Y282.575 I-4.7562 J0.0
G3 X657.2161 Y285.75 I-3.5412 J3.175
G1 Y349.25
G3 X656.0012 Y352.425 I-4.7562 J0.0
G3 X657.2161 Y355.6 I-3.5412 J3.175
G1 Y419.1
G3 X656.0012 Y422.275 I-4.7562 J0.0
G3 X657.2161 Y425.45 I-3.5412 J3.175
G1 Y488.95
G3 X656.0012 Y492.125 I-4.7562 J0.0
G3 X657.2161 Y495.3 I-3.5412 J3.175
G1 Y558.8
G3 X656.0012 Y561.975 I-4.7562 J0.0
G3 X657.2161 Y565.15 I-3.5412 J3.175
G1 Y628.65
G3 X656.0055 Y631.8202 I-4.7562 J0.0
G3 X657.2225 Y635.0 I-3.5455 J3.1798
G1 Y725.4875
G1 X666.7475
G1 Y635.0
G3 X667.9602 Y631.825 I4.7625 J0.0
G3 X666.7475 Y628.65 I3.5498 J-3.175
G1 Y565.15
G3 X667.9602 Y561.975 I4.7625 J0.0
G3 X666.7475 Y558.8 I3.5498 J-3.175
G1 Y495.3
G3 X667.9602 Y492.125 I4.7625 J0.0
G3 X666.7475 Y488.95 I3.5498 J-3.175
G1 Y425.45
G3 X667.9602 Y422.275 I4.7625 J0.0
G3 X666.7475 Y419.1 I3.5498 J-3.175
G1 Y355.6
G3 X667.9602 Y352.425 I4.7625 J0.0
G3 X666.7475 Y349.25 I3.5498 J-3.175
G1 Y285.75
G3 X667.9602 Y282.575 I4.7625 J0.0
G3 X666.7475 Y279.4 I3.5498 J-3.175
G1 Y215.9
G3 X667.9602 Y212.725 I4.7625 J0.0
G3 X666.7475 Y209.55 I3.5498 J-3.175
G1 Y146.05
G3 X667.9602 Y142.875 I4.7625 J0.0
G3 X666.7475 Y139.7 I3.5498 J-3.175
G1 Y76.2
G3 X667.9602 Y73.025 I4.7625 J0.0
G3 X666.7475 Y69.85 I3.5498 J-3.175
G1 Y4.7625
G1 X657.2225
G1 Y69.85
G3 X656.0055 Y73.0298 I-4.7625 J0.0
G3 X657.2161 Y76.2 I-3.5455 J3.1702
G1 Y139.7
G3 X656.9437 Y141.2864 I-4.7562 J0.0
G0 Z25.0
G0 X669.9318 Y139.8719
G0 Z-2.9
G1 F120.0 Z-4.0
G3 F3000.0 X669.9225 Y139.7 I1.5782 J-0.1719
G1 Y76.2
G3 X671.51 Y74.6125 I1.5875 J0.0
G1 X1100.1375
G1 Y71.4375
G1 X671.51
G3 X669.9225 Y69.85 I0.0 J-1.5875
G1 Y1.5875
G1 X654.0475
G1 Y69.85
G3 X652.46 Y71.4375 I-1.5875 J0.0
G1 X449.265
G3 X447.6775 Y69.85 I0.0 J-1.5875
G1 Y1.5875
G1 X431.8025
G1 Y69.85
G3 X430.215 Y71.4375 I-1.5875 J0.0
G1 X1.5875
G1 Y74.6125
G1 X430.215
G3 X431.8025 Y76.2 I0.0 J1.5875
G1 Y139.7
G3 X430.215 Y141.2875 I-1.5875 J0.0
G1 X1.5875
G1 Y144.4625
G1 X430.215
G3 X431.8025 Y146.05 I0.0 J1.5875
G1 Y209.55
G3 X430.215 Y211.1375 I-1.5875 J0.0
G1 X1.5875
G1 Y214.3125
G1 X430.215
G3 X431.8025 Y215.9 I0.0 J1.5875
G1 Y279.4
G3 X430.215 Y280.9875 I-1.5875 J0.0
G1 X1.5875
G1 Y284.1625
G1 X430.215
G3 X431.8025 Y285.75 I0.0 J1.5875
G1 Y349.25
G3 X430.215 Y350.8375 I-1.5875 J0.0
G1 X1.5875
G1 Y354.0125
G1 X430.215
G3 X431.8025 Y355.6 I0.0 J1.5875
G1 Y419.1
G3 X430.215 Y420.6875 I-1.5875 J0.0
G1 X1.5875
G1 Y423.8625
G1 X430.215
G3 X431.8025 Y425.45 I0.0 J1.5875
G1 Y488.95
G3 X430.215 Y490.5375 I-1.5875 J0.0
G1 X1.5875
G1 Y493.7125
G1 X430.215
G3 X431.8025 Y495.3 I0.0 J1.5875
G1 Y558.8
G3 X430.215 Y560.3875 I-1.5875 J0.0
G1 X1.5875
G1 Y563.5625
G1 X430.215
G3 X431.8025 Y565.15 I0.0 J1.5875
G1 Y628.65
G3 X430.215 Y630.2375 I-1.5875 J0.0
G1 X1.5875
G1 Y633.4125
G1 X430.215
G3 X431.8025 Y635.0 I0.0 J1.5875
G1 Y728.6625
G1 X447.6775
G1 Y635.0
G3 X449.265 Y633.4125 I1.5875 J0.0
G1 X652.46
G3 X654.0475 Y635.0 I0.0 J1.5875
G1 Y728.6625
G1 X669.9225
G1 Y635.0
G3 X671.51 Y633.4125 I1.5875 J0.0
G1 X1100.1375
G1 Y630.2375
G1 X671.51
G3 X669.9225 Y628.65 I0.0 J-1.5875
G1 Y565.15
G3 X671.51 Y563.5625 I1.5875 J0.0
G1 X1100.1375
G1 Y560.3875
G1 X671.51
G3 X669.9225 Y558.8 I0.0 J-1.5875
G1 Y495.3
G3 X671.51 Y493.7125 I1.5875 J0.0
G1 X1100.1375
G1 Y490.5375
G1 X671.51
G3 X669.9225 Y488.95 I0.0 J-1.5875
G1 Y425.45
G3 X671.51 Y423.8625 I1.5875 J0.0
G1 X1100.1375
G1 Y420.6875
G1 X671.51
G3 X669.9225 Y419.1 I0.0 J-1.5875
G1 Y355.6
G3 X671.51 Y354.0125 I1.5875 J0.0
G1 X1100.1375
G1 Y350.8375
G1 X671.51
G3 X669.9225 Y349.25 I0.0 J-1.5875
G1 Y285.75
G3 X671.51 Y284.1625 I1.5875 J0.0
G1 X1100.1375
G1 Y280.9875
G1 X671.51
G3 X669.9225 Y279.4 I0.0 J-1.5875
G1 Y215.9
G3 X671.51 Y214.3125 I1.5875 J0.0
G1 X1100.1375
G1 Y211.1375
G1 X671.51
G3 X669.9225 Y209.55 I0.0 J-1.5875
G1 Y146.05
G3 X671.51 Y144.4625 I1.5875 J0.0
G1 X1100.1375
G1 Y141.2875
G1 X671.51
G3 X669.9318 Y139.8719 I0.0 J-1.5875
G0 Z25.0
G0 X652.8155 Y214.3528
G0 Z-2.9
G1 F120.0 Z-4.0
G3 F3000.0 X654.0475 Y215.9 I-0.3556 J1.5472
G1 Y279.4
G3 X652.46 Y280.9875 I-1.5875 J0.0
G1 X449.265
G3 X447.6775 Y279.4 I0.0 J-1.5875
G1 Y215.9
G3 X449.265 Y214.3125 I1.5875 J0.0
G1 X652.46
G3 X652.8155 Y214.3528 I0.0 J1.5875
G0 Z25.0
G0 X652.4679 Y284.1625
G0 Z-2.9
G1 F120.0 Z-4.0
G3 F3000.0 X654.0475 Y285.75 I-0.0079 J1.5875
G1 Y349.25
G3 X652.46 Y350.8375 I-1.5875 J0.0
G1 X449.265
G3 X447.6775 Y349.25 I0.0 J-1.5875
G1 Y285.75
G3 X449.265 Y284.1625 I1.5875 J0.0
G1 X652.46
G3 X652.4679 I0.0 J1.5875
G0 Z25.0
G0 X652.4601 Y354.0125
G0 Z-2.9
G1 F120.0 Z-4.0
G3 F3000.0 X654.0475 Y355.6 I-0.0002 J1.5875
G1 Y419.1
G3 X652.46 Y420.6875 I-1.5875 J0.0
G1 X449.265
G3 X447.6775 Y419.1 I0.0 J-1.5875
G1 Y355.6
G3 X449.265 Y354.0125 I1.5875 J0.0
G1 X652.46
G3 X652.4601 I0.0 J1.5875
G0 Z25.0
G0 X652.46 Y423.8625
G0 Z-2.9
G1 F120.0 Z-4.0
G3 F3000.0 X654.0475 Y425.45 I0.0 J1.5875
G1 Y488.95
G3 X652.46 Y490.5375 I-1.5875 J0.0
G1 X449.265
G3 X447.6775 Y488.95 I0.0 J-1.5875
G1 Y425.45
G3 X449.265 Y423.8625 I1.5875 J0.0
G1 X652.46
G0 Z25.0
G0 Y493.7125
G0 Z-2.9
G1 F120.0 Z-4.0
G3 F3000.0 X654.0475 Y495.3 I0.0 J1.5875
G1 Y558.8
G3 X652.46 Y560.3875 I-1.5875 J0.0
G1 X449.265
G3 X447.6775 Y558.8 I0.0 J-1.5875
G1 Y495.3
G3 X449.265 Y493.7125 I1.5875 J0.0
G1 X652.46
G0 Z25.0
G0 Y563.5625
G0 Z-2.9
G1 F120.0 Z-4.0
G3 F3000.0 X654.0475 Y565.15 I0.0 J1.5875
G1 Y628.65
G3 X652.46 Y630.2375 I-1.5875 J0.0
G1 X449.265
G3 X447.6775 Y628.65 I0.0 J-1.5875
G1 Y565.15
G3 X449.265 Y563.5625 I1.5875 J0.0
G1 X652.46
G1 F120.0 Z-5.0
G3 F3000.0 X654.0475 Y565.15 I0.0 J1.5875
G1 Y628.65
G3 X652.46 Y630.2375 I-1.5875 J0.0
G1 X449.265
G3 X447.6775 Y628.65 I0.0 J-1.5875
G1 Y565.15
G3 X449.265 Y563.5625 I1.5875 J0.0
G1 X652.46
G0 Z25.0
G0 Y560.3875
G0 Z-3.9
G1 F120.0 Z-5.0
G1 F3000.0 X449.265
G3 X447.6775 Y558.8 I0.0 J-1.5875
G1 Y495.3
G3 X449.265 Y493.7125 I1.5875 J0.0
G1 X652.46
G3 X654.0475 Y495.3 I0.0 J1.5875
G1 Y558.8
G3 X652.46 Y560.3875 I-1.5875 J0.0
G0 Z25.0
G0 X661.4335 Y561.975
G0 Z-3.9
G1 F120.0 Z-5.0
G3 F3000.0 X661.9786 Y565.15 I-8.9735 J3.175
G1 Y628.65
G3 X661.4368 Y631.8155 I-9.5186 J0.0
G3 X661.985 Y635.0 I-8.9769 J3.1845
G1 Y720.725
G1 Y635.0
G3 X662.5297 Y631.825 I9.525 J0.0
G3 X661.985 Y628.65 I8.9803 J-3.175
G1 Y565.15
G3 X662.5297 Y561.975 I9.525 J0.0
G3 X661.985 Y558.8 I8.9803 J-3.175
G1 Y495.3
G3 X662.5297 Y492.125 I9.525 J0.0
G3 X661.985 Y488.95 I8.9803 J-3.175
G1 Y425.45
G3 X662.5297 Y422.275 I9.525 J0.0
G3 X661.985 Y419.1 I8.9803 J-3.175
G1 Y355.6
G3 X662.5297 Y352.425 I9.525 J0.0
G3 X661.985 Y349.25 I8.9803 J-3.175
G1 Y285.75
G3 X662.5297 Y282.575 I9.525 J0.0
G3 X661.985 Y279.4 I8.9803 J-3.175
G1 Y215.9
G3 X662.5297 Y212.725 I9.525 J0.0
G3 X661.985 Y209.55 I8.9803 J-3.175
G1 Y146.05
G3 X662.5297 Y142.875 I9.525 J0.0
G3 X661.985 Y139.7 I8.9803 J-3.175
G1 Y76.2
G3 X662.5297 Y73.025 I9.525 J0.0
G3 X661.985 Y69.85 I8.9803 J-3.175
G1 Y9.525
G1 Y69.85
G3 X661.4368 Y73.0345 I-9.525 J0.0
G3 X661.9786 Y76.2 I-8.9769 J3.1655
G1 Y139.7
G3 X661.4335 Y142.875 I-9.5186 J0.0
G3 X661.9786 Y146.05 I-8.9735 J3.175
G1 Y209.55
G3 X661.4335 Y212.725 I-9.5186 J0.0
G3 X661.9786 Y215.9 I-8.9735 J3.175
G1 Y279.4
G3 X661.4335 Y282.575 I-9.5186 J0.0
G3 X661.9786 Y285.75 I-8.9735 J3.175
G1 Y349.25
G3 X661.4335 Y352.425 I-9.5186 J0.0
G3 X661.9786 Y355.6 I-8.9735 J3.175
G1 Y419.1
G3 X661.4335 Y422.275 I-9.5186 J0.0
G3 X661.9786 Y425.45 I-8.9735 J3.175
G1 Y488.95
G3 X661.4335 Y492.125 I-9.5186 J0.0
G3 X661.9786 Y495.3 I-8.9735 J3.175
G1 Y558.8
G3 X661.4335 Y561.975 I-9.5186 J0.0
G0 Z25.0
G0 X659.9369 Y561.4455
G0 Z-3.9
G1 F120.0 Z-5.0
G3 F3000.0 X659.7279 Y561.975 I-7.4769 J-2.6455
G3 X660.3911 Y565.15 I-7.2679 J3.175
G1 Y628.65
G3 X659.7313 Y631.8171 I-7.9312 J0.0
G3 X660.3975 Y635.0 I-7.2714 J3.1829
G1 Y722.3125
G1 X663.5725
G1 Y635.0
G3 X664.2351 Y631.825 I7.9375 J0.0
G3 X663.5725 Y628.65 I7.2748 J-3.175
G1 Y565.15
G3 X664.2351 Y561.975 I7.9375 J0.0
G3 X663.5725 Y558.8 I7.2748 J-3.175
G1 Y495.3
G3 X664.2351 Y492.125 I7.9375 J0.0
G3 X663.5725 Y488.95 I7.2748 J-3.175
G1 Y425.45
G3 X664.2351 Y422.275 I7.9375 J0.0
G3 X663.5725 Y419.1 I7.2748 J-3.175
G1 Y355.6
G3 X664.2351 Y352.425 I7.9375 J0.0
G3 X663.5725 Y349.25 I7.2748 J-3.175
G1 Y285.75
G3 X664.2351 Y282.575 I7.9375 J0.0
G3 X663.5725 Y279.4 I7.2748 J-3.175
G1 Y215.9
G3 X664.2351 Y212.725 I7.9375 J0.0
G3 X663.5725 Y209.55 I7.2748 J-3.175
G1 Y146.05
G3 X664.2351 Y142.875 I7.9375 J0.0
G3 X663.5725 Y139.7 I7.2748 J-3.175
G1 Y76.2
G3 X664.2351 Y73.025 I7.9375 J0.0
G3 X663.5725 Y69.85 I7.2748 J-3.175
G1 Y7.9375
G1 X660.3975
G1 Y69.85
G3 X659.7313 Y73.0329 I-7.9375 J0.0
G3 X660.3911 Y76.2 I-7.2714 J3.1671
G1 Y139.7
G3 X659.7279 Y142.875 I-7.9312 J0.0
G3 X660.3911 Y146.05 I-7.2679 J3.175
G1 Y209.55
G3 X659.7279 Y212.725 I-7.9312 J0.0
G3 X660.3911 Y215.9 I-7.2679 J3.175
G1 Y279.4
G3 X659.7279 Y282.575 I-7.9312 J0.0
G3 X660.3911 Y285.75 I-7.2679 J3.175
G1 Y349.25
G3 X659.7279 Y352.425 I-7.9312 J0.0
G3 X660.3911 Y355.6 I-7.2679 J3.175
G1 Y419.1
G3 X659.7279 Y422.275 I-7.9312 J0.0
G3 X660.3911 Y425.45 I-7.2679 J3.175
G1 Y488.95
G3 X659.7279 Y492.125 I-7.9312 J0.0
G3 X660.3911 Y495.3 I-7.2679 J3.175
G1 Y558.8
G3 X659.9369 Y561.4455 I-7.9312 J0.0
G0 Z25.0
G0 X656.9437 Y560.3864
G0 Z-3.9
G1 F120.0 Z-5.0
G3 F3000.0 X656.0012 Y561.975 I-4.4838 J-1.5864
G3 X657.2161 Y565.15 I-3.5412 J3.175
G1 Y628.65
G3 X656.0055 Y631.8202 I-4.7562 J0.0
G3 X657.2225 Y635.0 I-3.5455 J3.1798
G1 Y725.4875
G1 X666.7475
G1 Y635.0
G3 X667.9602 Y631.825 I4.7625 J0.0
G3 X666.7475 Y628.65 I3.5498 J-3.175
G1 Y565.15
G3 X667.9602 Y561.975 I4.7625 J0.0
G3 X666.7475 Y558.8 I3.5498 J-3.175
G1 Y495.3
G3 X667.9602 Y492.125 I4.7625 J0.0
G3 X666.7475 Y488.95 I3.5498 J-3.175
G1 Y425.45
G3 X667.9602 Y422.275 I4.7625 J0.0
G3 X666.7475 Y419.1 I3.5498 J-3.175
G1 Y355.6
G3 X667.9602 Y352.425 I4.7625 J0.0
G3 X666.7475 Y349.25 I3.5498 J-3.175
G1 Y285.75
G3 X667.9602 Y282.575 I4.7625 J0.0
G3 X666.7475 Y279.4 I3.5498 J-3.175
G1 Y215.9
G3 X667.9602 Y212.725 I4.7625 J0.0
G3 X666.7475 Y209.55 I3.5498 J-3.175
G1 Y146.05
G3 X667.9602 Y142.875 I4.7625 J0.0
G3 X666.7475 Y139.7 I3.5498 J-3.175
G1 Y76.2
G3 X667.9602 Y73.025 I4.7625 J0.0
G3 X666.7475 Y69.85 I3.5498 J-3.175
G1 Y4.7625
G1 X657.2225
G1 Y69.85
G3 X656.0055 Y73.0298 I-4.7625 J0.0
G3 X657.2161 Y76.2 I-3.5455 J3.1702
G1 Y139.7
G3 X656.0012 Y142.875 I-4.7562 J0.0
G3 X657.2161 Y146.05 I-3.5412 J3.175
G1 Y209.55
G3 X656.0012 Y212.725 I-4.7562 J0.0
G3 X657.2161 Y215.9 I-3.5412 J3.175
G1 Y279.4
G3 X656.0012 Y282.575 I-4.7562 J0.0
G3 X657.2161 Y285.75 I-3.5412 J3.175
G1 Y349.25
G3 X656.0012 Y352.425 I-4.7562 J0.0
G3 X657.2161 Y355.6 I-3.5412 J3.175
G1 Y419.1
G3 X656.0012 Y422.275 I-4.7562 J0.0
G3 X657.2161 Y425.45 I-3.5412 J3.175
G1 Y488.95
G3 X656.0012 Y492.125 I-4.7562 J0.0
G3 X657.2161 Y495.3 I-3.5412 J3.175
G1 Y558.8
G3 X656.9437 Y560.3864 I-4.7562 J0.0
G0 Z25.0
G0 X440.2915 Y561.975
G0 Z-3.9
G1 F120.0 Z-5.0
G3 F3000.0 X439.7464 Y558.8 I8.9735 J-3.175
G1 Y495.3
G3 X440.2915 Y492.125 I9.5186 J0.0
G3 X439.7464 Y488.95 I8.9735 J-3.175
G1 Y425.45
G3 X440.2915 Y422.275 I9.5186 J0.0
G3 X439.7464 Y419.1 I8.9735 J-3.175
G1 Y355.6
G3 X440.2915 Y352.425 I9.5186 J0.0
G3 X439.7464 Y349.25 I8.9735 J-3.175
G1 Y285.75
G3 X440.2915 Y282.575 I9.5186 J0.0
G3 X439.7464 Y279.4 I8.9735 J-3.175
G1 Y215.9
G3 X440.2915 Y212.725 I9.5186 J0.0
G3 X439.7464 Y209.55 I8.9735 J-3.175
G1 Y146.05
G3 X440.2915 Y142.875 I9.5186 J0.0
G3 X439.7464 Y139.7 I8.9735 J-3.175
G1 Y76.2
G3 X440.2882 Y73.0345 I9.5186 J0.0
G3 X439.74 Y69.85 I8.9769 J-3.1845
G1 Y9.525
G1 Y69.85
G3 X439.1953 Y73.025 I-9.525 J0.0
G3 X439.74 Y76.2 I-8.9803 J3.175
G1 Y139.7
G3 X439.1953 Y142.875 I-9.525 J0.0
G3 X439.74 Y146.05 I-8.9803 J3.175
G1 Y209.55
G3 X439.1953 Y212.725 I-9.525 J0.0
G3 X439.74 Y215.9 I-8.9803 J3.175
G1 Y279.4
G3 X439.1953 Y282.575 I-9.525 J0.0
G3 X439.74 Y285.75 I-8.9803 J3.175
G1 Y349.25
G3 X439.1953 Y352.425 I-9.525 J0.0
G3 X439.74 Y355.6 I-8.9803 J3.175
G1 Y419.1
G3 X439.1953 Y422.275 I-9.525 J0.0
G3 X439.74 Y425.45 I-8.9803 J3.175
G1 Y488.95
G3 X439.1953 Y492.125 I-9.525 J0.0
G3 X439.74 Y495.3 I-8.9803 J3.175
G1 Y558.8
G3 X439.1953 Y561.975 I-9.525 J0.0
G3 X439.74 Y565.15 I-8.9803 J3.175
G1 Y628.65
G3 X439.1953 Y631.825 I-9.525 J0.0
G3 X439.74 Y635.0 I-8.9803 J3.175
G1 Y720.725
G1 Y635.0
G3 X440.2882 Y631.8155 I9.525 J0.0
G3 X439.7464 Y628.65 I8.9769 J-3.1655
G1 Y565.15
G3 X440.2915 Y561.975 I9.5187 J0.0
G0 Z25.0
G0 X441.7881 Y562.5045
G0 Z-3.9
G1 F120.0 Z-5.0
G3 F3000.0 X441.9971 Y561.975 I7.4769 J2.6455
G3 X441.3339 Y558.8 I7.2679 J-3.175
G1 Y495.3
G3 X441.9971 Y492.125 I7.9312 J0.0
G3 X441.3339 Y488.95 I7.2679 J-3.175
G1 Y425.45
G3 X441.9971 Y422.275 I7.9312 J0.0
G3 X441.3339 Y419.1 I7.2679 J-3.175
G1 Y355.6
G3 X441.9971 Y352.425 I7.9312 J0.0
G3 X441.3339 Y349.25 I7.2679 J-3.175
G1 Y285.75
G3 X441.9971 Y282.575 I7.9312 J0.0
G3 X441.3339 Y279.4 I7.2679 J-3.175
G1 Y215.9
G3 X441.9971 Y212.725 I7.9312 J0.0
G3 X441.3339 Y209.55 I7.2679 J-3.175
G1 Y146.05
G3 X441.9971 Y142.875 I7.9312 J0.0
G3 X441.3339 Y139.7 I7.2679 J-3.175
G1 Y76.2
G3 X441.9937 Y73.0329 I7.9312 J0.0
G3 X441.3275 Y69.85 I7.2714 J-3.1829
G1 Y7.9375
G1 X438.1525
G1 Y69.85
G3 X437.4899 Y73.025 I-7.9375 J0.0
G3 X438.1525 Y76.2 I-7.2748 J3.175
G1 Y139.7
G3 X437.4899 Y142.875 I-7.9375 J0.0
G3 X438.1525 Y146.05 I-7.2748 J3.175
G1 Y209.55
G3 X437.4899 Y212.725 I-7.9375 J0.0
G3 X438.1525 Y215.9 I-7.2748 J3.175
G1 Y279.4
G3 X437.4899 Y282.575 I-7.9375 J0.0
G3 X438.1525 Y285.75 I-7.2748 J3.175
G1 Y349.25
G3 X437.4899 Y352.425 I-7.9375 J0.0
G3 X438.1525 Y355.6 I-7.2748 J3.175
G1 Y419.1
G3 X437.4899 Y422.275 I-7.9375 J0.0
G3 X438.1525 Y425.45 I-7.2748 J3.175
G1 Y488.95
G3 X437.4899 Y492.125 I-7.9375 J0.0
G3 X438.1525 Y495.3 I-7.2748 J3.175
G1 Y558.8
G3 X437.4899 Y561.975 I-7.9375 J0.0
G3 X438.1525 Y565.15 I-7.2748 J3.175
G1 Y628.65
G3 X437.4899 Y631.825 I-7.9375 J0.0
G3 X438.1525 Y635.0 I-7.2748 J3.175
G1 Y722.3125
G1 X441.3275
G1 Y635.0
G3 X441.9937 Y631.8171 I7.9375 J0.0
G3 X441.3339 Y628.65 I7.2714 J-3.1671
G1 Y565.15
G3 X441.7881 Y562.5045 I7.9312 J0.0
G0 Z25.0
G0 X444.7813 Y563.5636
G0 Z-3.9
G1 F120.0 Z-5.0
G3 F3000.0 X445.7238 Y561.975 I4.4838 J1.5864
G3 X444.5089 Y558.8 I3.5412 J-3.175
G1 Y495.3
G3 X445.7238 Y492.125 I4.7561 J0.0
G3 X444.5089 Y488.95 I3.5412 J-3.175
G1 Y425.45
G3 X445.7238 Y422.275 I4.7561 J0.0
G3 X444.5089 Y419.1 I3.5412 J-3.175
G1 Y355.6
G3 X445.7238 Y352.425 I4.7561 J0.0
G3 X444.5089 Y349.25 I3.5412 J-3.175
G1 Y285.75
G3 X445.7238 Y282.575 I4.7561 J0.0
G3 X444.5089 Y279.4 I3.5412 J-3.175
G1 Y215.9
G3 X445.7238 Y212.725 I4.7561 J0.0
G3 X444.5089 Y209.55 I3.5412 J-3.175
G1 Y146.05
G3 X445.7238 Y142.875 I4.7561 J0.0
G3 X444.5089 Y139.7 I3.5412 J-3.175
G1 Y76.2
G3 X445.7195 Y73.0298 I4.7561 J0.0
G3 X444.5025 Y69.85 I3.5455 J-3.1798
G1 Y4.7625
G1 X434.9775
G1 Y69.85
G3 X433.7648 Y73.025 I-4.7625 J0.0
G3 X434.9775 Y76.2 I-3.5498 J3.175
G1 Y139.7
G3 X433.7648 Y142.875 I-4.7625 J0.0
G3 X434.9775 Y146.05 I-3.5498 J3.175
G1 Y209.55
G3 X433.7648 Y212.725 I-4.7625 J0.0
G3 X434.9775 Y215.9 I-3.5498 J3.175
G1 Y279.4
G3 X433.7648 Y282.575 I-4.7625 J0.0
G3 X434.9775 Y285.75 I-3.5498 J3.175
G1 Y349.25
G3 X433.7648 Y352.425 I-4.7625 J0.0
G3 X434.9775 Y355.6 I-3.5498 J3.175
G1 Y419.1
G3 X433.7648 Y422.275 I-4.7625 J0.0
G3 X434.9775 Y425.45 I-3.5498 J3.175
G1 Y488.95
G3 X433.7648 Y492.125 I-4.7625 J0.0
G3 X434.9775 Y495.3 I-3.5498 J3.175
G1 Y558.8
G3 X433.7648 Y561.975 I-4.7625 J0.0
G3 X434.9775 Y565.15 I-3.5498 J3.175
G1 Y628.65
G3 X433.7648 Y631.825 I-4.7625 J0.0
G3 X434.9775 Y635.0 I-3.5498 J3.175
G1 Y725.4875
G1 X444.5025
G1 Y635.0
G3 X445.7195 Y631.8202 I4.7625 J0.0
G3 X444.5089 Y628.65 I3.5455 J-3.1702
G1 Y565.15
G3 X444.7813 Y563.5636 I4.7562 J0.0
G0 Z25.0
G0 X431.7932 Y564.9781
G0 Z-3.9
G1 F120.0 Z-5.0
G3 F3000.0 X431.8025 Y565.15 I-1.5782 J0.1719
G1 Y628.65
G3 X430.215 Y630.2375 I-1.5875 J0.0
G1 X1.5875
G1 Y633.4125
G1 X430.215
G3 X431.8025 Y635.0 I0.0 J1.5875
G1 Y728.6625
G1 X447.6775
G1 Y635.0
G3 X449.265 Y633.4125 I1.5875 J0.0
G1 X652.46
G3 X654.0475 Y635.0 I0.0 J1.5875
G1 Y728.6625
G1 X669.9225
G1 Y635.0
G3 X671.51 Y633.4125 I1.5875 J0.0
G1 X1100.1375
G1 Y630.2375
G1 X671.51
G3 X669.9225 Y628.65 I0.0 J-1.5875
G1 Y565.15
G3 X671.51 Y563.5625 I1.5875 J0.0
G1 X1100.1375
G1 Y560.3875
G1 X671.51
G3 X669.9225 Y558.8 I0.0 J-1.5875
G1 Y495.3
G3 X671.51 Y493.7125 I1.5875 J0.0
G1 X1100.1375
G1 Y490.5375
G1 X671.51
G3 X669.9225 Y488.95 I0.0 J-1.5875
G1 Y425.45
G3 X671.51 Y423.8625 I1.5875 J0.0
G1 X1100.1375
G1 Y420.6875
G1 X671.51
G3 X669.9225 Y419.1 I0.0 J-1.5875
G1 Y355.6
G3 X671.51 Y354.0125 I1.5875 J0.0
G1 X1100.1375
G1 Y350.8375
G1 X671.51
G3 X669.9225 Y349.25 I0.0 J-1.5875
G1 Y285.75
G3 X671.51 Y284.1625 I1.5875 J0.0
G1 X1100.1375
G1 Y280.9875
G1 X671.51
G3 X669.9225 Y279.4 I0.0 J-1.5875
G1 Y215.9
G3 X671.51 Y214.3125 I1.5875 J0.0
G1 X1100.1375
G1 Y211.1375
G1 X671.51
G3 X669.9225 Y209.55 I0.0 J-1.5875
G1 Y146.05
G3 X671.51 Y144.4625 I1.5875 J0.0
G1 X1100.1375
G1 Y141.2875
G1 X671.51
G3 X669.9225 Y139.7 I0.0 J-1.5875
G1 Y76.2
G3 X671.51 Y74.6125 I1.5875 J0.0
G1 X1100.1375
G1 Y71.4375
G1 X671.51
G3 X669.9225 Y69.85 I0.0 J-1.5875
G1 Y1.5875
G1 X654.0475
G1 Y69.85
G3 X652.46 Y71.4375 I-1.5875 J0.0
G1 X449.265
G3 X447.6775 Y69.85 I0.0 J-1.5875
G1 Y1.5875
G1 X431.8025
G1 Y69.85
G3 X430.215 Y71.4375 I-1.5875 J0.0
G1 X1.5875
G1 Y74.6125
G1 X430.215
G3 X431.8025 Y76.2 I0.0 J1.5875
G1 Y139.7
G3 X430.215 Y141.2875 I-1.5875 J0.0
G1 X1.5875
G1 Y144.4625
G1 X430.215
G3 X431.8025 Y146.05 I0.0 J1.5875
G1 Y209.55
G3 X430.215 Y211.1375 I-1.5875 J0.0
G1 X1.5875
G1 Y214.3125
G1 X430.215
G3 X431.8025 Y215.9 I0.0 J1.5875
G1 Y279.4
G3 X430.215 Y280.9875 I-1.5875 J0.0
G1 X1.5875
G1 Y284.1625
G1 X430.215
G3 X431.8025 Y285.75 I0.0 J1.5875
G1 Y349.25
G3 X430.215 Y350.8375 I-1.5875 J0.0
G1 X1.5875
G1 Y354.0125
G1 X430.215
G3 X431.8025 Y355.6 I0.0 J1.5875
G1 Y419.1
G3 X430.215 Y420.6875 I-1.5875 J0.0
G1 X1.5875
G1 Y423.8625
G1 X430.215
G3 X431.8025 Y425.45 I0.0 J1.5875
G1 Y488.95
G3 X430.215 Y490.5375 I-1.5875 J0.0
G1 X1.5875
G1 Y493.7125
G1 X430.215
G3 X431.8025 Y495.3 I0.0 J1.5875
G1 Y558.8
G3 X430.215 Y560.3875 I-1.5875 J0.0
G1 X1.5875
G1 Y563.5625
G1 X430.215
G3 X431.7932 Y564.9781 I0.0 J1.5875
G0 Z25.0
G0 X448.9095 Y490.4972
G0 Z-3.9
G1 F120.0 Z-5.0
G3 F3000.0 X447.6775 Y488.95 I0.3556 J-1.5472
G1 Y425.45
G3 X449.265 Y423.8625 I1.5875 J0.0
G1 X652.46
G3 X654.0475 Y425.45 I0.0 J1.5875
G1 Y488.95
G3 X652.46 Y490.5375 I-1.5875 J0.0
G1 X449.265
G3 X448.9095 Y490.4972 I0.0 J-1.5875
G0 Z25.0
G0 X449.2571 Y420.6875
G0 Z-3.9
G1 F120.0 Z-5.0
G3 F3000.0 X447.6775 Y419.1 I0.0079 J-1.5875
G1 Y355.6
G3 X449.265 Y354.0125 I1.5875 J0.0
G1 X652.46
G3 X654.0475 Y355.6 I0.0 J1.5875
G1 Y419.1
G3 X652.46 Y420.6875 I-1.5875 J0.0
G1 X449.265
G3 X449.2571 I0.0 J-1.5875
G0 Z25.0
G0 X449.2649 Y350.8375
G0 Z-3.9
G1 F120.0 Z-5.0
G3 F3000.0 X447.6775 Y349.25 I0.0002 J-1.5875
G1 Y285.75
G3 X449.265 Y284.1625 I1.5875 J0.0
G1 X652.46
G3 X654.0475 Y285.75 I0.0 J1.5875
G1 Y349.25
G3 X652.46 Y350.8375 I-1.5875 J0.0
G1 X449.265
G3 X449.2649 I0.0 J-1.5875
G0 Z25.0
G0 X449.265 Y280.9875
G0 Z-3.9
G1 F120.0 Z-5.0
G3 F3000.0 X447.6775 Y279.4 I0.0 J-1.5875
G1 Y215.9
G3 X449.265 Y214.3125 I1.5875 J0.0
G1 X652.46
G3 X654.0475 Y215.9 I0.0 J1.5875
G1 Y279.4
G3 X652.46 Y280.9875 I-1.5875 J0.0
G1 X449.265
G0 Z25.0
G0 Y211.1375
G0 Z-3.9
G1 F120.0 Z-5.0
G3 F3000.0 X447.6775 Y209.55 I0.0 J-1.5875
G1 Y146.05
G3 X449.265 Y144.4625 I1.5875 J0.0
G1 X652.46
G3 X654.0475 Y146.05 I0.0 J1.5875
G1 Y209.55
G3 X652.46 Y211.1375 I-1.5875 J0.0
G1 X449.265
G0 Z25.0
G0 Y141.2875
G0 Z-3.9
G1 F120.0 Z-5.0
G3 F3000.0 X447.6775 Y139.7 I0.0 J-1.5875
G1 Y76.2
G3 X449.265 Y74.6125 I1.5875 J0.0
G1 X652.46
G3 X654.0475 Y76.2 I0.0 J1.5875
G1 Y139.7
G3 X652.46 Y141.2875 I-1.5875 J0.0
G1 X449.265
G1 F120.0 Z-6.0
G3 F3000.0 X447.6775 Y139.7 I0.0 J-1.5875
G1 Y76.2
G3 X449.265 Y74.6125 I1.5875 J0.0
G1 X652.46
G3 X654.0475 Y76.2 I0.0 J1.5875
G1 Y139.7
G3 X652.46 Y141.2875 I-1.5875 J0.0
G1 X449.265
G0 Z25.0
G0 Y144.4625
G0 Z-4.9
G1 F120.0 Z-6.0
G1 F3000.0 X652.46
G3 X654.0475 Y146.05 I0.0 J1.5875
G1 Y209.55
G3 X652.46 Y211.1375 I-1.5875 J0.0
G1 X449.265
G3 X447.6775 Y209.55 I0.0 J-1.5875
G1 Y146.05
G3 X449.265 Y144.4625 I1.5875 J0.0
G0 Z25.0
G0 X440.2915 Y142.875
G0 Z-4.9
G1 F120.0 Z-6.0
G3 F3000.0 X439.7464 Y139.7 I8.9735 J-3.175
G1 Y76.2
G3 X440.2882 Y73.0345 I9.5186 J0.0
G3 X439.74 Y69.85 I8.9769 J-3.1845
G1 Y9.525
G1 Y69.85
G3 X439.1953 Y73.025 I-9.525 J0.0
G3 X439.74 Y76.2 I-8.9803 J3.175
G1 Y139.7
G3 X439.1953 Y142.875 I-9.525 J0.0
G3 X439.74 Y146.05 I-8.9803 J3.175
G1 Y209.55
G3 X439.1953 Y212.725 I-9.525 J0.0
G3 X439.74 Y215.9 I-8.9803 J3.175
G1 Y279.4
G3 X439.1953 Y282.575 I-9.525 J0.0
G3 X439.74 Y285.75 I-8.9803 J3.175
G1 Y349.25
G3 X439.1953 Y352.425 I-9.525 J0.0
G3 X439.74 Y355.6 I-8.9803 J3.175
G1 Y419.1
G3 X439.1953 Y422.275 I-9.525 J0.0
G3 X439.74 Y425.45 I-8.9803 J3.175
G1 Y488.95
G3 X439.1953 Y492.125 I-9.525 J0.0
G3 X439.74 Y495.3 I-8.9803 J3.175
G1 Y558.8
G3 X439.1953 Y561.975 I-9.525 J0.0
G3 X439.74 Y565.15 I-8.9803 J3.175
G1 Y628.65
G3 X439.1953 Y631.825 I-9.525 J0.0
G3 X439.74 Y635.0 I-8.9803 J3.175
G1 Y720.725
G1 Y635.0
G3 X440.2882 Y631.8155 I9.525 J0.0
G3 X439.7464 Y628.65 I8.9769 J-3.1655
G1 Y565.15
G3 X440.2915 Y561.975 I9.5187 J0.0
G3 X439.7464 Y558.8 I8.9735 J-3.175
G1 Y495.3
G3 X440.2915 Y492.125 I9.5186 J0.0
G3 X439.7464 Y488.95 I8.9735 J-3.175
G1 Y425.45
G3 X440.2915 Y422.275 I9.5186 J0.0
G3 X439.7464 Y419.1 I8.9735 J-3.175
G1 Y355.6
G3 X440.2915 Y352.425 I9.5186 J0.0
G3 X439.7464 Y349.25 I8.9735 J-3.175
G1 Y285.75
G3 X440.2915 Y282.575 I9.5186 J0.0
G3 X439.7464 Y279.4 I8.9735 J-3.175
G1 Y215.9
G3 X440.2915 Y212.725 I9.5186 J0.0
G3 X439.7464 Y209.55 I8.9735 J-3.175
G1 Y146.05
G3 X440.2915 Y142.875 I9.5186 J0.0
G0 Z25.0
G0 X441.7881 Y143.4045
G0 Z-4.9
G1 F120.0 Z-6.0
G3 F3000.0 X441.9971 Y142.875 I7.4769 J2.6455
G3 X441.3339 Y139.7 I7.2679 J-3.175
G1 Y76.2
G3 X441.9937 Y73.0329 I7.9312 J0.0
G3 X441.3275 Y69.85 I7.2714 J-3.1829
G1 Y7.9375
G1 X438.1525
G1 Y69.85
G3 X437.4899 Y73.025 I-7.9375 J0.0
G3 X438.1525 Y76.2 I-7.2748 J3.175
G1 Y139.7
G3 X437.4899 Y142.875 I-7.9375 J0.0
G3 X438.1525 Y146.05 I-7.2748 J3.175
G1 Y209.55
G3 X437.4899 Y212.725 I-7.9375 J0.0
G3 X438.1525 Y215.9 I-7.2748 J3.175
G1 Y279.4
G3 X437.4899 Y282.575 I-7.9375 J0.0
G3 X438.1525 Y285.75 I-7.2748 J3.175
G1 Y349.25
G3 X437.4899 Y352.425 I-7.9375 J0.0
G3 X438.1525 Y355.6 I-7.2748 J3.175
G1 Y419.1
G3 X437.4899 Y422.275 I-7.9375 J0.0
G3 X438.1525 Y425.45 I-7.2748 J3.175
G1 Y488.95
G3 X437.4899 Y492.125 I-7.9375 J0.0
G3 X438.1525 Y495.3 I-7.2748 J3.175
G1 Y558.8
G3 X437.4899 Y561.975 I-7.9375 J0.0
G3 X438.1525 Y565.15 I-7.2748 J3.175
G1 Y628.65
G3 X437.4899 Y631.825 I-7.9375 J0.0
G3 X438.1525 Y635.0 I-7.2748 J3.175
G1 Y722.3125
G1 X441.3275
G1 Y635.0
G3 X441.9937 Y631.8171 I7.9375 J0.0
G3 X441.3339 Y628.65 I7.2714 J-3.1671
G1 Y565.15
G3 X441.9971 Y561.975 I7.9312 J0.0
G3 X441.3339 Y558.8 I7.2679 J-3.175
G1 Y495.3
G3 X441.9971 Y492.125 I7.9312 J0.0
G3 X441.3339 Y488.95 I7.2679 J-3.175
G1 Y425.45
G3 X441.9971 Y422.275 I7.9312 J0.0
G3 X441.3339 Y419.1 I7.2679 J-3.175
G1 Y355.6
G3 X441.9971 Y352.425 I7.9312 J0.0
G3 X441.3339 Y349.25 I7.2679 J-3.175
G1 Y285.75
G3 X441.9971 Y282.575 I7.9312 J0.0
G3 X441.3339 Y279.4 I7.2679 J-3.175
G1 Y215.9
G3 X441.9971 Y212.725 I7.9312 J0.0
G3 X441.3339 Y209.55 I7.2679 J-3.175
G1 Y146.05
G3 X441.7881 Y143.4045 I7.9312 J0.0
G0 Z25.0
G0 X444.7813 Y144.4636
G0 Z-4.9
G1 F120.0 Z-6.0
G3 F3000.0 X445.7238 Y142.875 I4.4838 J1.5864
G3 X444.5089 Y139.7 I3.5412 J-3.175
G1 Y76.2
G3 X445.7195 Y73.0298 I4.7561 J0.0
G3 X444.5025 Y69.85 I3.5455 J-3.1798
G1 Y4.7625
G1 X434.9775
G1 Y69.85
G3 X433.7648 Y73.025 I-4.7625 J0.0
G3 X434.9775 Y76.2 I-3.5498 J3.175
G1 Y139.7
G3 X433.7648 Y142.875 I-4.7625 J0.0
G3 X434.9775 Y146.05 I-3.5498 J3.175
G1 Y209.55
G3 X433.7648 Y212.725 I-4.7625 J0.0
G3 X434.9775 Y215.9 I-3.5498 J3.175
G1 Y279.4
G3 X433.7648 Y282.575 I-4.7625 J0.0
G3 X434.9775 Y285.75 I-3.5498 J3.175
G1 Y349.25
G3 X433.7648 Y352.425 I-4.7625 J0.0
G3 X434.9775 Y355.6 I-3.5498 J3.175
G1 Y419.1
G3 X433.7648 Y422.275 I-4.7625 J0.0
G3 X434.9775 Y425.45 I-3.5498 J3.175
G1 Y488.95
G3 X433.7648 Y492.125 I-4.7625 J0.0
G3 X434.9775 Y495.3 I-3.5498 J3.175
G1 Y558.8
G3 X433.7648 Y561.975 I-4.7625 J0.0
G3 X434.9775 Y565.15 I-3.5498 J3.175
G1 Y628.65
G3 X433.7648 Y631.825 I-4.7625 J0.0
G3 X434.9775 Y635.0 I-3.5498 J3.175
G1 Y725.4875
G1 X444.5025
G1 Y635.0
G3 X445.7195 Y631.8202 I4.7625 J0.0
G3 X444.5089 Y628.65 I3.5455 J-3.1702
G1 Y565.15
G3 X445.7238 Y561.975 I4.7562 J0.0
G3 X444.5089 Y558.8 I3.5412 J-3.175
G1 Y495.3
G3 X445.7238 Y492.125 I4.7561 J0.0
G3 X444.5089 Y488.95 I3.5412 J-3.175
G1 Y425.45
G3 X445.7238 Y422.275 I4.7561 J0.0
G3 X444.5089 Y419.1 I3.5412 J-3.175
G1 Y355.6
G3 X445.7238 Y352.425 I4.7561 J0.0
G3 X444.5089 Y349.25 I3.5412 J-3.175
G1 Y285.75
G3 X445.7238 Y282.575 I4.7561 J0.0
G3 X444.5089 Y279.4 I3.5412 J-3.175
G1 Y215.9
G3 X445.7238 Y212.725 I4.7561 J0.0
G3 X444.5089 Y209.55 I3.5412 J-3.175
G1 Y146.05
G3 X444.7813 Y144.4636 I4.7561 J0.0
G0 Z25.0
G0 X661.4335 Y142.875
G0 Z-4.9
G1 F120.0 Z-6.0
G3 F3000.0 X661.9786 Y146.05 I-8.9735 J3.175
G1 Y209.55
G3 X661.4335 Y212.725 I-9.5186 J0.0
G3 X661.9786 Y215.9 I-8.9735 J3.175
G1 Y279.4
G3 X661.4335 Y282.575 I-9.5186 J0.0
G3 X661.9786 Y285.75 I-8.9735 J3.175
G1 Y349.25
G3 X661.4335 Y352.425 I-9.5186 J0.0
G3 X661.9786 Y355.6 I-8.9735 J3.175
G1 Y419.1
G3 X661.4335 Y422.275 I-9.5186 J0.0
G3 X661.9786 Y425.45 I-8.9735 J3.175
G1 Y488.95
G3 X661.4335 Y492.125 I-9.5186 J0.0
G3 X661.9786 Y495.3 I-8.9735 J3.175
G1 Y558.8
G3 X661.4335 Y561.975 I-9.5186 J0.0
G3 X661.9786 Y565.15 I-8.9735 J3.175
G1 Y628.65
G3 X661.4368 Y631.8155 I-9.5186 J0.0
G3 X661.985 Y635.0 I-8.9769 J3.1845
G1 Y720.725
G1 Y635.0
G3 X662.5297 Y631.825 I9.525 J0.0
G3 X661.985 Y628.65 I8.9803 J-3.175
G1 Y565.15
G3 X662.5297 Y561.975 I9.525 J0.0
G3 X661.985 Y558.8 I8.9803 J-3.175
G1 Y495.3
G3 X662.5297 Y492.125 I9.525 J0.0
G3 X661.985 Y488.95 I8.9803 J-3.175
G1 Y425.45
G3 X662.5297 Y422.275 I9.525 J0.0
G3 X661.985 Y419.1 I8.9803 J-3.175
G1 Y355.6
G3 X662.5297 Y352.425 I9.525 J0.0
G3 X661.985 Y349.25 I8.9803 J-3.175
G1 Y285.75
G3 X662.5297 Y282.575 I9.525 J0.0
G3 X661.985 Y279.4 I8.9803 J-3.175
G1 Y215.9
G3 X662.5297 Y212.725 I9.525 J0.0
G3 X661.985 Y209.55 I8.9803 J-3.175
G1 Y146.05
G3 X662.5297 Y142.875 I9.525 J0.0
G3 X661.985 Y139.7 I8.9803 J-3.175
G1 Y76.2
G3 X662.5297 Y73.025 I9.525 J0.0
G3 X661.985 Y69.85 I8.9803 J-3.175
G1 Y9.525
G1 Y69.85
G3 X661.4368 Y73.0345 I-9.525 J0.0
G3 X661.9786 Y76.2 I-8.9769 J3.1655
G1 Y139.7
G3 X661.4335 Y142.875 I-9.5186 J0.0
G0 Z25.0
G0 X659.9369 Y142.3455
G0 Z-4.9
G1 F120.0 Z-6.0
G3 F3000.0 X659.7279 Y142.875 I-7.4769 J-2.6455
G3 X660.3911 Y146.05 I-7.2679 J3.175
G1 Y209.55
G3 X659.7279 Y212.725 I-7.9312 J0.0
G3 X660.3911 Y215.9 I-7.2679 J3.175
G1 Y279.4
G3 X659.7279 Y282.575 I-7.9312 J0.0
G3 X660.3911 Y285.75 I-7.2679 J3.175
G1 Y349.25
G3 X659.7279 Y352.425 I-7.9312 J0.0
G3 X660.3911 Y355.6 I-7.2679 J3.175
G1 Y419.1
G3 X659.7279 Y422.275 I-7.9312 J0.0
G3 X660.3911 Y425.45 I-7.2679 J3.175
G1 Y488.95
G3 X659.7279 Y492.125 I-7.9312 J0.0
G3 X660.3911 Y495.3 I-7.2679 J3.175
G1 Y558.8
G3 X659.7279 Y561.975 I-7.9312 J0.0
G3 X660.3911 Y565.15 I-7.2679 J3.175
G1 Y628.65
G3 X659.7313 Y631.8171 I-7.9312 J0.0
G3 X660.3975 Y635.0 I-7.2714 J3.1829
G1 Y722.3125
G1 X663.5725
G1 Y635.0
G3 X664.2351 Y631.825 I7.9375 J0.0
G3 X663.5725 Y628.65 I7.2748 J-3.175
G1 Y565.15
G3 X664.2351 Y561.975 I7.9375 J0.0
G3 X663.5725 Y558.8 I7.2748 J-3.175
G1 Y495.3
G3 X664.2351 Y492.125 I7.9375 J0.0
G3 X663.5725 Y488.95 I7.2748 J-3.175
G1 Y425.45
G3 X664.2351 Y422.275 I7.9375 J0.0
G3 X663.5725 Y419.1 I7.2748 J-3.175
G1 Y355.6
G3 X664.2351 Y352.425 I7.9375 J0.0
G3 X663.5725 Y349.25 I7.2748 J-3.175
G1 Y285.75
G3 X664.2351 Y282.575 I7.9375 J0.0
G3 X663.5725 Y279.4 I7.2748 J-3.175
G1 Y215.9
G3 X664.2351 Y212.725 I7.9375 J0.0
G3 X663.5725 Y209.55 I7.2748 J-3.175
G1 Y146.05
G3 X664.2351 Y142.875 I7.9375 J0.0
G3 X663.5725 Y139.7 I7.2748 J-3.175
G1 Y76.2
G3 X664.2351 Y73.025 I7.9375 J0.0
G3 X663.5725 Y69.85 I7.2748 J-3.175
G1 Y7.9375
G1 X660.3975
G1 Y69.85
G3 X659.7313 Y73.0329 I-7.9375 J0.0
G3 X660.3911 Y76.2 I-7.2714 J3.1671
G1 Y139.7
G3 X659.9369 Y142.3455 I-7.9312 J0.0
G0 Z25.0
G0 X656.9437 Y141.2864
G0 Z-4.9
G1 F120.0 Z-6.0
G3 F3000.0 X656.0012 Y142.875 I-4.4838 J-1.5864
G3 X657.2161 Y146.05 I-3.5412 J3.175
G1 Y209.55
G3 X656.0012 Y212.725 I-4.7562 J0.0
G3 X657.2161 Y215.9 I-3.5412 J3.175
G1 Y279.4
G3 X656.0012 Y282.575 I-4.7562 J0.0
G3 X657.2161 Y285.75 I-3.5412 J3.175
G1 Y349.25
G3 X656.0012 Y352.425 I-4.7562 J0.0
G3 X657.2161 Y355.6 I-3.5412 J3.175
G1 Y419.1
G3 X656.0012 Y422.275 I-4.7562 J0.0
G3 X657.2161 Y425.45 I-3.5412 J3.175
G1 Y488.95
G3 X656.0012 Y492.125 I-4.7562 J0.0
G3 X657.2161 Y495.3 I-3.5412 J3.175
G1 Y558.8
G3 X656.0012 Y561.975 I-4.7562 J0.0
G3 X657.2161 Y565.15 I-3.5412 J3.175
G1 Y628.65
G3 X656.0055 Y631.8202 I-4.7562 J0.0
G3 X657.2225 Y635.0 I-3.5455 J3.1798
G1 Y725.4875
G1 X666.7475
G1 Y635.0
G3 X667.9602 Y631.825 I4.7625 J0.0
G3 X666.7475 Y628.65 I3.5498 J-3.175
G1 Y565.15
G3 X667.9602 Y561.975 I4.7625 J0.0
G3 X666.7475 Y558.8 I3.5498 J-3.175
G1 Y495.3
G3 X667.9602 Y492.125 I4.7625 J0.0
G3 X666.7475 Y488.95 I3.5498 J-3.175
G1 Y425.45
G3 X667.9602 Y422.275 I4.7625 J0.0
G3 X666.7475 Y419.1 I3.5498 J-3.175
G1 Y355.6
G3 X667.9602 Y352.425 I4.7625 J0.0
G3 X666.7475 Y349.25 I3.5498 J-3.175
G1 Y285.75
G3 X667.9602 Y282.575 I4.7625 J0.0
G3 X666.7475 Y279.4 I3.5498 J-3.175
G1 Y215.9
G3 X667.9602 Y212.725 I4.7625 J0.0
G3 X666.7475 Y209.55 I3.5498 J-3.175
G1 Y146.05
G3 X667.9602 Y142.875 I4.7625 J0.0
G3 X666.7475 Y139.7 I3.5498 J-3.175
G1 Y76.2
G3 X667.9602 Y73.025 I4.7625 J0.0
G3 X666.7475 Y69.85 I3.5498 J-3.175
G1 Y4.7625
G1 X657.2225
G1 Y69.85
G3 X656.0055 Y73.0298 I-4.7625 J0.0
G3 X657.2161 Y76.2 I-3.5455 J3.1702
G1 Y139.7
G3 X656.9437 Y141.2864 I-4.7562 J0.0
G0 Z25.0
G0 X669.9318 Y139.8719
G0 Z-4.9
G1 F120.0 Z-6.0
G3 F3000.0 X669.9225 Y139.7 I1.5782 J-0.1719
G1 Y76.2
G3 X671.51 Y74.6125 I1.5875 J0.0
G1 X1100.1375
G1 Y71.4375
G1 X671.51
G3 X669.9225 Y69.85 I0.0 J-1.5875
G1 Y1.5875
G1 X654.0475
G1 Y69.85
G3 X652.46 Y71.4375 I-1.5875 J0.0
G1 X449.265
G3 X447.6775 Y69.85 I0.0 J-1.5875
G1 Y1.5875
G1 X431.8025
G1 Y69.85
G3 X430.215 Y71.4375 I-1.5875 J0.0
G1 X1.5875
G1 Y74.6125
G1 X430.215
G3 X431.8025 Y76.2 I0.0 J1.5875
G1 Y139.7
G3 X430.215 Y141.2875 I-1.5875 J0.0
G1 X1.5875
G1 Y144.4625
G1 X430.215
G3 X431.8025 Y146.05 I0.0 J1.5875
G1 Y209.55
G3 X430.215 Y211.1375 I-1.5875 J0.0
G1 X1.5875
G1 Y214.3125
G1 X430.215
G3 X431.8025 Y215.9 I0.0 J1.5875
G1 Y279.4
G3 X430.215 Y280.9875 I-1.5875 J0.0
G1 X1.5875
G1 Y284.1625
G1 X430.215
G3 X431.8025 Y285.75 I0.0 J1.5875
G1 Y349.25
G3 X430.215 Y350.8375 I-1.5875 J0.0
G1 X1.5875
G1 Y354.0125
G1 X430.215
G3 X431.8025 Y355.6 I0.0 J1.5875
G1 Y419.1
G3 X430.215 Y420.6875 I-1.5875 J0.0
G1 X1.5875
G1 Y423.8625
G1 X430.215
G3 X431.8025 Y425.45 I0.0 J1.5875
G1 Y488.95
G3 X430.215 Y490.5375 I-1.5875 J0.0
G1 X1.5875
G1 Y493.7125
G1 X430.215
G3 X431.8025 Y495.3 I0.0 J1.5875
G1 Y558.8
G3 X430.215 Y560.3875 I-1.5875 J0.0
G1 X1.5875
G1 Y563.5625
G1 X430.215
G3 X431.8025 Y565.15 I0.0 J1.5875
G1 Y628.65
G3 X430.215 Y630.2375 I-1.5875 J0.0
G1 X1.5875
G1 Y633.4125
G1 X430.215
G3 X431.8025 Y635.0 I0.0 J1.5875
G1 Y728.6625
G1 X447.6775
G1 Y635.0
G3 X449.265 Y633.4125 I1.5875 J0.0
G1 X652.46
G3 X654.0475 Y635.0 I0.0 J1.5875
G1 Y728.6625
G1 X669.9225
G1 Y635.0
G3 X671.51 Y633.4125 I1.5875 J0.0
G1 X1100.1375
G1 Y630.2375
G1 X671.51
G3 X669.9225 Y628.65 I0.0 J-1.5875
G1 Y565.15
G3 X671.51 Y563.5625 I1.5875 J0.0
G1 X1100.1375
G1 Y560.3875
G1 X671.51
G3 X669.9225 Y558.8 I0.0 J-1.5875
G1 Y495.3
G3 X671.51 Y493.7125 I1.5875 J0.0
G1 X1100.1375
G1 Y490.5375
G1 X671.51
G3 X669.9225 Y488.95 I0.0 J-1.5875
G1 Y425.45
G3 X671.51 Y423.8625 I1.5875 J0.0
G1 X1100.1375
G1 Y420.6875
G1 X671.51
G3 X669.9225 Y419.1 I0.0 J-1.5875
G1 Y355.6
G3 X671.51 Y354.0125 I1.5875 J0.0
G1 X1100.1375
G1 Y350.8375
G1 X671.51
G3 X669.9225 Y349.25 I0.0 J-1.5875
G1 Y285.75
G3 X671.51 Y284.1625 I1.5875 J0.0
G1 X1100.1375
G1 Y280.9875
G1 X671.51
G3 X669.9225 Y279.4 I0.0 J-1.5875
G1 Y215.9
G3 X671.51 Y214.3125 I1.5875 J0.0
G1 X1100.1375
G1 Y211.1375
G1 X671.51
G3 X669.9225 Y209.55 I0.0 J-1.5875
G1 Y146.05
G3 X671.51 Y144.4625 I1.5875 J0.0
G1 X1100.1375
G1 Y141.2875
G1 X671.51
G3 X669.9318 Y139.8719 I0.0 J-1.5875
G0 Z25.0
G0 X652.8155 Y214.3528
G0 Z-4.9
G1 F120.0 Z-6.0
G3 F3000.0 X654.0475 Y215.9 I-0.3556 J1.5472
G1 Y279.4
G3 X652.46 Y280.9875 I-1.5875 J0.0
G1 X449.265
G3 X447.6775 Y279.4 I0.0 J-1.5875
G1 Y215.9
G3 X449.265 Y214.3125 I1.5875 J0.0
G1 X652.46
G3 X652.8155 Y214.3528 I0.0 J1.5875
G0 Z25.0
G0 X652.4679 Y284.1625
G0 Z-4.9
G1 F120.0 Z-6.0
G3 F3000.0 X654.0475 Y285.75 I-0.0079 J1.5875
G1 Y349.25
G3 X652.46 Y350.8375 I-1.5875 J0.0
G1 X449.265
G3 X447.6775 Y349.25 I0.0 J-1.5875
G1 Y285.75
G3 X449.265 Y284.1625 I1.5875 J0.0
G1 X652.46
G3 X652.4679 I0.0 J1.5875
G0 Z25.0
G0 X652.4601 Y354.0125
G0 Z-4.9
G1 F120.0 Z-6.0
G3 F3000.0 X654.0475 Y355.6 I-0.0002 J1.5875
G1 Y419.1
G3 X652.46 Y420.6875 I-1.5875 J0.0
G1 X449.265
G3 X447.6775 Y419.1 I0.0 J-1.5875
G1 Y355.6
G3 X449.265 Y354.0125 I1.5875 J0.0
G1 X652.46
G3 X652.4601 I0.0 J1.5875
G0 Z25.0
G0 X652.46 Y423.8625
G0 Z-4.9
G1 F120.0 Z-6.0
G3 F3000.0 X654.0475 Y425.45 I0.0 J1.5875
G1 Y488.95
G3 X652.46 Y490.5375 I-1.5875 J0.0
G1 X449.265
G3 X447.6775 Y488.95 I0.0 J-1.5875
G1 Y425.45
G3 X449.265 Y423.8625 I1.5875 J0.0
G1 X652.46
G0 Z25.0
G0 Y493.7125
G0 Z-4.9
G1 F120.0 Z-6.0
G3 F3000.0 X654.0475 Y495.3 I0.0 J1.5875
G1 Y558.8
G3 X652.46 Y560.3875 I-1.5875 J0.0
G1 X449.265
G3 X447.6775 Y558.8 I0.0 J-1.5875
G1 Y495.3
G3 X449.265 Y493.7125 I1.5875 J0.0
G1 X652.46
G0 Z25.0
G0 Y563.5625
G0 Z-4.9
G1 F120.0 Z-6.0
G3 F3000.0 X654.0475 Y565.15 I0.0 J1.5875
G1 Y628.65
G3 X652.46 Y630.2375 I-1.5875 J0.0
G1 X449.265
G3 X447.6775 Y628.65 I0.0 J-1.5875
G1 Y565.15
G3 X449.265 Y563.5625 I1.5875 J0.0
G1 X652.46
( Pocket2 )
S12000
G0 Z25.0
G0 X661.985 Y632.5202
G0 Z-5.9
G1 F120.0 Z-7.0
G3 F3000.0 X662.1936 Y631.825 I9.525 J2.4798
G3 X661.9836 Y631.1247 I9.3163 J-3.175
G3 X661.775 Y631.8211 I-9.5237 J-2.4747
G3 X661.985 Y632.5202 I-9.315 J3.1789
G0 Z25.0
G0 X661.9836 Y562.6753
G0 Z-5.9
G1 F120.0 Z-7.0
G3 F3000.0 X662.1936 Y561.975 I9.5263 J2.4747
G3 X661.9836 Y561.2747 I9.3163 J-3.175
G3 X661.7736 Y561.975 I-9.5237 J-2.4747
G3 X661.9836 Y562.6753 I-9.3137 J3.175
G0 Z25.0
G0 Y492.8253
G0 Z-5.9
G1 F120.0 Z-7.0
G3 F3000.0 X662.1936 Y492.125 I9.5263 J2.4747
G3 X661.9836 Y491.4247 I9.3163 J-3.175
G3 X661.7736 Y492.125 I-9.5237 J-2.4747
G3 X661.9836 Y492.8253 I-9.3137 J3.175
G0 Z25.0
G0 Y422.9753
G0 Z-5.9
G1 F120.0 Z-7.0
G3 F3000.0 X662.1936 Y422.275 I9.5263 J2.4747
G3 X661.9836 Y421.5747 I9.3163 J-3.175
G3 X661.7736 Y422.275 I-9.5237 J-2.4747
G3 X661.9836 Y422.9753 I-9.3137 J3.175
G0 Z25.0
G0 Y353.1253
G0 Z-5.9
G1 F120.0 Z-7.0
G3 F3000.0 X662.1936 Y352.425 I9.5263 J2.4747
G3 X661.9836 Y351.7247 I9.3163 J-3.175
G3 X661.7736 Y352.425 I-9.5237 J-2.4747
G3 X661.9836 Y353.1253 I-9.3137 J3.175
G0 Z25.0
G0 Y283.2753
G0 Z-5.9
G1 F120.0 Z-7.0
G3 F3000.0 X662.1936 Y282.575 I9.5263 J2.4747
G3 X661.9836 Y281.8747 I9.3163 J-3.175
G3 X661.7736 Y282.575 I-9.5237 J-2.4747
G3 X661.9836 Y283.2753 I-9.3137 J3.175
G0 Z25.0
G0 Y213.4253
G0 Z-5.9
G1 F120.0 Z-7.0
G3 F3000.0 X662.1936 Y212.725 I9.5263 J2.4747
G3 X661.9836 Y212.0247 I9.3163 J-3.175
G3 X661.7736 Y212.725 I-9.5237 J-2.4747
G3 X661.9836 Y213.4253 I-9.3137 J3.175
G0 Z25.0
G0 Y143.5753
G0 Z-5.9
G1 F120.0 Z-7.0
G3 F3000.0 X662.1936 Y142.875 I9.5263 J2.4747
G3 X661.9836 Y142.1747 I9.3163 J-3.175
G3 X661.7736 Y142.875 I-9.5237 J-2.4747
G3 X661.9836 Y143.5753 I-9.3137 J3.175
G0 Z25.0
G0 Y73.7253
G0 Z-5.9
G1 F120.0 Z-7.0
G3 F3000.0 X662.1936 Y73.025 I9.5263 J2.4747
G3 X661.985 Y72.3298 I9.3163 J-3.175
G3 X661.775 Y73.0289 I-9.525 J-2.4798
G3 X661.9836 Y73.7253 I-9.315 J3.1711
G1 F120.0 X662.5982 Y73.8849
G3 F3000.0 X662.8672 Y73.025 I8.9117 J2.3151
G3 X662.3025 Y69.85 I8.6428 J-3.175
G1 Y9.2075
G1 X661.6675
G1 Y69.85
G3 X661.1014 Y73.0287 I-9.2075 J0.0
G3 X661.6649 Y76.2 I-8.6414 J3.1713
G1 Y139.7
G3 X661.1 Y142.875 I-9.205 J0.0
G3 X661.6649 Y146.05 I-8.6401 J3.175
G1 Y209.55
G3 X661.1 Y212.725 I-9.205 J0.0
G3 X661.6649 Y215.9 I-8.6401 J3.175
G1 Y279.4
G3 X661.1 Y282.575 I-9.205 J0.0
G3 X661.6649 Y285.75 I-8.6401 J3.175
G1 Y349.25
G3 X661.1 Y352.425 I-9.205 J0.0
G3 X661.6649 Y355.6 I-8.6401 J3.175
G1 Y419.1
G3 X661.1 Y422.275 I-9.205 J0.0
G3 X661.6649 Y425.45 I-8.6401 J3.175
G1 Y488.95
G3 X661.1 Y492.125 I-9.205 J0.0
G3 X661.6649 Y495.3 I-8.6401 J3.175
G1 Y558.8
G3 X661.1 Y561.975 I-9.205 J0.0
G3 X661.6649 Y565.15 I-8.6401 J3.175
G1 Y628.65
G3 X661.1014 Y631.8213 I-9.205 J0.0
G3 X661.6675 Y635.0 I-8.6414 J3.1787
G1 Y721.0425
G1 X662.3025
G1 Y635.0
G3 X662.8672 Y631.825 I9.2075 J0.0
G3 X662.3025 Y628.65 I8.6428 J-3.175
G1 Y565.15
G3 X662.8672 Y561.975 I9.2075 J0.0
G3 X662.3025 Y558.8 I8.6428 J-3.175
G1 Y495.3
G3 X662.8672 Y492.125 I9.2075 J0.0
G3 X662.3025 Y488.95 I8.6428 J-3.175
G1 Y425.45
G3 X662.8672 Y422.275 I9.2075 J0.0
G3 X662.3025 Y419.1 I8.6428 J-3.175
G1 Y355.6
G3 X662.8672 Y352.425 I9.2075 J0.0
G3 X662.3025 Y349.25 I8.6428 J-3.175
G1 Y285.75
G3 X662.8672 Y282.575 I9.2075 J0.0
G3 X662.3025 Y279.4 I8.6428 J-3.175
G1 Y215.9
G3 X662.8672 Y212.725 I9.2075 J0.0
G3 X662.3025 Y209.55 I8.6428 J-3.175
G1 Y146.05
G3 X662.8672 Y142.875 I9.2075 J0.0
G3 X662.3025 Y139.7 I8.6428 J-3.175
G1 Y76.2
G3 X662.5982 Y73.8849 I9.2075 J0.0
G0 Z25.0
G0 X663.8275 Y74.2043
G0 Z-5.9
G1 F120.0 Z-7.0
G3 F3000.0 X664.2351 Y73.025 I7.6825 J1.9957
G3 X663.5725 Y69.85 I7.2748 J-3.175
G1 Y7.9375
G1 X660.3975
G1 Y69.85
G3 X659.7334 Y73.0282 I-7.9375 J0.0
G3 X660.3949 Y76.2 I-7.2735 J3.1718
G1 Y139.7
G3 X659.732 Y142.875 I-7.935 J0.0
G3 X660.3949 Y146.05 I-7.2721 J3.175
G1 Y209.55
G3 X659.732 Y212.725 I-7.935 J0.0
G3 X660.3949 Y215.9 I-7.2721 J3.175
G1 Y279.4
G3 X659.732 Y282.575 I-7.935 J0.0
G3 X660.3949 Y285.75 I-7.2721 J3.175
G1 Y349.25
G3 X659.732 Y352.425 I-7.935 J0.0
G3 X660.3949 Y355.6 I-7.2721 J3.175
G1 Y419.1
G3 X659.732 Y422.275 I-7.935 J0.0
G3 X660.3949 Y425.45 I-7.2721 J3.175
G1 Y488.95
G3 X659.732 Y492.125 I-7.935 J0.0
G3 X660.3949 Y495.3 I-7.2721 J3.175
G1 Y558.8
G3 X659.732 Y561.975 I-7.935 J0.0
G3 X660.3949 Y565.15 I-7.2721 J3.175
G1 Y628.65
G3 X659.7334 Y631.8218 I-7.935 J0.0
G3 X660.3975 Y635.0 I-7.2735 J3.1782
G1 Y722.3125
G1 X663.5725
G1 Y635.0
G3 X664.2351 Y631.825 I7.9375 J0.0
G3 X663.5725 Y628.65 I7.2748 J-3.175
G1 Y565.15
G3 X664.2351 Y561.975 I7.9375 J0.0
G3 X663.5725 Y558.8 I7.2748 J-3.175
G1 Y495.3
G3 X664.2351 Y492.125 I7.9375 J0.0
G3 X663.5725 Y488.95 I7.2748 J-3.175
G1 Y425.45
G3 X664.2351 Y422.275 I7.9375 J0.0
G3 X663.5725 Y419.1 I7.2748 J-3.175
G1 Y355.6
G3 X664.2351 Y352.425 I7.9375 J0.0
G3 X663.5725 Y349.25 I7.2748 J-3.175
G1 Y285.75
G3 X664.2351 Y282.575 I7.9375 J0.0
G3 X663.5725 Y279.4 I7.2748 J-3.175
G1 Y215.9
G3 X664.2351 Y212.725 I7.9375 J0.0
G3 X663.5725 Y209.55 I7.2748 J-3.175
G1 Y146.05
G3 X664.2351 Y142.875 I7.9375 J0.0
G3 X663.5725 Y139.7 I7.2748 J-3.175
G1 Y76.2
G3 X663.8275 Y74.2043 I7.9375 J0.0
G0 Z25.0
G0 X665.0567 Y74.5236
G0 Z-5.9
G1 F120.0 Z-7.0
G3 F3000.0 X665.6469 Y73.025 I6.4533 J1.6764
G3 X664.8425 Y69.85 I5.863 J-3.175
G1 Y6.6675
G1 X659.1275
G1 Y69.85
G3 X658.3215 Y73.0277 I-6.6675 J0.0
G3 X659.1249 Y76.2 I-5.8616 J3.1723
G1 Y139.7
G3 X658.3201 Y142.875 I-6.665 J0.0
G3 X659.1249 Y146.05 I-5.8601 J3.175
G1 Y209.55
G3 X658.3201 Y212.725 I-6.665 J0.0
G3 X659.1249 Y215.9 I-5.8601 J3.175
G1 Y279.4
G3 X658.3201 Y282.575 I-6.665 J0.0
G3 X659.1249 Y285.75 I-5.8601 J3.175
G1 Y349.25
G3 X658.3201 Y352.425 I-6.665 J0.0
G3 X659.1249 Y355.6 I-5.8601 J3.175
G1 Y419.1
G3 X658.3201 Y422.275 I-6.665 J0.0
G3 X659.1249 Y425.45 I-5.8601 J3.175
G1 Y488.95
G3 X658.3201 Y492.125 I-6.665 J0.0
G3 X659.1249 Y495.3 I-5.8601 J3.175
G1 Y558.8
G3 X658.3201 Y561.975 I-6.665 J0.0
G3 X659.1249 Y565.15 I-5.8601 J3.175
G1 Y628.65
G3 X658.3215 Y631.8223 I-6.665 J0.0
G3 X659.1275 Y635.0 I-5.8616 J3.1777
G1 Y723.5825
G1 X664.8425
G1 Y635.0
G3 X665.6469 Y631.825 I6.6675 J0.0
G3 X664.8425 Y628.65 I5.863 J-3.175
G1 Y565.15
G3 X665.6469 Y561.975 I6.6675 J0.0
G3 X664.8425 Y558.8 I5.863 J-3.175
G1 Y495.3
G3 X665.6469 Y492.125 I6.6675 J0.0
G3 X664.8425 Y488.95 I5.863 J-3.175
G1 Y425.45
G3 X665.6469 Y422.275 I6.6675 J0.0
G3 X664.8425 Y419.1 I5.863 J-3.175
G1 Y355.6
G3 X665.6469 Y352.425 I6.6675 J0.0
G3 X664.8425 Y349.25 I5.863 J-3.175
G1 Y285.75
G3 X665.6469 Y282.575 I6.6675 J0.0
G3 X664.8425 Y279.4 I5.863 J-3.175
G1 Y215.9
G3 X665.6469 Y212.725 I6.6675 J0.0
G3 X664.8425 Y209.55 I5.863 J-3.175
G1 Y146.05
G3 X665.6469 Y142.875 I6.6675 J0.0
G3 X664.8425 Y139.7 I5.863 J-3.175
G1 Y76.2
G3 X665.0567 Y74.5236 I6.6675 J0.0
G0 Z25.0
G0 X666.2859 Y74.8429
G0 Z-5.9
G1 F120.0 Z-7.0
G3 F3000.0 X667.1451 Y73.025 I5.2241 J1.3571
G3 X666.1125 Y69.85 I4.3649 J-3.175
G1 Y5.3975
G1 X657.8575
G1 Y69.85
G3 X656.8233 Y73.0272 I-5.3975 J0.0
G3 X657.8549 Y76.2 I-4.3633 J3.1728
G1 Y139.7
G3 X656.8217 Y142.875 I-5.395 J0.0
G3 X657.8549 Y146.05 I-4.3618 J3.175
G1 Y209.55
G3 X656.8217 Y212.725 I-5.395 J0.0
G3 X657.8549 Y215.9 I-4.3618 J3.175
G1 Y279.4
G3 X656.8217 Y282.575 I-5.395 J0.0
G3 X657.8549 Y285.75 I-4.3618 J3.175
G1 Y349.25
G3 X656.8217 Y352.425 I-5.395 J0.0
G3 X657.8549 Y355.6 I-4.3618 J3.175
G1 Y419.1
G3 X656.8217 Y422.275 I-5.395 J0.0
G3 X657.8549 Y425.45 I-4.3618 J3.175
G1 Y488.95
G3 X656.8217 Y492.125 I-5.395 J0.0
G3 X657.8549 Y495.3 I-4.3618 J3.175
G1 Y558.8
G3 X656.8217 Y561.975 I-5.395 J0.0
G3 X657.8549 Y565.15 I-4.3618 J3.175
G1 Y628.65
G3 X656.8233 Y631.8228 I-5.395 J0.0
G3 X657.8575 Y635.0 I-4.3633 J3.1772
G1 Y724.8525
G1 X666.1125
G1 Y635.0
G3 X667.1451 Y631.825 I5.3975 J0.0
G3 X666.1125 Y628.65 I4.3649 J-3.175
G1 Y565.15
G3 X667.1451 Y561.975 I5.3975 J0.0
G3 X666.1125 Y558.8 I4.3649 J-3.175
G1 Y495.3
G3 X667.1451 Y492.125 I5.3975 J0.0
G3 X666.1125 Y488.95 I4.3649 J-3.175
G1 Y425.45
G3 X667.1451 Y422.275 I5.3975 J0.0
G3 X666.1125 Y419.1 I4.3649 J-3.175
G1 Y355.6
G3 X667.1451 Y352.425 I5.3975 J0.0
G3 X666.1125 Y349.25 I4.3649 J-3.175
G1 Y285.75
G3 X667.1451 Y282.575 I5.3975 J0.0
G3 X666.1125 Y279.4 I4.3649 J-3.175
G1 Y215.9
G3 X667.1451 Y212.725 I5.3975 J0.0
G3 X666.1125 Y209.55 I4.3649 J-3.175
G1 Y146.05
G3 X667.1451 Y142.875 I5.3975 J0.0
G3 X666.1125 Y139.7 I4.3649 J-3.175
G1 Y76.2
G3 X666.2859 Y74.8429 I5.3975 J0.0
G0 Z25.0
G0 X667.5151 Y75.1622
G0 Z-5.9
G1 F120.0 Z-7.0
G3 F3000.0 X668.8726 Y73.025 I3.9949 J1.0378
G3 X667.3825 Y69.85 I2.6374 J-3.175
G1 Y4.1275
G1 X656.5875
G1 Y69.85
G3 X655.0953 Y73.0267 I-4.1275 J0.0
G3 X656.5849 Y76.2 I-2.6354 J3.1733
G1 Y139.7
G3 X655.0933 Y142.875 I-4.125 J0.0
G3 X656.5849 Y146.05 I-2.6334 J3.175
G1 Y209.55
G3 X655.0933 Y212.725 I-4.125 J0.0
G3 X656.5849 Y215.9 I-2.6334 J3.175
G1 Y279.4
G3 X655.0933 Y282.575 I-4.125 J0.0
G3 X656.5849 Y285.75 I-2.6334 J3.175
G1 Y349.25
G3 X655.0933 Y352.425 I-4.125 J0.0
G3 X656.5849 Y355.6 I-2.6334 J3.175
G1 Y419.1
G3 X655.0933 Y422.275 I-4.125 J0.0
G3 X656.5849 Y425.45 I-2.6334 J3.175
G1 Y488.95
G3 X655.0933 Y492.125 I-4.125 J0.0
G3 X656.5849 Y495.3 I-2.6334 J3.175
G1 Y558.8
G3 X655.0933 Y561.975 I-4.125 J0.0
G3 X656.5849 Y565.15 I-2.6334 J3.175
G1 Y628.65
G3 X655.0953 Y631.8233 I-4.125 J0.0
G3 X656.5875 Y635.0 I-2.6354 J3.1767
G1 Y726.1225
G1 X667.3825
G1 Y635.0
G3 X668.8726 Y631.825 I4.1275 J0.0
G3 X667.3825 Y628.65 I2.6374 J-3.175
G1 Y565.15
G3 X668.8726 Y561.975 I4.1275 J0.0
G3 X667.3825 Y558.8 I2.6374 J-3.175
G1 Y495.3
G3 X668.8726 Y492.125 I4.1275 J0.0
G3 X667.3825 Y488.95 I2.6374 J-3.175
G1 Y425.45
G3 X668.8726 Y422.275 I4.1275 J0.0
G3 X667.3825 Y419.1 I2.6374 J-3.175
G1 Y355.6
G3 X668.8726 Y352.425 I4.1275 J0.0
G3 X667.3825 Y349.25 I2.6374 J-3.175
G1 Y285.75
G3 X668.8726 Y282.575 I4.1275 J0.0
G3 X667.3825 Y279.4 I2.6374 J-3.175
G1 Y215.9
G3 X668.8726 Y212.725 I4.1275 J0.0
G3 X667.3825 Y209.55 I2.6374 J-3.175
G1 Y146.05
G3 X668.8726 Y142.875 I4.1275 J0.0
G3 X667.3825 Y139.7 I2.6374 J-3.175
G1 Y76.2
G3 X667.5151 Y75.1622 I4.1275 J0.0
G0 Z25.0
G0 X439.95 Y73.0289
G0 Z-5.9
G1 F120.0 Z-7.0
G3 F3000.0 X439.74 Y72.3298 I9.315 J-3.1789
G3 X439.5314 Y73.025 I-9.525 J-2.4798
G3 X439.7414 Y73.7253 I-9.3163 J3.175
G3 X439.95 Y73.0289 I9.5237 J2.4747
G0 Z25.0
G0 X439.7414 Y142.1747
G0 Z-5.9
G1 F120.0 Z-7.0
G3 F3000.0 X439.5314 Y142.875 I-9.5263 J-2.4747
G3 X439.7414 Y143.5753 I-9.3163 J3.175
G3 X439.9514 Y142.875 I9.5237 J2.4747
G3 X439.7414 Y142.1747 I9.3137 J-3.175
G0 Z25.0
G0 Y212.0247
G0 Z-5.9
G1 F120.0 Z-7.0
G3 F3000.0 X439.5314 Y212.725 I-9.5263 J-2.4747
G3 X439.7414 Y213.4253 I-9.3163 J3.175
G3 X439.9514 Y212.725 I9.5237 J2.4747
G3 X439.7414 Y212.0247 I9.3137 J-3.175
G0 Z25.0
G0 Y281.8747
G0 Z-5.9
G1 F120.0 Z-7.0
G3 F3000.0 X439.5314 Y282.575 I-9.5263 J-2.4747
G3 X439.7414 Y283.2753 I-9.3163 J3.175
G3 X439.9514 Y282.575 I9.5237 J2.4747
G3 X439.7414 Y281.8747 I9.3137 J-3.175
G0 Z25.0
G0 Y351.7247
G0 Z-5.9
G1 F120.0 Z-7.0
G3 F3000.0 X439.5314 Y352.425 I-9.5263 J-2.4747
G3 X439.7414 Y353.1253 I-9.3163 J3.175
G3 X439.9514 Y352.425 I9.5237 J2.4747
G3 X439.7414 Y351.7247 I9.3137 J-3.175
G0 Z25.0
G0 Y421.5747
G0 Z-5.9
G1 F120.0 Z-7.0
G3 F3000.0 X439.5314 Y422.275 I-9.5263 J-2.4747
G3 X439.7414 Y422.9753 I-9.3163 J3.175
G3 X439.9514 Y422.275 I9.5237 J2.4747
G3 X439.7414 Y421.5747 I9.3137 J-3.175
G0 Z25.0
G0 Y491.4247
G0 Z-5.9
G1 F120.0 Z-7.0
G3 F3000.0 X439.5314 Y492.125 I-9.5263 J-2.4747
G3 X439.7414 Y492.8253 I-9.3163 J3.175
G3 X439.9514 Y492.125 I9.5237 J2.4747
G3 X439.7414 Y491.4247 I9.3137 J-3.175
G0 Z25.0
G0 Y561.2747
G0 Z-5.9
G1 F120.0 Z-7.0
G3 F3000.0 X439.5314 Y561.975 I-9.5263 J-2.4747
G3 X439.7414 Y562.6753 I-9.3163 J3.175
G3 X439.9514 Y561.975 I9.5237 J2.4747
G3 X439.7414 Y561.2747 I9.3137 J-3.175
G0 Z25.0
G0 Y631.1247
G0 Z-5.9
G1 F120.0 Z-7.0
G3 F3000.0 X439.5314 Y631.825 I-9.5263 J-2.4747
G3 X439.74 Y632.5202 I-9.3163 J3.175
G3 X439.95 Y631.8211 I9.525 J2.4798
G3 X439.7414 Y631.1247 I9.315 J-3.1711
G1 F120.0 X439.1268 Y630.9651
G3 F3000.0 X438.8578 Y631.825 I-8.9117 J-2.3151
G3 X439.4225 Y635.0 I-8.6428 J3.175
G1 Y721.0425
G1 X440.0575
G1 Y635.0
G3 X440.6236 Y631.8213 I9.2075 J0.0
G3 X440.0601 Y628.65 I8.6414 J-3.1713
G1 Y565.15
G3 X440.625 Y561.975 I9.205 J0.0
G3 X440.0601 Y558.8 I8.6401 J-3.175
G1 Y495.3
G3 X440.625 Y492.125 I9.205 J0.0
G3 X440.0601 Y488.95 I8.6401 J-3.175
G1 Y425.45
G3 X440.625 Y422.275 I9.205 J0.0
G3 X440.0601 Y419.1 I8.6401 J-3.175
G1 Y355.6
G3 X440.625 Y352.425 I9.205 J0.0
G3 X440.0601 Y349.25 I8.6401 J-3.175
G1 Y285.75
G3 X440.625 Y282.575 I9.205 J0.0
G3 X440.0601 Y279.4 I8.6401 J-3.175
G1 Y215.9
G3 X440.625 Y212.725 I9.205 J0.0
G3 X440.0601 Y209.55 I8.6401 J-3.175
G1 Y146.05
G3 X440.625 Y142.875 I9.205 J0.0
G3 X440.0601 Y139.7 I8.6401 J-3.175
G1 Y76.2
G3 X440.6236 Y73.0287 I9.205 J0.0
G3 X440.0575 Y69.85 I8.6414 J-3.1787
G1 Y9.2075
G1 X439.4225
G1 Y69.85
G3 X438.8578 Y73.025 I-9.2075 J0.0
G3 X439.4225 Y76.2 I-8.6428 J3.175
G1 Y139.7
G3 X438.8578 Y142.875 I-9.2075 J0.0
G3 X439.4225 Y146.05 I-8.6428 J3.175
G1 Y209.55
G3 X438.8578 Y212.725 I-9.2075 J0.0
G3 X439.4225 Y215.9 I-8.6428 J3.175
G1 Y279.4
G3 X438.8578 Y282.575 I-9.2075 J0.0
G3 X439.4225 Y285.75 I-8.6428 J3.175
G1 Y349.25
G3 X438.8578 Y352.425 I-9.2075 J0.0
G3 X439.4225 Y355.6 I-8.6428 J3.175
G1 Y419.1
G3 X438.8578 Y422.275 I-9.2075 J0.0
G3 X439.4225 Y425.45 I-8.6428 J3.175
G1 Y488.95
G3 X438.8578 Y492.125 I-9.2075 J0.0
G3 X439.4225 Y495.3 I-8.6428 J3.175
G1 Y558.8
G3 X438.8578 Y561.975 I-9.2075 J0.0
G3 X439.4225 Y565.15 I-8.6428 J3.175
G1 Y628.65
G3 X439.1268 Y630.9651 I-9.2075 J0.0
G0 Z25.0
G0 X437.8975 Y630.6457
G0 Z-5.9
G1 F120.0 Z-7.0
G3 F3000.0 X437.4899 Y631.825 I-7.6825 J-1.9957
G3 X438.1525 Y635.0 I-7.2748 J3.175
G1 Y722.3125
G1 X441.3275
G1 Y635.0
G3 X441.9916 Y631.8218 I7.9375 J0.0
G3 X441.3301 Y628.65 I7.2735 J-3.1718
G1 Y565.15
G3 X441.993 Y561.975 I7.935 J0.0
G3 X441.3301 Y558.8 I7.2721 J-3.175
G1 Y495.3
G3 X441.993 Y492.125 I7.935 J0.0
G3 X441.3301 Y488.95 I7.2721 J-3.175
G1 Y425.45
G3 X441.993 Y422.275 I7.935 J0.0
G3 X441.3301 Y419.1 I7.2721 J-3.175
G1 Y355.6
G3 X441.993 Y352.425 I7.935 J0.0
G3 X441.3301 Y349.25 I7.2721 J-3.175
G1 Y285.75
G3 X441.993 Y282.575 I7.935 J0.0
G3 X441.3301 Y279.4 I7.2721 J-3.175
G1 Y215.9
G3 X441.993 Y212.725 I7.935 J0.0
G3 X441.3301 Y209.55 I7.2721 J-3.175
G1 Y146.05
G3 X441.993 Y142.875 I7.935 J0.0
G3 X441.3301 Y139.7 I7.2721 J-3.175
G1 Y76.2
G3 X441.9916 Y73.0282 I7.935 J0.0
G3 X441.3275 Y69.85 I7.2735 J-3.1782
G1 Y7.9375
G1 X438.1525
G1 Y69.85
G3 X437.4899 Y73.025 I-7.9375 J0.0
G3 X438.1525 Y76.2 I-7.2748 J3.175
G1 Y139.7
G3 X437.4899 Y142.875 I-7.9375 J0.0
G3 X438.1525 Y146.05 I-7.2748 J3.175
G1 Y209.55
G3 X437.4899 Y212.725 I-7.9375 J0.0
G3 X438.1525 Y215.9 I-7.2748 J3.175
G1 Y279.4
G3 X437.4899 Y282.575 I-7.9375 J0.0
G3 X438.1525 Y285.75 I-7.2748 J3.175
G1 Y349.25
G3 X437.4899 Y352.425 I-7.9375 J0.0
G3 X438.1525 Y355.6 I-7.2748 J3.175
G1 Y419.1
G3 X437.4899 Y422.275 I-7.9375 J0.0
G3 X438.1525 Y425.45 I-7.2748 J3.175
G1 Y488.95
G3 X437.4899 Y492.125 I-7.9375 J0.0
G3 X438.1525 Y495.3 I-7.2748 J3.175
G1 Y558.8
G3 X437.4899 Y561.975 I-7.9375 J0.0
G3 X438.1525 Y565.15 I-7.2748 J3.175
G1 Y628.65
G3 X437.8975 Y630.6457 I-7.9375 J0.0
G0 Z25.0
G0 X436.6683 Y630.3264
G0 Z-5.9
G1 F120.0 Z-7.0
G3 F3000.0 X436.0781 Y631.825 I-6.4533 J-1.6764
G3 X436.8825 Y635.0 I-5.863 J3.175
G1 Y723.5825
G1 X442.5975
G1 Y635.0
G3 X443.4035 Y631.8223 I6.6675 J0.0
