( Made using CamBam - http://www.cambam.co.uk )
( Platform_Base_Upper 11/18/2019 2:32:50 AM )
( T10 : 2.0 )
( T15 : 6.35 )
G21 G90 G91.1 G64 G40
G0 Z3.0
( T15 : 6.35 )
T15 M6
( Pocket1 )
G17
M3 S12000
G0 X303.7944 Y55.88
G0 Z0.1
G1 F120.0 Z-1.0
G3 F3000.0 X304.8 Y57.1818 I-8.5194 J7.62
G3 X305.8056 Y55.88 I9.525 J6.3182
G1 X303.7944
G0 Z3.0
G0 X306.705 Y497.4694
G0 Z0.1
G1 F120.0 Z-1.0
G1 F3000.0 Y499.4806
G3 X308.0068 Y498.475 I7.62 J8.5194
G3 X306.705 Y497.4694 I6.3182 J-9.525
G0 Z3.0
G0 X304.8 Y717.5182
G0 Z0.1
G1 F120.0 Z-1.0
G3 F3000.0 X301.5932 Y720.725 I-9.525 J-6.3182
G3 X304.8 Y723.9318 I-6.3182 J9.525
G3 X308.0068 Y720.725 I9.525 J6.3182
G3 X304.8 Y717.5182 I6.3182 J-9.525
G0 Z3.0
G0 Y1162.0182
G0 Z0.1
G1 F120.0 Z-1.0
G3 F3000.0 X303.7944 Y1163.32 I-9.525 J-6.3182
G1 X305.8056
G3 X304.8 Y1162.0182 I8.5194 J-7.62
G0 Z3.0
G0 X301.3604 Y1159.7366
G0 Z0.1
G1 F120.0 Z-1.0
G3 F3000.0 X295.275 Y1163.0025 I-6.0854 J-4.0366
G1 X7.3025
G1 Y1167.4475
G1 X602.2975
G1 Y1163.0025
G1 X314.325
G3 X307.0225 Y1155.7 I0.0 J-7.3025
G1 Y730.25
G3 X314.325 Y722.9475 I7.3025 J0.0
G1 X602.2975
G1 Y718.5025
G1 X314.325
G3 X307.0225 Y711.2 I0.0 J-7.3025
G1 Y508.0
G3 X314.325 Y500.6975 I7.3025 J0.0
G1 X602.2975
G1 Y496.2525
G1 X314.325
G3 X307.0225 Y488.95 I0.0 J-7.3025
G1 Y63.5
G3 X314.325 Y56.1975 I7.3025 J0.0
G1 X602.2975
G1 Y51.7525
G1 X7.3025
G1 Y56.1975
G1 X295.275
G3 X302.5775 Y63.5 I0.0 J7.3025
G1 Y711.2
G3 X295.275 Y718.5025 I-7.3025 J0.0
G1 X7.3025
G1 Y722.9475
G1 X295.275
G3 X302.5775 Y730.25 I0.0 J7.3025
G1 Y1155.7
G3 X301.3604 Y1159.7366 I-7.3025 J0.0
G0 Z3.0
G0 X297.9208 Y1157.455
G0 Z0.1
G1 F120.0 Z-1.0
G3 F3000.0 X295.275 Y1158.875 I-2.6458 J-1.755
G1 X3.175
G1 Y1171.575
G1 X606.425
G1 Y1158.875
G1 X314.325
G3 X311.15 Y1155.7 I0.0 J-3.175
G1 Y730.25
G3 X314.325 Y727.075 I3.175 J0.0
G1 X606.425
G1 Y714.375
G1 X314.325
G3 X311.15 Y711.2 I0.0 J-3.175
G1 Y508.0
G3 X314.325 Y504.825 I3.175 J0.0
G1 X606.425
G1 Y492.125
G1 X314.325
G3 X311.15 Y488.95 I0.0 J-3.175
G1 Y63.5
G3 X314.325 Y60.325 I3.175 J0.0
G1 X606.425
G1 Y47.625
G1 X3.175
G1 Y60.325
G1 X295.275
G3 X298.45 Y63.5 I0.0 J3.175
G1 Y711.2
G3 X295.275 Y714.375 I-3.175 J0.0
G1 X3.175
G1 Y727.075
G1 X295.275
G3 X298.45 Y730.25 I0.0 J3.175
G1 Y1155.7
G3 X297.9208 Y1157.455 I-3.175 J0.0
G0 Z3.0
G0 X304.8 Y1162.0182
G0 Z-0.9
G1 F120.0 Z-2.0
G3 F3000.0 X303.7944 Y1163.32 I-9.525 J-6.3182
G1 X305.8056
G3 X304.8 Y1162.0182 I8.5194 J-7.62
G0 Z3.0
G0 Y723.9318
G0 Z-0.9
G1 F120.0 Z-2.0
G3 F3000.0 X308.0068 Y720.725 I9.525 J6.3182
G3 X304.8 Y717.5182 I6.3182 J-9.525
G3 X301.5932 Y720.725 I-9.525 J-6.3182
G3 X304.8 Y723.9318 I-6.3182 J9.525
G0 Z3.0
G0 X306.705 Y499.4806
G0 Z-0.9
G1 F120.0 Z-2.0
G3 F3000.0 X308.0068 Y498.475 I7.62 J8.5194
G3 X306.705 Y497.4694 I6.3182 J-9.525
G1 Y499.4806
G0 Z3.0
G0 X304.8 Y57.1818
G0 Z-0.9
G1 F120.0 Z-2.0
G3 F3000.0 X305.8056 Y55.88 I9.525 J6.3182
G1 X303.7944
G3 X304.8 Y57.1818 I-8.5194 J7.62
G0 Z3.0
G0 X301.3604 Y59.4634
G0 Z-0.9
G1 F120.0 Z-2.0
G3 F3000.0 X302.5775 Y63.5 I-6.0854 J4.0366
G1 Y711.2
G3 X295.275 Y718.5025 I-7.3025 J0.0
G1 X7.3025
G1 Y722.9475
G1 X295.275
G3 X302.5775 Y730.25 I0.0 J7.3025
G1 Y1155.7
G3 X295.275 Y1163.0025 I-7.3025 J0.0
G1 X7.3025
G1 Y1167.4475
G1 X602.2975
G1 Y1163.0025
G1 X314.325
G3 X307.0225 Y1155.7 I0.0 J-7.3025
G1 Y730.25
G3 X314.325 Y722.9475 I7.3025 J0.0
G1 X602.2975
G1 Y718.5025
G1 X314.325
G3 X307.0225 Y711.2 I0.0 J-7.3025
G1 Y508.0
G3 X314.325 Y500.6975 I7.3025 J0.0
G1 X602.2975
G1 Y496.2525
G1 X314.325
G3 X307.0225 Y488.95 I0.0 J-7.3025
G1 Y63.5
G3 X314.325 Y56.1975 I7.3025 J0.0
G1 X602.2975
G1 Y51.7525
G1 X7.3025
G1 Y56.1975
G1 X295.275
G3 X301.3604 Y59.4634 I0.0 J7.3025
G0 Z3.0
G0 X297.9208 Y61.745
G0 Z-0.9
G1 F120.0 Z-2.0
G3 F3000.0 X298.45 Y63.5 I-2.6458 J1.755
G1 Y711.2
G3 X295.275 Y714.375 I-3.175 J0.0
G1 X3.175
G1 Y727.075
G1 X295.275
G3 X298.45 Y730.25 I0.0 J3.175
G1 Y1155.7
G3 X295.275 Y1158.875 I-3.175 J0.0
G1 X3.175
G1 Y1171.575
G1 X606.425
G1 Y1158.875
G1 X314.325
G3 X311.15 Y1155.7 I0.0 J-3.175
G1 Y730.25
G3 X314.325 Y727.075 I3.175 J0.0
G1 X606.425
G1 Y714.375
G1 X314.325
G3 X311.15 Y711.2 I0.0 J-3.175
G1 Y508.0
G3 X314.325 Y504.825 I3.175 J0.0
G1 X606.425
G1 Y492.125
G1 X314.325
G3 X311.15 Y488.95 I0.0 J-3.175
G1 Y63.5
G3 X314.325 Y60.325 I3.175 J0.0
G1 X606.425
G1 Y47.625
G1 X3.175
G1 Y60.325
G1 X295.275
G3 X297.9208 Y61.745 I0.0 J3.175
G0 Z3.0
G0 X304.8 Y57.1818
G0 Z-1.9
G1 F120.0 Z-3.0
G3 F3000.0 X305.8056 Y55.88 I9.525 J6.3182
G1 X303.7944
G3 X304.8 Y57.1818 I-8.5194 J7.62
G0 Z3.0
G0 X306.705 Y497.4694
G0 Z-1.9
G1 F120.0 Z-3.0
G1 F3000.0 Y499.4806
G3 X308.0068 Y498.475 I7.62 J8.5194
G3 X306.705 Y497.4694 I6.3182 J-9.525
G0 Z3.0
G0 X304.8 Y717.5182
G0 Z-1.9
G1 F120.0 Z-3.0
G3 F3000.0 X301.5932 Y720.725 I-9.525 J-6.3182
G3 X304.8 Y723.9318 I-6.3182 J9.525
G3 X308.0068 Y720.725 I9.525 J6.3182
G3 X304.8 Y717.5182 I6.3182 J-9.525
G0 Z3.0
G0 Y1162.0182
G0 Z-1.9
G1 F120.0 Z-3.0
G3 F3000.0 X303.7944 Y1163.32 I-9.525 J-6.3182
G1 X305.8056
G3 X304.8 Y1162.0182 I8.5194 J-7.62
G0 Z3.0
G0 X301.3604 Y1159.7366
G0 Z-1.9
G1 F120.0 Z-3.0
G3 F3000.0 X295.275 Y1163.0025 I-6.0854 J-4.0366
G1 X7.3025
G1 Y1167.4475
G1 X602.2975
G1 Y1163.0025
G1 X314.325
G3 X307.0225 Y1155.7 I0.0 J-7.3025
G1 Y730.25
G3 X314.325 Y722.9475 I7.3025 J0.0
G1 X602.2975
G1 Y718.5025
G1 X314.325
G3 X307.0225 Y711.2 I0.0 J-7.3025
G1 Y508.0
G3 X314.325 Y500.6975 I7.3025 J0.0
G1 X602.2975
G1 Y496.2525
G1 X314.325
G3 X307.0225 Y488.95 I0.0 J-7.3025
G1 Y63.5
G3 X314.325 Y56.1975 I7.3025 J0.0
G1 X602.2975
G1 Y51.7525
G1 X7.3025
G1 Y56.1975
G1 X295.275
G3 X302.5775 Y63.5 I0.0 J7.3025
G1 Y711.2
G3 X295.275 Y718.5025 I-7.3025 J0.0
G1 X7.3025
G1 Y722.9475
G1 X295.275
G3 X302.5775 Y730.25 I0.0 J7.3025
G1 Y1155.7
G3 X301.3604 Y1159.7366 I-7.3025 J0.0
G0 Z3.0
G0 X297.9208 Y1157.455
G0 Z-1.9
G1 F120.0 Z-3.0
G3 F3000.0 X295.275 Y1158.875 I-2.6458 J-1.755
G1 X3.175
G1 Y1171.575
G1 X606.425
G1 Y1158.875
G1 X314.325
G3 X311.15 Y1155.7 I0.0 J-3.175
G1 Y730.25
G3 X314.325 Y727.075 I3.175 J0.0
G1 X606.425
G1 Y714.375
G1 X314.325
G3 X311.15 Y711.2 I0.0 J-3.175
G1 Y508.0
G3 X314.325 Y504.825 I3.175 J0.0
G1 X606.425
G1 Y492.125
G1 X314.325
G3 X311.15 Y488.95 I0.0 J-3.175
G1 Y63.5
G3 X314.325 Y60.325 I3.175 J0.0
G1 X606.425
G1 Y47.625
G1 X3.175
G1 Y60.325
G1 X295.275
G3 X298.45 Y63.5 I0.0 J3.175
G1 Y711.2
G3 X295.275 Y714.375 I-3.175 J0.0
G1 X3.175
G1 Y727.075
G1 X295.275
G3 X298.45 Y730.25 I0.0 J3.175
G1 Y1155.7
G3 X297.9208 Y1157.455 I-3.175 J0.0
G0 Z3.0
G0 X304.8 Y1162.0182
G0 Z-2.9
G1 F120.0 Z-4.0
G3 F3000.0 X303.7944 Y1163.32 I-9.525 J-6.3182
G1 X305.8056
G3 X304.8 Y1162.0182 I8.5194 J-7.62
G0 Z3.0
G0 Y723.9318
G0 Z-2.9
G1 F120.0 Z-4.0
G3 F3000.0 X308.0068 Y720.725 I9.525 J6.3182
G3 X304.8 Y717.5182 I6.3182 J-9.525
G3 X301.5932 Y720.725 I-9.525 J-6.3182
G3 X304.8 Y723.9318 I-6.3182 J9.525
G0 Z3.0
G0 X306.705 Y499.4806
G0 Z-2.9
G1 F120.0 Z-4.0
G3 F3000.0 X308.0068 Y498.475 I7.62 J8.5194
G3 X306.705 Y497.4694 I6.3182 J-9.525
G1 Y499.4806
G0 Z3.0
G0 X304.8 Y57.1818
G0 Z-2.9
G1 F120.0 Z-4.0
G3 F3000.0 X305.8056 Y55.88 I9.525 J6.3182
G1 X303.7944
G3 X304.8 Y57.1818 I-8.5194 J7.62
G0 Z3.0
G0 X301.3604 Y59.4634
G0 Z-2.9
G1 F120.0 Z-4.0
G3 F3000.0 X302.5775 Y63.5 I-6.0854 J4.0366
G1 Y711.2
G3 X295.275 Y718.5025 I-7.3025 J0.0
G1 X7.3025
G1 Y722.9475
G1 X295.275
G3 X302.5775 Y730.25 I0.0 J7.3025
G1 Y1155.7
G3 X295.275 Y1163.0025 I-7.3025 J0.0
G1 X7.3025
G1 Y1167.4475
G1 X602.2975
G1 Y1163.0025
G1 X314.325
G3 X307.0225 Y1155.7 I0.0 J-7.3025
G1 Y730.25
G3 X314.325 Y722.9475 I7.3025 J0.0
G1 X602.2975
G1 Y718.5025
G1 X314.325
G3 X307.0225 Y711.2 I0.0 J-7.3025
G1 Y508.0
G3 X314.325 Y500.6975 I7.3025 J0.0
G1 X602.2975
G1 Y496.2525
G1 X314.325
G3 X307.0225 Y488.95 I0.0 J-7.3025
G1 Y63.5
G3 X314.325 Y56.1975 I7.3025 J0.0
G1 X602.2975
G1 Y51.7525
G1 X7.3025
G1 Y56.1975
G1 X295.275
G3 X301.3604 Y59.4634 I0.0 J7.3025
G0 Z3.0
G0 X297.9208 Y61.745
G0 Z-2.9
G1 F120.0 Z-4.0
G3 F3000.0 X298.45 Y63.5 I-2.6458 J1.755
G1 Y711.2
G3 X295.275 Y714.375 I-3.175 J0.0
G1 X3.175
G1 Y727.075
G1 X295.275
G3 X298.45 Y730.25 I0.0 J3.175
G1 Y1155.7
G3 X295.275 Y1158.875 I-3.175 J0.0
G1 X3.175
G1 Y1171.575
G1 X606.425
G1 Y1158.875
G1 X314.325
G3 X311.15 Y1155.7 I0.0 J-3.175
G1 Y730.25
G3 X314.325 Y727.075 I3.175 J0.0
G1 X606.425
G1 Y714.375
G1 X314.325
G3 X311.15 Y711.2 I0.0 J-3.175
G1 Y508.0
G3 X314.325 Y504.825 I3.175 J0.0
G1 X606.425
G1 Y492.125
G1 X314.325
G3 X311.15 Y488.95 I0.0 J-3.175
G1 Y63.5
G3 X314.325 Y60.325 I3.175 J0.0
G1 X606.425
G1 Y47.625
G1 X3.175
G1 Y60.325
G1 X295.275
G3 X297.9208 Y61.745 I0.0 J3.175
G0 Z3.0
G0 X304.8 Y57.1818
G0 Z-3.9
G1 F120.0 Z-5.0
G3 F3000.0 X305.8056 Y55.88 I9.525 J6.3182
G1 X303.7944
G3 X304.8 Y57.1818 I-8.5194 J7.62
G0 Z3.0
G0 X306.705 Y497.4694
G0 Z-3.9
G1 F120.0 Z-5.0
G1 F3000.0 Y499.4806
G3 X308.0068 Y498.475 I7.62 J8.5194
G3 X306.705 Y497.4694 I6.3182 J-9.525
G0 Z3.0
G0 X304.8 Y717.5182
G0 Z-3.9
G1 F120.0 Z-5.0
G3 F3000.0 X301.5932 Y720.725 I-9.525 J-6.3182
G3 X304.8 Y723.9318 I-6.3182 J9.525
G3 X308.0068 Y720.725 I9.525 J6.3182
G3 X304.8 Y717.5182 I6.3182 J-9.525
G0 Z3.0
G0 Y1162.0182
G0 Z-3.9
G1 F120.0 Z-5.0
G3 F3000.0 X303.7944 Y1163.32 I-9.525 J-6.3182
G1 X305.8056
G3 X304.8 Y1162.0182 I8.5194 J-7.62
G0 Z3.0
G0 X301.3604 Y1159.7366
G0 Z-3.9
G1 F120.0 Z-5.0
G3 F3000.0 X295.275 Y1163.0025 I-6.0854 J-4.0366
G1 X7.3025
G1 Y1167.4475
G1 X602.2975
G1 Y1163.0025
G1 X314.325
G3 X307.0225 Y1155.7 I0.0 J-7.3025
G1 Y730.25
G3 X314.325 Y722.9475 I7.3025 J0.0
G1 X602.2975
G1 Y718.5025
G1 X314.325
G3 X307.0225 Y711.2 I0.0 J-7.3025
G1 Y508.0
G3 X314.325 Y500.6975 I7.3025 J0.0
G1 X602.2975
G1 Y496.2525
G1 X314.325
G3 X307.0225 Y488.95 I0.0 J-7.3025
G1 Y63.5
G3 X314.325 Y56.1975 I7.3025 J0.0
G1 X602.2975
G1 Y51.7525
G1 X7.3025
G1 Y56.1975
G1 X295.275
G3 X302.5775 Y63.5 I0.0 J7.3025
G1 Y711.2
G3 X295.275 Y718.5025 I-7.3025 J0.0
G1 X7.3025
G1 Y722.9475
G1 X295.275
G3 X302.5775 Y730.25 I0.0 J7.3025
G1 Y1155.7
G3 X301.3604 Y1159.7366 I-7.3025 J0.0
G0 Z3.0
G0 X297.9208 Y1157.455
G0 Z-3.9
G1 F120.0 Z-5.0
G3 F3000.0 X295.275 Y1158.875 I-2.6458 J-1.755
G1 X3.175
G1 Y1171.575
G1 X606.425
G1 Y1158.875
G1 X314.325
G3 X311.15 Y1155.7 I0.0 J-3.175
G1 Y730.25
G3 X314.325 Y727.075 I3.175 J0.0
G1 X606.425
G1 Y714.375
G1 X314.325
G3 X311.15 Y711.2 I0.0 J-3.175
G1 Y508.0
G3 X314.325 Y504.825 I3.175 J0.0
G1 X606.425
G1 Y492.125
G1 X314.325
G3 X311.15 Y488.95 I0.0 J-3.175
G1 Y63.5
G3 X314.325 Y60.325 I3.175 J0.0
G1 X606.425
G1 Y47.625
G1 X3.175
G1 Y60.325
G1 X295.275
G3 X298.45 Y63.5 I0.0 J3.175
G1 Y711.2
G3 X295.275 Y714.375 I-3.175 J0.0
G1 X3.175
G1 Y727.075
G1 X295.275
G3 X298.45 Y730.25 I0.0 J3.175
G1 Y1155.7
G3 X297.9208 Y1157.455 I-3.175 J0.0
G0 Z3.0
G0 X304.8 Y1162.0182
G0 Z-4.9
G1 F120.0 Z-6.0
G3 F3000.0 X303.7944 Y1163.32 I-9.525 J-6.3182
G1 X305.8056
G3 X304.8 Y1162.0182 I8.5194 J-7.62
G0 Z3.0
G0 Y723.9318
G0 Z-4.9
G1 F120.0 Z-6.0
G3 F3000.0 X308.0068 Y720.725 I9.525 J6.3182
G3 X304.8 Y717.5182 I6.3182 J-9.525
G3 X301.5932 Y720.725 I-9.525 J-6.3182
G3 X304.8 Y723.9318 I-6.3182 J9.525
G0 Z3.0
G0 X306.705 Y499.4806
G0 Z-4.9
G1 F120.0 Z-6.0
G3 F3000.0 X308.0068 Y498.475 I7.62 J8.5194
G3 X306.705 Y497.4694 I6.3182 J-9.525
G1 Y499.4806
G0 Z3.0
G0 X304.8 Y57.1818
G0 Z-4.9
G1 F120.0 Z-6.0
G3 F3000.0 X305.8056 Y55.88 I9.525 J6.3182
G1 X303.7944
G3 X304.8 Y57.1818 I-8.5194 J7.62
G0 Z3.0
G0 X301.3604 Y59.4634
G0 Z-4.9
G1 F120.0 Z-6.0
G3 F3000.0 X302.5775 Y63.5 I-6.0854 J4.0366
G1 Y711.2
G3 X295.275 Y718.5025 I-7.3025 J0.0
G1 X7.3025
G1 Y722.9475
G1 X295.275
G3 X302.5775 Y730.25 I0.0 J7.3025
G1 Y1155.7
G3 X295.275 Y1163.0025 I-7.3025 J0.0
G1 X7.3025
G1 Y1167.4475
G1 X602.2975
G1 Y1163.0025
G1 X314.325
G3 X307.0225 Y1155.7 I0.0 J-7.3025
G1 Y730.25
G3 X314.325 Y722.9475 I7.3025 J0.0
G1 X602.2975
G1 Y718.5025
G1 X314.325
G3 X307.0225 Y711.2 I0.0 J-7.3025
G1 Y508.0
G3 X314.325 Y500.6975 I7.3025 J0.0
G1 X602.2975
G1 Y496.2525
G1 X314.325
G3 X307.0225 Y488.95 I0.0 J-7.3025
G1 Y63.5
G3 X314.325 Y56.1975 I7.3025 J0.0
G1 X602.2975
G1 Y51.7525
G1 X7.3025
G1 Y56.1975
G1 X295.275
G3 X301.3604 Y59.4634 I0.0 J7.3025
G0 Z3.0
G0 X297.9208 Y61.745
G0 Z-4.9
G1 F120.0 Z-6.0
G3 F3000.0 X298.45 Y63.5 I-2.6458 J1.755
G1 Y711.2
G3 X295.275 Y714.375 I-3.175 J0.0
G1 X3.175
G1 Y727.075
G1 X295.275
G3 X298.45 Y730.25 I0.0 J3.175
G1 Y1155.7
G3 X295.275 Y1158.875 I-3.175 J0.0
G1 X3.175
G1 Y1171.575
G1 X606.425
G1 Y1158.875
G1 X314.325
G3 X311.15 Y1155.7 I0.0 J-3.175
G1 Y730.25
G3 X314.325 Y727.075 I3.175 J0.0
G1 X606.425
G1 Y714.375
G1 X314.325
G3 X311.15 Y711.2 I0.0 J-3.175
G1 Y508.0
G3 X314.325 Y504.825 I3.175 J0.0
G1 X606.425
G1 Y492.125
G1 X314.325
G3 X311.15 Y488.95 I0.0 J-3.175
G1 Y63.5
G3 X314.325 Y60.325 I3.175 J0.0
G1 X606.425
G1 Y47.625
G1 X3.175
G1 Y60.325
G1 X295.275
G3 X297.9208 Y61.745 I0.0 J3.175
G0 Z3.0
G0 X304.8 Y57.1818
G0 Z-5.9
G1 F120.0 Z-6.35
G3 F3000.0 X305.8056 Y55.88 I9.525 J6.3182
G1 X303.7944
G3 X304.8 Y57.1818 I-8.5194 J7.62
G0 Z3.0
G0 X306.705 Y497.4694
G0 Z-5.9
G1 F120.0 Z-6.35
G1 F3000.0 Y499.4806
G3 X308.0068 Y498.475 I7.62 J8.5194
G3 X306.705 Y497.4694 I6.3182 J-9.525
G0 Z3.0
G0 X304.8 Y717.5182
G0 Z-5.9
G1 F120.0 Z-6.35
G3 F3000.0 X301.5932 Y720.725 I-9.525 J-6.3182
G3 X304.8 Y723.9318 I-6.3182 J9.525
G3 X308.0068 Y720.725 I9.525 J6.3182
G3 X304.8 Y717.5182 I6.3182 J-9.525
G0 Z3.0
G0 Y1162.0182
G0 Z-5.9
G1 F120.0 Z-6.35
G3 F3000.0 X303.7944 Y1163.32 I-9.525 J-6.3182
G1 X305.8056
G3 X304.8 Y1162.0182 I8.5194 J-7.62
G0 Z3.0
G0 X301.3604 Y1159.7366
G0 Z-5.25
G1 F120.0 Z-6.35
G3 F3000.0 X295.275 Y1163.0025 I-6.0854 J-4.0366
G1 X7.3025
G1 Y1167.4475
G1 X602.2975
G1 Y1163.0025
G1 X314.325
G3 X307.0225 Y1155.7 I0.0 J-7.3025
G1 Y730.25
G3 X314.325 Y722.9475 I7.3025 J0.0
G1 X602.2975
G1 Y718.5025
G1 X314.325
G3 X307.0225 Y711.2 I0.0 J-7.3025
G1 Y508.0
G3 X314.325 Y500.6975 I7.3025 J0.0
G1 X602.2975
G1 Y496.2525
G1 X314.325
G3 X307.0225 Y488.95 I0.0 J-7.3025
G1 Y63.5
G3 X314.325 Y56.1975 I7.3025 J0.0
G1 X602.2975
G1 Y51.7525
G1 X7.3025
G1 Y56.1975
G1 X295.275
G3 X302.5775 Y63.5 I0.0 J7.3025
G1 Y711.2
G3 X295.275 Y718.5025 I-7.3025 J0.0
G1 X7.3025
G1 Y722.9475
G1 X295.275
G3 X302.5775 Y730.25 I0.0 J7.3025
G1 Y1155.7
G3 X301.3604 Y1159.7366 I-7.3025 J0.0
G0 Z3.0
G0 X297.9208 Y1157.455
G0 Z-5.25
G1 F120.0 Z-6.35
G3 F3000.0 X295.275 Y1158.875 I-2.6458 J-1.755
G1 X3.175
G1 Y1171.575
G1 X606.425
G1 Y1158.875
G1 X314.325
G3 X311.15 Y1155.7 I0.0 J-3.175
G1 Y730.25
G3 X314.325 Y727.075 I3.175 J0.0
G1 X606.425
G1 Y714.375
G1 X314.325
G3 X311.15 Y711.2 I0.0 J-3.175
G1 Y508.0
G3 X314.325 Y504.825 I3.175 J0.0
G1 X606.425
G1 Y492.125
G1 X314.325
G3 X311.15 Y488.95 I0.0 J-3.175
G1 Y63.5
G3 X314.325 Y60.325 I3.175 J0.0
G1 X606.425
G1 Y47.625
G1 X3.175
G1 Y60.325
G1 X295.275
G3 X298.45 Y63.5 I0.0 J3.175
G1 Y711.2
G3 X295.275 Y714.375 I-3.175 J0.0
G1 X3.175
G1 Y727.075
G1 X295.275
G3 X298.45 Y730.25 I0.0 J3.175
G1 Y1155.7
G3 X297.9208 Y1157.455 I-3.175 J0.0
( Drill1 )
G0 Z3.0
( T10 : 2.0 )
T10 M6
M3 S15000
G0 X587.375 Y22.225
G0 Z3.0
G0 X587.772 Y22.225
G0 Z0.1
G1 F120.0 Z0.0
G2 F3000.0 X587.1765 Y21.8812 Z-0.0333 I-0.397 J0.0
G2 Y22.5688 Z-0.0667 I0.1985 J0.3438
G2 X587.772 Y22.225 Z-0.1 I0.1985 J-0.3438
G2 X587.1765 Y21.8812 Z-0.1333 I-0.397 J0.0
G2 Y22.5688 Z-0.1667 I0.1985 J0.3438
G2 X587.772 Y22.225 Z-0.2 I0.1985 J-0.3438
G2 X587.1765 Y21.8812 Z-0.2333 I-0.397 J0.0
G2 Y22.5688 Z-0.2667 I0.1985 J0.3438
G2 X587.772 Y22.225 Z-0.3 I0.1985 J-0.3438
G2 X587.1765 Y21.8812 Z-0.3333 I-0.397 J0.0
G2 Y22.5688 Z-0.3667 I0.1985 J0.3438
G2 X587.772 Y22.225 Z-0.4 I0.1985 J-0.3438
G2 X587.1765 Y21.8812 Z-0.4333 I-0.397 J0.0
G2 Y22.5688 Z-0.4667 I0.1985 J0.3438
G2 X587.772 Y22.225 Z-0.5 I0.1985 J-0.3438
G2 X587.1765 Y21.8812 Z-0.5333 I-0.397 J0.0
G2 Y22.5688 Z-0.5667 I0.1985 J0.3438
G2 X587.772 Y22.225 Z-0.6 I0.1985 J-0.3438
G2 X587.1765 Y21.8812 Z-0.6333 I-0.397 J0.0
G2 Y22.5688 Z-0.6667 I0.1985 J0.3438
G2 X587.772 Y22.225 Z-0.7 I0.1985 J-0.3438
G2 X587.1765 Y21.8812 Z-0.7333 I-0.397 J0.0
G2 Y22.5688 Z-0.7667 I0.1985 J0.3438
G2 X587.772 Y22.225 Z-0.8 I0.1985 J-0.3438
G2 X587.1765 Y21.8812 Z-0.8333 I-0.397 J0.0
G2 Y22.5688 Z-0.8667 I0.1985 J0.3438
G2 X587.772 Y22.225 Z-0.9 I0.1985 J-0.3438
G2 X587.1765 Y21.8812 Z-0.9333 I-0.397 J0.0
G2 Y22.5688 Z-0.9667 I0.1985 J0.3438
G2 X587.772 Y22.225 Z-1.0 I0.1985 J-0.3438
G2 X587.1765 Y21.8812 Z-1.0333 I-0.397 J0.0
G2 Y22.5688 Z-1.0667 I0.1985 J0.3438
G2 X587.772 Y22.225 Z-1.1 I0.1985 J-0.3438
G2 X587.1765 Y21.8812 Z-1.1333 I-0.397 J0.0
G2 Y22.5688 Z-1.1667 I0.1985 J0.3438
G2 X587.772 Y22.225 Z-1.2 I0.1985 J-0.3438
G2 X587.1765 Y21.8812 Z-1.2333 I-0.397 J0.0
G2 Y22.5688 Z-1.2667 I0.1985 J0.3438
G2 X587.772 Y22.225 Z-1.3 I0.1985 J-0.3438
G2 X587.1765 Y21.8812 Z-1.3333 I-0.397 J0.0
G2 Y22.5688 Z-1.3667 I0.1985 J0.3438
G2 X587.772 Y22.225 Z-1.4 I0.1985 J-0.3438
G2 X587.1765 Y21.8812 Z-1.4333 I-0.397 J0.0
G2 Y22.5688 Z-1.4667 I0.1985 J0.3438
G2 X587.772 Y22.225 Z-1.5 I0.1985 J-0.3438
G2 X587.1765 Y21.8812 Z-1.5333 I-0.397 J0.0
G2 Y22.5688 Z-1.5667 I0.1985 J0.3438
G2 X587.772 Y22.225 Z-1.6 I0.1985 J-0.3438
G2 X587.1765 Y21.8812 Z-1.6333 I-0.397 J0.0
G2 Y22.5688 Z-1.6667 I0.1985 J0.3438
G2 X587.772 Y22.225 Z-1.7 I0.1985 J-0.3438
G2 X587.1765 Y21.8812 Z-1.7333 I-0.397 J0.0
G2 Y22.5688 Z-1.7667 I0.1985 J0.3438
G2 X587.772 Y22.225 Z-1.8 I0.1985 J-0.3438
G2 X587.1765 Y21.8812 Z-1.8333 I-0.397 J0.0
G2 Y22.5688 Z-1.8667 I0.1985 J0.3438
G2 X587.772 Y22.225 Z-1.9 I0.1985 J-0.3438
G2 X587.1765 Y21.8812 Z-1.9333 I-0.397 J0.0
G2 Y22.5688 Z-1.9667 I0.1985 J0.3438
G2 X587.772 Y22.225 Z-2.0 I0.1985 J-0.3438
G2 X587.1765 Y21.8812 Z-2.0333 I-0.397 J0.0
G2 Y22.5688 Z-2.0667 I0.1985 J0.3438
G2 X587.772 Y22.225 Z-2.1 I0.1985 J-0.3438
G2 X587.1765 Y21.8812 Z-2.1333 I-0.397 J0.0
G2 Y22.5688 Z-2.1667 I0.1985 J0.3438
G2 X587.772 Y22.225 Z-2.2 I0.1985 J-0.3438
G2 X587.1765 Y21.8812 Z-2.2333 I-0.397 J0.0
G2 Y22.5688 Z-2.2667 I0.1985 J0.3438
G2 X587.772 Y22.225 Z-2.3 I0.1985 J-0.3438
G2 X587.1765 Y21.8812 Z-2.3333 I-0.397 J0.0
G2 Y22.5688 Z-2.3667 I0.1985 J0.3438
G2 X587.772 Y22.225 Z-2.4 I0.1985 J-0.3438
G2 X587.1765 Y21.8812 Z-2.4333 I-0.397 J0.0
G2 Y22.5688 Z-2.4667 I0.1985 J0.3438
G2 X587.772 Y22.225 Z-2.5 I0.1985 J-0.3438
G2 X587.1765 Y21.8812 Z-2.5333 I-0.397 J0.0
G2 Y22.5688 Z-2.5667 I0.1985 J0.3438
G2 X587.772 Y22.225 Z-2.6 I0.1985 J-0.3438
G2 X587.1765 Y21.8812 Z-2.6333 I-0.397 J0.0
G2 Y22.5688 Z-2.6667 I0.1985 J0.3438
G2 X587.772 Y22.225 Z-2.7 I0.1985 J-0.3438
G2 X587.1765 Y21.8812 Z-2.7333 I-0.397 J0.0
G2 Y22.5688 Z-2.7667 I0.1985 J0.3438
G2 X587.772 Y22.225 Z-2.8 I0.1985 J-0.3438
G2 X587.1765 Y21.8812 Z-2.8333 I-0.397 J0.0
G2 Y22.5688 Z-2.8667 I0.1985 J0.3438
G2 X587.772 Y22.225 Z-2.9 I0.1985 J-0.3438
G2 X587.1765 Y21.8812 Z-2.9333 I-0.397 J0.0
G2 Y22.5688 Z-2.9667 I0.1985 J0.3438
G2 X587.772 Y22.225 Z-3.0 I0.1985 J-0.3438
G2 X587.1765 Y21.8812 Z-3.0333 I-0.397 J0.0
G2 Y22.5688 Z-3.0667 I0.1985 J0.3438
G2 X587.772 Y22.225 Z-3.1 I0.1985 J-0.3438
G2 X587.1765 Y21.8812 Z-3.1333 I-0.397 J0.0
G2 Y22.5688 Z-3.1667 I0.1985 J0.3438
G2 X587.772 Y22.225 Z-3.2 I0.1985 J-0.3438
G2 X587.1765 Y21.8812 Z-3.2333 I-0.397 J0.0
G2 Y22.5688 Z-3.2667 I0.1985 J0.3438
G2 X587.772 Y22.225 Z-3.3 I0.1985 J-0.3438
G2 X587.1765 Y21.8812 Z-3.3333 I-0.397 J0.0
G2 Y22.5688 Z-3.3667 I0.1985 J0.3438
G2 X587.772 Y22.225 Z-3.4 I0.1985 J-0.3438
G2 X587.1765 Y21.8812 Z-3.4333 I-0.397 J0.0
G2 Y22.5688 Z-3.4667 I0.1985 J0.3438
G2 X587.772 Y22.225 Z-3.5 I0.1985 J-0.3438
G2 X587.1765 Y21.8812 Z-3.5333 I-0.397 J0.0
G2 Y22.5688 Z-3.5667 I0.1985 J0.3438
G2 X587.772 Y22.225 Z-3.6 I0.1985 J-0.3438
G2 X587.1765 Y21.8812 Z-3.6333 I-0.397 J0.0
G2 Y22.5688 Z-3.6667 I0.1985 J0.3438
G2 X587.772 Y22.225 Z-3.7 I0.1985 J-0.3438
G2 X587.1765 Y21.8812 Z-3.7333 I-0.397 J0.0
G2 Y22.5688 Z-3.7667 I0.1985 J0.3438
G2 X587.772 Y22.225 Z-3.8 I0.1985 J-0.3438
G2 X587.1765 Y21.8812 Z-3.8333 I-0.397 J0.0
G2 Y22.5688 Z-3.8667 I0.1985 J0.3438
G2 X587.772 Y22.225 Z-3.9 I0.1985 J-0.3438
G2 X587.1765 Y21.8812 Z-3.9333 I-0.397 J0.0
G2 Y22.5688 Z-3.9667 I0.1985 J0.3438
G2 X587.772 Y22.225 Z-4.0 I0.1985 J-0.3438
G2 X587.1765 Y21.8812 Z-4.0333 I-0.397 J0.0
G2 Y22.5688 Z-4.0667 I0.1985 J0.3438
G2 X587.772 Y22.225 Z-4.1 I0.1985 J-0.3438
G2 X587.1765 Y21.8812 Z-4.1333 I-0.397 J0.0
G2 Y22.5688 Z-4.1667 I0.1985 J0.3438
G2 X587.772 Y22.225 Z-4.2 I0.1985 J-0.3438
G2 X587.1765 Y21.8812 Z-4.2333 I-0.397 J0.0
G2 Y22.5688 Z-4.2667 I0.1985 J0.3438
G2 X587.772 Y22.225 Z-4.3 I0.1985 J-0.3438
G2 X587.1765 Y21.8812 Z-4.3333 I-0.397 J0.0
G2 Y22.5688 Z-4.3667 I0.1985 J0.3438
G2 X587.772 Y22.225 Z-4.4 I0.1985 J-0.3438
G2 X587.1765 Y21.8812 Z-4.4333 I-0.397 J0.0
G2 Y22.5688 Z-4.4667 I0.1985 J0.3438
G2 X587.772 Y22.225 Z-4.5 I0.1985 J-0.3438
G2 X587.1765 Y21.8812 Z-4.5333 I-0.397 J0.0
G2 Y22.5688 Z-4.5667 I0.1985 J0.3438
G2 X587.772 Y22.225 Z-4.6 I0.1985 J-0.3438
G2 X587.1765 Y21.8812 Z-4.6333 I-0.397 J0.0
G2 Y22.5688 Z-4.6667 I0.1985 J0.3438
G2 X587.772 Y22.225 Z-4.7 I0.1985 J-0.3438
G2 X587.1765 Y21.8812 Z-4.7333 I-0.397 J0.0
G2 Y22.5688 Z-4.7667 I0.1985 J0.3438
G2 X587.772 Y22.225 Z-4.8 I0.1985 J-0.3438
G2 X587.1765 Y21.8812 Z-4.8333 I-0.397 J0.0
G2 Y22.5688 Z-4.8667 I0.1985 J0.3438
G2 X587.772 Y22.225 Z-4.9 I0.1985 J-0.3438
G2 X587.1765 Y21.8812 Z-4.9333 I-0.397 J0.0
G2 Y22.5688 Z-4.9667 I0.1985 J0.3438
G2 X587.772 Y22.225 Z-5.0 I0.1985 J-0.3438
G2 X587.1765 Y21.8812 Z-5.0333 I-0.397 J0.0
G2 Y22.5688 Z-5.0667 I0.1985 J0.3438
G2 X587.772 Y22.225 Z-5.1 I0.1985 J-0.3438
G2 X587.1765 Y21.8812 Z-5.1333 I-0.397 J0.0
G2 Y22.5688 Z-5.1667 I0.1985 J0.3438
G2 X587.772 Y22.225 Z-5.2 I0.1985 J-0.3438
G2 X587.1765 Y21.8812 Z-5.2333 I-0.397 J0.0
G2 Y22.5688 Z-5.2667 I0.1985 J0.3438
G2 X587.772 Y22.225 Z-5.3 I0.1985 J-0.3438
G2 X587.1765 Y21.8812 Z-5.3333 I-0.397 J0.0
G2 Y22.5688 Z-5.3667 I0.1985 J0.3438
G2 X587.772 Y22.225 Z-5.4 I0.1985 J-0.3438
G2 X587.1765 Y21.8812 Z-5.4333 I-0.397 J0.0
G2 Y22.5688 Z-5.4667 I0.1985 J0.3438
G2 X587.772 Y22.225 Z-5.5 I0.1985 J-0.3438
G2 X587.1765 Y21.8812 Z-5.5333 I-0.397 J0.0
G2 Y22.5688 Z-5.5667 I0.1985 J0.3438
G2 X587.772 Y22.225 Z-5.6 I0.1985 J-0.3438
G2 X587.1765 Y21.8812 Z-5.6333 I-0.397 J0.0
G2 Y22.5688 Z-5.6667 I0.1985 J0.3438
G2 X587.772 Y22.225 Z-5.7 I0.1985 J-0.3438
G2 X587.1765 Y21.8812 Z-5.7333 I-0.397 J0.0
G2 Y22.5688 Z-5.7667 I0.1985 J0.3438
G2 X587.772 Y22.225 Z-5.8 I0.1985 J-0.3438
G2 X587.1765 Y21.8812 Z-5.8333 I-0.397 J0.0
G2 Y22.5688 Z-5.8667 I0.1985 J0.3438
G2 X587.772 Y22.225 Z-5.9 I0.1985 J-0.3438
G2 X587.1765 Y21.8812 Z-5.9333 I-0.397 J0.0
G2 Y22.5688 Z-5.9667 I0.1985 J0.3438
G2 X587.772 Y22.225 Z-6.0 I0.1985 J-0.3438
G2 X587.1765 Y21.8812 Z-6.0333 I-0.397 J0.0
G2 Y22.5688 Z-6.0667 I0.1985 J0.3438
G2 X587.772 Y22.225 Z-6.1 I0.1985 J-0.3438
G2 X587.1765 Y21.8812 Z-6.1333 I-0.397 J0.0
G2 Y22.5688 Z-6.1667 I0.1985 J0.3438
G2 X587.772 Y22.225 Z-6.2 I0.1985 J-0.3438
G2 X587.1765 Y21.8812 Z-6.2333 I-0.397 J0.0
G2 Y22.5688 Z-6.2667 I0.1985 J0.3438
G2 X587.772 Y22.225 Z-6.3 I0.1985 J-0.3438
G2 X587.1765 Y21.8812 Z-6.3333 I-0.397 J0.0
G2 Y22.5688 Z-6.3667 I0.1985 J0.3438
G2 X587.772 Y22.225 Z-6.4 I0.1985 J-0.3438
G2 X587.1765 Y21.8812 Z-6.4333 I-0.397 J0.0
G2 Y22.5688 Z-6.4667 I0.1985 J0.3438
G2 X587.772 Y22.225 Z-6.5 I0.1985 J-0.3438
G2 X587.1765 Y21.8812 Z-6.5333 I-0.397 J0.0
G2 Y22.5688 Z-6.5667 I0.1985 J0.3438
G2 X587.772 Y22.225 Z-6.6 I0.1985 J-0.3438
G2 X587.1765 Y21.8812 Z-6.6333 I-0.397 J0.0
G2 Y22.5688 Z-6.6667 I0.1985 J0.3438
G2 X587.772 Y22.225 Z-6.7 I0.1985 J-0.3438
G2 X587.1765 Y21.8812 Z-6.7333 I-0.397 J0.0
G2 Y22.5688 Z-6.7667 I0.1985 J0.3438
G2 X587.772 Y22.225 Z-6.8 I0.1985 J-0.3438
G2 X587.1765 Y21.8812 Z-6.8333 I-0.397 J0.0
G2 Y22.5688 Z-6.8667 I0.1985 J0.3438
G2 X587.772 Y22.225 Z-6.9 I0.1985 J-0.3438
G2 X587.1765 Y21.8812 Z-6.9333 I-0.397 J0.0
G2 Y22.5688 Z-6.9667 I0.1985 J0.3438
G2 X587.772 Y22.225 Z-7.0 I0.1985 J-0.3438
G2 X587.1765 Y21.8812 Z-7.0333 I-0.397 J0.0
G2 Y22.5688 Z-7.0667 I0.1985 J0.3438
G2 X587.772 Y22.225 Z-7.1 I0.1985 J-0.3438
G2 X587.1765 Y21.8812 Z-7.1333 I-0.397 J0.0
G2 Y22.5688 Z-7.1667 I0.1985 J0.3438
G2 X587.772 Y22.225 Z-7.2 I0.1985 J-0.3438
G2 X587.1765 Y21.8812 Z-7.2333 I-0.397 J0.0
G2 Y22.5688 Z-7.2667 I0.1985 J0.3438
G2 X587.772 Y22.225 Z-7.3 I0.1985 J-0.3438
G2 X587.1765 Y21.8812 Z-7.3333 I-0.397 J0.0
G2 Y22.5688 Z-7.3667 I0.1985 J0.3438
G2 X587.772 Y22.225 Z-7.4 I0.1985 J-0.3438
G2 X587.1765 Y21.8812 Z-7.4333 I-0.397 J0.0
G2 Y22.5688 Z-7.4667 I0.1985 J0.3438
G2 X587.772 Y22.225 Z-7.5 I0.1985 J-0.3438
G2 X587.1765 Y21.8812 Z-7.5333 I-0.397 J0.0
G2 Y22.5688 Z-7.5667 I0.1985 J0.3438
G2 X587.772 Y22.225 Z-7.6 I0.1985 J-0.3438
G2 X587.1765 Y21.8812 Z-7.6333 I-0.397 J0.0
G2 Y22.5688 Z-7.6667 I0.1985 J0.3438
G2 X587.772 Y22.225 Z-7.7 I0.1985 J-0.3438
G2 X587.1765 Y21.8812 Z-7.7333 I-0.397 J0.0
G2 Y22.5688 Z-7.7667 I0.1985 J0.3438
G2 X587.772 Y22.225 Z-7.8 I0.1985 J-0.3438
G2 X587.1765 Y21.8812 Z-7.8333 I-0.397 J0.0
G2 Y22.5688 Z-7.8667 I0.1985 J0.3438
G2 X587.772 Y22.225 Z-7.9 I0.1985 J-0.3438
G2 X587.1765 Y21.8812 Z-7.9333 I-0.397 J0.0
G2 Y22.5688 Z-7.9667 I0.1985 J0.3438
G2 X587.772 Y22.225 Z-8.0 I0.1985 J-0.3438
G2 X587.1765 Y21.8812 Z-8.0333 I-0.397 J0.0
G2 Y22.5688 Z-8.0667 I0.1985 J0.3438
G2 X587.772 Y22.225 Z-8.1 I0.1985 J-0.3438
G2 X587.1765 Y21.8812 Z-8.1333 I-0.397 J0.0
G2 Y22.5688 Z-8.1667 I0.1985 J0.3438
G2 X587.772 Y22.225 Z-8.2 I0.1985 J-0.3438
G2 X587.1765 Y21.8812 Z-8.2333 I-0.397 J0.0
G2 Y22.5688 Z-8.2667 I0.1985 J0.3438
G2 X587.772 Y22.225 Z-8.3 I0.1985 J-0.3438
G2 X587.1765 Y21.8812 Z-8.3333 I-0.397 J0.0
G2 Y22.5688 Z-8.3667 I0.1985 J0.3438
G2 X587.772 Y22.225 Z-8.4 I0.1985 J-0.3438
G2 X587.1765 Y21.8812 Z-8.4333 I-0.397 J0.0
G2 Y22.5688 Z-8.4667 I0.1985 J0.3438
G2 X587.772 Y22.225 Z-8.5 I0.1985 J-0.3438
G2 X587.1765 Y21.8812 Z-8.5333 I-0.397 J0.0
G2 Y22.5688 Z-8.5667 I0.1985 J0.3438
G2 X587.772 Y22.225 Z-8.6 I0.1985 J-0.3438
G2 X587.1765 Y21.8812 Z-8.6333 I-0.397 J0.0
G2 Y22.5688 Z-8.6667 I0.1985 J0.3438
G2 X587.772 Y22.225 Z-8.7 I0.1985 J-0.3438
G2 X587.1765 Y21.8812 Z-8.7333 I-0.397 J0.0
G2 Y22.5688 Z-8.7667 I0.1985 J0.3438
G2 X587.772 Y22.225 Z-8.8 I0.1985 J-0.3438
G2 X587.1765 Y21.8812 Z-8.8333 I-0.397 J0.0
G2 Y22.5688 Z-8.8667 I0.1985 J0.3438
G2 X587.772 Y22.225 Z-8.9 I0.1985 J-0.3438
G2 X587.1765 Y21.8812 Z-8.9333 I-0.397 J0.0
G2 Y22.5688 Z-8.9667 I0.1985 J0.3438
G2 X587.772 Y22.225 Z-9.0 I0.1985 J-0.3438
G2 X587.1765 Y21.8812 Z-9.0333 I-0.397 J0.0
G2 Y22.5688 Z-9.0667 I0.1985 J0.3438
G2 X587.772 Y22.225 Z-9.1 I0.1985 J-0.3438
G2 X587.1765 Y21.8812 Z-9.1333 I-0.397 J0.0
G2 Y22.5688 Z-9.1667 I0.1985 J0.3438
G2 X587.772 Y22.225 Z-9.2 I0.1985 J-0.3438
G2 X587.1765 Y21.8812 Z-9.2333 I-0.397 J0.0
G2 Y22.5688 Z-9.2667 I0.1985 J0.3438
G2 X587.772 Y22.225 Z-9.3 I0.1985 J-0.3438
G2 X587.1765 Y21.8812 Z-9.3333 I-0.397 J0.0
G2 Y22.5688 Z-9.3667 I0.1985 J0.3438
G2 X587.772 Y22.225 Z-9.4 I0.1985 J-0.3438
G2 X587.1765 Y21.8812 Z-9.4333 I-0.397 J0.0
G2 Y22.5688 Z-9.4667 I0.1985 J0.3438
G2 X587.772 Y22.225 Z-9.5 I0.1985 J-0.3438
G2 X587.1765 Y21.8812 Z-9.5333 I-0.397 J0.0
G2 Y22.5688 Z-9.5667 I0.1985 J0.3438
G2 X587.772 Y22.225 Z-9.6 I0.1985 J-0.3438
G2 X587.1765 Y21.8812 Z-9.6333 I-0.397 J0.0
G2 Y22.5688 Z-9.6667 I0.1985 J0.3438
G2 X587.772 Y22.225 Z-9.7 I0.1985 J-0.3438
G2 X587.1765 Y21.8812 Z-9.7333 I-0.397 J0.0
G2 Y22.5688 Z-9.7667 I0.1985 J0.3438
G2 X587.772 Y22.225 Z-9.8 I0.1985 J-0.3438
G2 X587.1765 Y21.8812 Z-9.8333 I-0.397 J0.0
G2 Y22.5688 Z-9.8667 I0.1985 J0.3438
G2 X587.772 Y22.225 Z-9.9 I0.1985 J-0.3438
G2 X587.1765 Y21.8812 Z-9.9333 I-0.397 J0.0
G2 Y22.5688 Z-9.9667 I0.1985 J0.3438
G2 X587.772 Y22.225 Z-10.0 I0.1985 J-0.3438
G2 X587.1765 Y21.8812 Z-10.0333 I-0.397 J0.0
G2 Y22.5688 Z-10.0667 I0.1985 J0.3438
G2 X587.772 Y22.225 Z-10.1 I0.1985 J-0.3438
G2 X587.1765 Y21.8812 Z-10.1333 I-0.397 J0.0
G2 Y22.5688 Z-10.1667 I0.1985 J0.3438
G2 X587.772 Y22.225 Z-10.2 I0.1985 J-0.3438
G2 X587.1765 Y21.8812 Z-10.2333 I-0.397 J0.0
G2 Y22.5688 Z-10.2667 I0.1985 J0.3438
G2 X587.772 Y22.225 Z-10.3 I0.1985 J-0.3438
G2 X587.1765 Y21.8812 Z-10.3333 I-0.397 J0.0
G2 Y22.5688 Z-10.3667 I0.1985 J0.3438
G2 X587.772 Y22.225 Z-10.4 I0.1985 J-0.3438
G2 X587.1765 Y21.8812 Z-10.4333 I-0.397 J0.0
G2 Y22.5688 Z-10.4667 I0.1985 J0.3438
G2 X587.772 Y22.225 Z-10.5 I0.1985 J-0.3438
G2 X587.1765 Y21.8812 Z-10.5333 I-0.397 J0.0
G2 Y22.5688 Z-10.5667 I0.1985 J0.3438
G2 X587.772 Y22.225 Z-10.6 I0.1985 J-0.3438
G2 X587.1765 Y21.8812 Z-10.6333 I-0.397 J0.0
G2 Y22.5688 Z-10.6667 I0.1985 J0.3438
G2 X587.772 Y22.225 Z-10.7 I0.1985 J-0.3438
G2 X587.1765 Y21.8812 Z-10.7333 I-0.397 J0.0
G2 Y22.5688 Z-10.7667 I0.1985 J0.3438
G2 X587.772 Y22.225 Z-10.8 I0.1985 J-0.3438
G2 X587.1765 Y21.8812 Z-10.8333 I-0.397 J0.0
G2 Y22.5688 Z-10.8667 I0.1985 J0.3438
G2 X587.772 Y22.225 Z-10.9 I0.1985 J-0.3438
G2 X587.1765 Y21.8812 Z-10.9333 I-0.397 J0.0
G2 Y22.5688 Z-10.9667 I0.1985 J0.3438
G2 X587.772 Y22.225 Z-11.0 I0.1985 J-0.3438
G2 X587.1765 Y21.8812 Z-11.0333 I-0.397 J0.0
G2 Y22.5688 Z-11.0667 I0.1985 J0.3438
G2 X587.772 Y22.225 Z-11.1 I0.1985 J-0.3438
G2 X587.1765 Y21.8812 Z-11.1333 I-0.397 J0.0
G2 Y22.5688 Z-11.1667 I0.1985 J0.3438
G2 X587.772 Y22.225 Z-11.2 I0.1985 J-0.3438
G2 X587.1765 Y21.8812 Z-11.2333 I-0.397 J0.0
G2 Y22.5688 Z-11.2667 I0.1985 J0.3438
G2 X587.772 Y22.225 Z-11.3 I0.1985 J-0.3438
G2 X587.1765 Y21.8812 Z-11.3333 I-0.397 J0.0
G2 Y22.5688 Z-11.3667 I0.1985 J0.3438
G2 X587.772 Y22.225 Z-11.4 I0.1985 J-0.3438
G2 X587.1765 Y21.8812 Z-11.4333 I-0.397 J0.0
G2 Y22.5688 Z-11.4667 I0.1985 J0.3438
G2 X587.772 Y22.225 Z-11.5 I0.1985 J-0.3438
G2 X587.1765 Y21.8812 Z-11.5333 I-0.397 J0.0
G2 Y22.5688 Z-11.5667 I0.1985 J0.3438
G2 X587.772 Y22.225 Z-11.6 I0.1985 J-0.3438
G2 X587.1765 Y21.8812 Z-11.6333 I-0.397 J0.0
G2 Y22.5688 Z-11.6667 I0.1985 J0.3438
G2 X587.772 Y22.225 Z-11.7 I0.1985 J-0.3438
G2 X587.1765 Y21.8812 Z-11.7333 I-0.397 J0.0
G2 Y22.5688 Z-11.7667 I0.1985 J0.3438
G2 X587.772 Y22.225 Z-11.8 I0.1985 J-0.3438
G2 X587.1765 Y21.8812 Z-11.8333 I-0.397 J0.0
G2 Y22.5688 Z-11.8667 I0.1985 J0.3438
G2 X587.772 Y22.225 Z-11.9 I0.1985 J-0.3438
G2 X587.1765 Y21.8812 Z-11.9333 I-0.397 J0.0
G2 Y22.5688 Z-11.9667 I0.1985 J0.3438
G2 X587.772 Y22.225 Z-12.0 I0.1985 J-0.3438
G2 X587.1765 Y21.8812 Z-12.0333 I-0.397 J0.0
G2 Y22.5688 Z-12.0667 I0.1985 J0.3438
G2 X587.772 Y22.225 Z-12.1 I0.1985 J-0.3438
G2 X587.1765 Y21.8812 Z-12.1333 I-0.397 J0.0
G2 Y22.5688 Z-12.1667 I0.1985 J0.3438
G2 X587.772 Y22.225 Z-12.2 I0.1985 J-0.3438
G2 X587.1765 Y21.8812 Z-12.2333 I-0.397 J0.0
G2 Y22.5688 Z-12.2667 I0.1985 J0.3438
G2 X587.772 Y22.225 Z-12.3 I0.1985 J-0.3438
G2 X587.1765 Y21.8812 Z-12.3333 I-0.397 J0.0
G2 Y22.5688 Z-12.3667 I0.1985 J0.3438
G2 X587.772 Y22.225 Z-12.4 I0.1985 J-0.3438
G2 X587.1765 Y21.8812 Z-12.4333 I-0.397 J0.0
G2 Y22.5688 Z-12.4667 I0.1985 J0.3438
G2 X587.772 Y22.225 Z-12.5 I0.1985 J-0.3438
G2 X587.1765 Y21.8812 Z-12.5333 I-0.397 J0.0
G2 Y22.5688 Z-12.5667 I0.1985 J0.3438
G2 X587.772 Y22.225 Z-12.6 I0.1985 J-0.3438
G2 X587.1765 Y21.8812 Z-12.6333 I-0.397 J0.0
G2 Y22.5688 Z-12.6667 I0.1985 J0.3438
G2 X587.772 Y22.225 Z-12.7 I0.1985 J-0.3438
G2 X587.1765 Y21.8812 Z-12.7333 I-0.397 J0.0
G2 Y22.5688 Z-12.7667 I0.1985 J0.3438
G2 X587.772 Y22.225 Z-12.8 I0.1985 J-0.3438
G2 X587.1765 Y21.8812 Z-12.8333 I-0.397 J0.0
G2 Y22.5688 Z-12.8667 I0.1985 J0.3438
G2 X587.772 Y22.225 Z-12.9 I0.1985 J-0.3438
G2 X587.1765 Y21.8812 Z-12.9333 I-0.397 J0.0
G2 Y22.5688 Z-12.9667 I0.1985 J0.3438
G2 X587.772 Y22.225 Z-13.0 I0.1985 J-0.3438
G2 X587.1765 Y21.8812 Z-13.0333 I-0.397 J0.0
G2 Y22.5688 Z-13.0667 I0.1985 J0.3438
G2 X587.772 Y22.225 Z-13.1 I0.1985 J-0.3438
G2 X587.1765 Y21.8812 Z-13.1333 I-0.397 J0.0
G2 Y22.5688 Z-13.1667 I0.1985 J0.3438
G2 X587.772 Y22.225 Z-13.2 I0.1985 J-0.3438
G2 X587.1765 Y21.8812 Z-13.2333 I-0.397 J0.0
G2 Y22.5688 Z-13.2667 I0.1985 J0.3438
G2 X587.772 Y22.225 Z-13.3 I0.1985 J-0.3438
G2 X587.1765 Y21.8812 Z-13.3333 I-0.397 J0.0
G2 Y22.5688 Z-13.3667 I0.1985 J0.3438
G2 X587.772 Y22.225 Z-13.4 I0.1985 J-0.3438
G2 X587.1765 Y21.8812 Z-13.4333 I-0.397 J0.0
G2 Y22.5688 Z-13.4667 I0.1985 J0.3438
G2 X587.772 Y22.225 Z-13.5 I0.1985 J-0.3438
G2 X587.1765 Y21.8812 Z-13.5333 I-0.397 J0.0
G2 Y22.5688 Z-13.5667 I0.1985 J0.3438
G2 X587.772 Y22.225 Z-13.6 I0.1985 J-0.3438
G2 X587.1765 Y21.8812 Z-13.6333 I-0.397 J0.0
G2 Y22.5688 Z-13.6667 I0.1985 J0.3438
G2 X587.772 Y22.225 Z-13.7 I0.1985 J-0.3438
G2 X587.1765 Y21.8812 Z-13.7333 I-0.397 J0.0
G2 Y22.5688 Z-13.7667 I0.1985 J0.3438
G2 X587.772 Y22.225 Z-13.8 I0.1985 J-0.3438
G2 X587.1765 Y21.8812 Z-13.8333 I-0.397 J0.0
G2 Y22.5688 Z-13.8667 I0.1985 J0.3438
G2 X587.772 Y22.225 Z-13.9 I0.1985 J-0.3438
G2 X587.1765 Y21.8812 Z-13.9333 I-0.397 J0.0
G2 Y22.5688 Z-13.9667 I0.1985 J0.3438
G2 X587.772 Y22.225 Z-14.0 I0.1985 J-0.3438
G2 X587.1765 Y21.8812 Z-14.0333 I-0.397 J0.0
G2 Y22.5688 Z-14.0667 I0.1985 J0.3438
G2 X587.772 Y22.225 Z-14.1 I0.1985 J-0.3438
G2 X587.1765 Y21.8812 Z-14.1333 I-0.397 J0.0
G2 Y22.5688 Z-14.1667 I0.1985 J0.3438
G2 X587.772 Y22.225 Z-14.2 I0.1985 J-0.3438
G2 X587.1765 Y21.8812 Z-14.2333 I-0.397 J0.0
G2 Y22.5688 Z-14.2667 I0.1985 J0.3438
G2 X587.772 Y22.225 Z-14.3 I0.1985 J-0.3438
G2 X587.1765 Y21.8812 Z-14.3333 I-0.397 J0.0
G2 Y22.5688 Z-14.3667 I0.1985 J0.3438
G2 X587.772 Y22.225 Z-14.4 I0.1985 J-0.3438
G2 X587.1765 Y21.8812 Z-14.4333 I-0.397 J0.0
G2 Y22.5688 Z-14.4667 I0.1985 J0.3438
G2 X587.772 Y22.225 Z-14.5 I0.1985 J-0.3438
G2 X587.1765 Y21.8812 Z-14.5333 I-0.397 J0.0
G2 Y22.5688 Z-14.5667 I0.1985 J0.3438
G2 X587.772 Y22.225 Z-14.6 I0.1985 J-0.3438
G2 X587.1765 Y21.8812 Z-14.6333 I-0.397 J0.0
G2 Y22.5688 Z-14.6667 I0.1985 J0.3438
G2 X587.772 Y22.225 Z-14.7 I0.1985 J-0.3438
G2 X587.1765 Y21.8812 Z-14.7333 I-0.397 J0.0
G2 Y22.5688 Z-14.7667 I0.1985 J0.3438
G2 X587.772 Y22.225 Z-14.8 I0.1985 J-0.3438
G2 X587.1765 Y21.8812 Z-14.8333 I-0.397 J0.0
G2 Y22.5688 Z-14.8667 I0.1985 J0.3438
G2 X587.772 Y22.225 Z-14.9 I0.1985 J-0.3438
G2 X587.1765 Y21.8812 Z-14.9333 I-0.397 J0.0
G2 Y22.5688 Z-14.9667 I0.1985 J0.3438
G2 X587.772 Y22.225 Z-15.0 I0.1985 J-0.3438
G2 X587.1765 Y21.8812 Z-15.0333 I-0.397 J0.0
G2 Y22.5688 Z-15.0667 I0.1985 J0.3438
G2 X587.772 Y22.225 Z-15.1 I0.1985 J-0.3438
G2 X587.1765 Y21.8812 Z-15.1333 I-0.397 J0.0
G2 Y22.5688 Z-15.1667 I0.1985 J0.3438
G2 X587.772 Y22.225 Z-15.2 I0.1985 J-0.3438
G2 X587.1765 Y21.8812 Z-15.2333 I-0.397 J0.0
G2 Y22.5688 Z-15.2667 I0.1985 J0.3438
G2 X587.772 Y22.225 Z-15.3 I0.1985 J-0.3438
G2 X587.1765 Y21.8812 Z-15.3333 I-0.397 J0.0
G2 Y22.5688 Z-15.3667 I0.1985 J0.3438
G2 X587.772 Y22.225 Z-15.4 I0.1985 J-0.3438
G2 X587.1765 Y21.8812 Z-15.4333 I-0.397 J0.0
G2 Y22.5688 Z-15.4667 I0.1985 J0.3438
G2 X587.772 Y22.225 Z-15.5 I0.1985 J-0.3438
G2 X587.1765 Y21.8812 Z-15.5333 I-0.397 J0.0
G2 Y22.5688 Z-15.5667 I0.1985 J0.3438
G2 X587.772 Y22.225 Z-15.6 I0.1985 J-0.3438
G2 X587.1765 Y21.8812 Z-15.6333 I-0.397 J0.0
G2 Y22.5688 Z-15.6667 I0.1985 J0.3438
G2 X587.772 Y22.225 Z-15.7 I0.1985 J-0.3438
G2 X587.1765 Y21.8812 Z-15.7333 I-0.397 J0.0
G2 Y22.5688 Z-15.7667 I0.1985 J0.3438
G2 X587.772 Y22.225 Z-15.8 I0.1985 J-0.3438
G2 X587.1765 Y21.8812 Z-15.8333 I-0.397 J0.0
G2 Y22.5688 Z-15.8667 I0.1985 J0.3438
G2 X587.772 Y22.225 Z-15.9 I0.1985 J-0.3438
G2 X587.1765 Y21.8812 Z-15.9333 I-0.397 J0.0
G2 Y22.5688 Z-15.9667 I0.1985 J0.3438
G2 X587.772 Y22.225 Z-16.0 I0.1985 J-0.3438
G2 X587.1765 Y21.8812 Z-16.0333 I-0.397 J0.0
G2 Y22.5688 Z-16.0667 I0.1985 J0.3438
G2 X587.772 Y22.225 Z-16.1 I0.1985 J-0.3438
G2 X587.1765 Y21.8812 Z-16.1333 I-0.397 J0.0
G2 Y22.5688 Z-16.1667 I0.1985 J0.3438
G2 X587.772 Y22.225 Z-16.2 I0.1985 J-0.3438
G2 X587.1765 Y21.8812 Z-16.2333 I-0.397 J0.0
G2 Y22.5688 Z-16.2667 I0.1985 J0.3438
G2 X587.772 Y22.225 Z-16.3 I0.1985 J-0.3438
G2 X587.1765 Y21.8812 Z-16.3333 I-0.397 J0.0
G2 Y22.5688 Z-16.3667 I0.1985 J0.3438
G2 X587.772 Y22.225 Z-16.4 I0.1985 J-0.3438
G2 X587.1765 Y21.8812 Z-16.4333 I-0.397 J0.0
G2 Y22.5688 Z-16.4667 I0.1985 J0.3438
G2 X587.772 Y22.225 Z-16.5 I0.1985 J-0.3438
G2 X587.1765 Y21.8812 Z-16.5333 I-0.397 J0.0
G2 Y22.5688 Z-16.5667 I0.1985 J0.3438
G2 X587.772 Y22.225 Z-16.6 I0.1985 J-0.3438
G2 X587.1765 Y21.8812 Z-16.6333 I-0.397 J0.0
G2 Y22.5688 Z-16.6667 I0.1985 J0.3438
G2 X587.772 Y22.225 Z-16.7 I0.1985 J-0.3438
G2 X587.1765 Y21.8812 Z-16.7333 I-0.397 J0.0
G2 Y22.5688 Z-16.7667 I0.1985 J0.3438
G2 X587.772 Y22.225 Z-16.8 I0.1985 J-0.3438
G2 X587.1765 Y21.8812 Z-16.8333 I-0.397 J0.0
G2 Y22.5688 Z-16.8667 I0.1985 J0.3438
G2 X587.772 Y22.225 Z-16.9 I0.1985 J-0.3438
G2 X587.1765 Y21.8812 Z-16.9333 I-0.397 J0.0
G2 Y22.5688 Z-16.9667 I0.1985 J0.3438
G2 X587.772 Y22.225 Z-17.0 I0.1985 J-0.3438
G2 X587.1765 Y21.8812 Z-17.0333 I-0.397 J0.0
G2 Y22.5688 Z-17.0667 I0.1985 J0.3438
G2 X587.772 Y22.225 Z-17.1 I0.1985 J-0.3438
G2 X587.1765 Y21.8812 Z-17.1333 I-0.397 J0.0
G2 Y22.5688 Z-17.1667 I0.1985 J0.3438
G2 X587.772 Y22.225 Z-17.2 I0.1985 J-0.3438
G2 X587.1765 Y21.8812 Z-17.2333 I-0.397 J0.0
G2 Y22.5688 Z-17.2667 I0.1985 J0.3438
G2 X587.772 Y22.225 Z-17.3 I0.1985 J-0.3438
G2 X587.1765 Y21.8812 Z-17.3333 I-0.397 J0.0
G2 Y22.5688 Z-17.3667 I0.1985 J0.3438
G2 X587.772 Y22.225 Z-17.4 I0.1985 J-0.3438
G2 X587.1765 Y21.8812 Z-17.4333 I-0.397 J0.0
G2 Y22.5688 Z-17.4667 I0.1985 J0.3438
G2 X587.772 Y22.225 Z-17.5 I0.1985 J-0.3438
G2 X587.1765 Y21.8812 Z-17.5333 I-0.397 J0.0
G2 Y22.5688 Z-17.5667 I0.1985 J0.3438
G2 X587.772 Y22.225 Z-17.6 I0.1985 J-0.3438
G2 X587.1765 Y21.8812 Z-17.6333 I-0.397 J0.0
G2 Y22.5688 Z-17.6667 I0.1985 J0.3438
G2 X587.772 Y22.225 Z-17.7 I0.1985 J-0.3438
G2 X587.1765 Y21.8812 Z-17.7333 I-0.397 J0.0
G2 Y22.5688 Z-17.7667 I0.1985 J0.3438
G2 X587.772 Y22.225 Z-17.8 I0.1985 J-0.3438
G2 X587.1765 Y21.8812 Z-17.8333 I-0.397 J0.0
G2 Y22.5688 Z-17.8667 I0.1985 J0.3438
G2 X587.772 Y22.225 Z-17.9 I0.1985 J-0.3438
G2 X587.1765 Y21.8812 Z-17.9333 I-0.397 J0.0
G2 Y22.5688 Z-17.9667 I0.1985 J0.3438
G2 X587.772 Y22.225 Z-18.0 I0.1985 J-0.3438
G2 X587.1765 Y21.8812 Z-18.0333 I-0.397 J0.0
G2 Y22.5688 Z-18.0667 I0.1985 J0.3438
G2 X587.772 Y22.225 Z-18.1 I0.1985 J-0.3438
G2 X587.1765 Y21.8812 Z-18.1333 I-0.397 J0.0
G2 Y22.5688 Z-18.1667 I0.1985 J0.3438
G2 X587.772 Y22.225 Z-18.2 I0.1985 J-0.3438
G2 X587.1765 Y21.8812 Z-18.2333 I-0.397 J0.0
G2 Y22.5688 Z-18.2667 I0.1985 J0.3438
G2 X587.772 Y22.225 Z-18.3 I0.1985 J-0.3438
G2 X587.1765 Y21.8812 Z-18.3333 I-0.397 J0.0
G2 Y22.5688 Z-18.3667 I0.1985 J0.3438
G2 X587.772 Y22.225 Z-18.4 I0.1985 J-0.3438
G2 X587.1765 Y21.8812 Z-18.4333 I-0.397 J0.0
G2 Y22.5688 Z-18.4667 I0.1985 J0.3438
G2 X587.772 Y22.225 Z-18.5 I0.1985 J-0.3438
G2 X587.1765 Y21.8812 Z-18.5333 I-0.397 J0.0
G2 Y22.5688 Z-18.5667 I0.1985 J0.3438
G2 X587.772 Y22.225 Z-18.6 I0.1985 J-0.3438
G2 X587.1765 Y21.8812 Z-18.6333 I-0.397 J0.0
G2 Y22.5688 Z-18.6667 I0.1985 J0.3438
G2 X587.772 Y22.225 Z-18.7 I0.1985 J-0.3438
G2 X587.1765 Y21.8812 Z-18.7333 I-0.397 J0.0
G2 Y22.5688 Z-18.7667 I0.1985 J0.3438
G2 X587.772 Y22.225 Z-18.8 I0.1985 J-0.3438
G2 X587.1765 Y21.8812 Z-18.8333 I-0.397 J0.0
G2 Y22.5688 Z-18.8667 I0.1985 J0.3438
G2 X587.772 Y22.225 Z-18.9 I0.1985 J-0.3438
G2 X587.1765 Y21.8812 Z-18.9333 I-0.397 J0.0
G2 Y22.5688 Z-18.9667 I0.1985 J0.3438
G2 X587.772 Y22.225 Z-19.0 I0.1985 J-0.3438
G2 X587.1765 Y21.8812 Z-19.0333 I-0.397 J0.0
G2 Y22.5688 Z-19.0667 I0.1985 J0.3438
G2 X587.772 Y22.225 Z-19.1 I0.1985 J-0.3438
G2 X587.1765 Y21.8812 Z-19.1333 I-0.397 J0.0
G2 Y22.5688 Z-19.1667 I0.1985 J0.3438
G2 X587.772 Y22.225 Z-19.2 I0.1985 J-0.3438
G2 X587.1765 Y21.8812 Z-19.2333 I-0.397 J0.0
G2 Y22.5688 Z-19.2667 I0.1985 J0.3438
G2 X587.772 Y22.225 Z-19.3 I0.1985 J-0.3438
G2 X587.1765 Y21.8812 Z-19.3333 I-0.397 J0.0
G2 Y22.5688 Z-19.3667 I0.1985 J0.3438
G2 X587.772 Y22.225 Z-19.4 I0.1985 J-0.3438
G2 X587.1765 Y21.8812 Z-19.4333 I-0.397 J0.0
G2 Y22.5688 Z-19.4667 I0.1985 J0.3438
G2 X587.772 Y22.225 Z-19.5 I0.1985 J-0.3438
G2 X587.1765 Y21.8812 Z-19.5333 I-0.397 J0.0
G2 Y22.5688 Z-19.5667 I0.1985 J0.3438
G2 X587.772 Y22.225 Z-19.6 I0.1985 J-0.3438
G2 X587.1765 Y21.8812 Z-19.6333 I-0.397 J0.0
G2 Y22.5688 Z-19.6667 I0.1985 J0.3438
G2 X587.772 Y22.225 Z-19.7 I0.1985 J-0.3438
G2 X587.1765 Y21.8812 Z-19.7333 I-0.397 J0.0
G2 Y22.5688 Z-19.7667 I0.1985 J0.3438
G2 X587.772 Y22.225 Z-19.8 I0.1985 J-0.3438
G2 X587.1765 Y21.8812 Z-19.8333 I-0.397 J0.0
G2 Y22.5688 Z-19.8667 I0.1985 J0.3438
G2 X587.772 Y22.225 Z-19.9 I0.1985 J-0.3438
G2 X587.1765 Y21.8812 Z-19.9333 I-0.397 J0.0
G2 Y22.5688 Z-19.9667 I0.1985 J0.3438
G2 X587.772 Y22.225 Z-20.0 I0.1985 J-0.3438
G2 X587.1765 Y21.8812 Z-20.0333 I-0.397 J0.0
G2 Y22.5688 Z-20.0667 I0.1985 J0.3438
G2 X587.772 Y22.225 Z-20.1 I0.1985 J-0.3438
G2 X587.1765 Y21.8812 Z-20.1333 I-0.397 J0.0
G2 Y22.5688 Z-20.1667 I0.1985 J0.3438
G2 X587.772 Y22.225 Z-20.2 I0.1985 J-0.3438
G2 X587.1765 Y21.8812 Z-20.2333 I-0.397 J0.0
G2 Y22.5688 Z-20.2667 I0.1985 J0.3438
G2 X587.772 Y22.225 Z-20.3 I0.1985 J-0.3438
G2 X587.1765 Y21.8812 Z-20.3333 I-0.397 J0.0
G2 Y22.5688 Z-20.3667 I0.1985 J0.3438
G2 X587.772 Y22.225 Z-20.4 I0.1985 J-0.3438
G2 X587.1765 Y21.8812 Z-20.4333 I-0.397 J0.0
G2 Y22.5688 Z-20.4667 I0.1985 J0.3438
G2 X587.772 Y22.225 Z-20.5 I0.1985 J-0.3438
G2 X587.1765 Y21.8812 Z-20.5333 I-0.397 J0.0
G2 Y22.5688 Z-20.5667 I0.1985 J0.3438
G2 X587.772 Y22.225 Z-20.6 I0.1985 J-0.3438
G2 X587.1765 Y21.8812 Z-20.6333 I-0.397 J0.0
G2 Y22.5688 Z-20.6667 I0.1985 J0.3438
G2 X587.772 Y22.225 Z-20.7 I0.1985 J-0.3438
G2 X587.1765 Y21.8812 Z-20.7333 I-0.397 J0.0
G2 Y22.5688 Z-20.7667 I0.1985 J0.3438
G2 X587.772 Y22.225 Z-20.8 I0.1985 J-0.3438
G2 X587.1765 Y21.8812 Z-20.8333 I-0.397 J0.0
G2 Y22.5688 Z-20.8667 I0.1985 J0.3438
G2 X587.772 Y22.225 Z-20.9 I0.1985 J-0.3438
G2 X587.1765 Y21.8812 Z-20.9333 I-0.397 J0.0
G2 Y22.5688 Z-20.9667 I0.1985 J0.3438
G2 X587.772 Y22.225 Z-21.0 I0.1985 J-0.3438
G2 X587.1765 Y21.8812 I-0.397 J0.0
G2 Y22.5688 I0.1985 J0.3438
G2 X587.772 Y22.225 I0.1985 J-0.3438
G0 Z3.0
G0 X559.197 Y53.975
G0 Z0.1
G1 F120.0 Z0.0
G2 F3000.0 X558.6015 Y53.6312 Z-0.0333 I-0.397 J0.0
G2 Y54.3188 Z-0.0667 I0.1985 J0.3438
G2 X559.197 Y53.975 Z-0.1 I0.1985 J-0.3438
G2 X558.6015 Y53.6312 Z-0.1333 I-0.397 J0.0
G2 Y54.3188 Z-0.1667 I0.1985 J0.3438
G2 X559.197 Y53.975 Z-0.2 I0.1985 J-0.3438
G2 X558.6015 Y53.6312 Z-0.2333 I-0.397 J0.0
G2 Y54.3188 Z-0.2667 I0.1985 J0.3438
G2 X559.197 Y53.975 Z-0.3 I0.1985 J-0.3438
G2 X558.6015 Y53.6312 Z-0.3333 I-0.397 J0.0
G2 Y54.3188 Z-0.3667 I0.1985 J0.3438
G2 X559.197 Y53.975 Z-0.4 I0.1985 J-0.3438
G2 X558.6015 Y53.6312 Z-0.4333 I-0.397 J0.0
G2 Y54.3188 Z-0.4667 I0.1985 J0.3438
G2 X559.197 Y53.975 Z-0.5 I0.1985 J-0.3438
G2 X558.6015 Y53.6312 Z-0.5333 I-0.397 J0.0
G2 Y54.3188 Z-0.5667 I0.1985 J0.3438
G2 X559.197 Y53.975 Z-0.6 I0.1985 J-0.3438
G2 X558.6015 Y53.6312 Z-0.6333 I-0.397 J0.0
G2 Y54.3188 Z-0.6667 I0.1985 J0.3438
G2 X559.197 Y53.975 Z-0.7 I0.1985 J-0.3438
G2 X558.6015 Y53.6312 Z-0.7333 I-0.397 J0.0
G2 Y54.3188 Z-0.7667 I0.1985 J0.3438
G2 X559.197 Y53.975 Z-0.8 I0.1985 J-0.3438
G2 X558.6015 Y53.6312 Z-0.8333 I-0.397 J0.0
G2 Y54.3188 Z-0.8667 I0.1985 J0.3438
G2 X559.197 Y53.975 Z-0.9 I0.1985 J-0.3438
G2 X558.6015 Y53.6312 Z-0.9333 I-0.397 J0.0
G2 Y54.3188 Z-0.9667 I0.1985 J0.3438
G2 X559.197 Y53.975 Z-1.0 I0.1985 J-0.3438
G2 X558.6015 Y53.6312 Z-1.0333 I-0.397 J0.0
G2 Y54.3188 Z-1.0667 I0.1985 J0.3438
G2 X559.197 Y53.975 Z-1.1 I0.1985 J-0.3438
G2 X558.6015 Y53.6312 Z-1.1333 I-0.397 J0.0
G2 Y54.3188 Z-1.1667 I0.1985 J0.3438
G2 X559.197 Y53.975 Z-1.2 I0.1985 J-0.3438
G2 X558.6015 Y53.6312 Z-1.2333 I-0.397 J0.0
G2 Y54.3188 Z-1.2667 I0.1985 J0.3438
G2 X559.197 Y53.975 Z-1.3 I0.1985 J-0.3438
G2 X558.6015 Y53.6312 Z-1.3333 I-0.397 J0.0
G2 Y54.3188 Z-1.3667 I0.1985 J0.3438
G2 X559.197 Y53.975 Z-1.4 I0.1985 J-0.3438
G2 X558.6015 Y53.6312 Z-1.4333 I-0.397 J0.0
G2 Y54.3188 Z-1.4667 I0.1985 J0.3438
G2 X559.197 Y53.975 Z-1.5 I0.1985 J-0.3438
G2 X558.6015 Y53.6312 Z-1.5333 I-0.397 J0.0
G2 Y54.3188 Z-1.5667 I0.1985 J0.3438
G2 X559.197 Y53.975 Z-1.6 I0.1985 J-0.3438
G2 X558.6015 Y53.6312 Z-1.6333 I-0.397 J0.0
G2 Y54.3188 Z-1.6667 I0.1985 J0.3438
G2 X559.197 Y53.975 Z-1.7 I0.1985 J-0.3438
G2 X558.6015 Y53.6312 Z-1.7333 I-0.397 J0.0
G2 Y54.3188 Z-1.7667 I0.1985 J0.3438
G2 X559.197 Y53.975 Z-1.8 I0.1985 J-0.3438
G2 X558.6015 Y53.6312 Z-1.8333 I-0.397 J0.0
G2 Y54.3188 Z-1.8667 I0.1985 J0.3438
G2 X559.197 Y53.975 Z-1.9 I0.1985 J-0.3438
G2 X558.6015 Y53.6312 Z-1.9333 I-0.397 J0.0
G2 Y54.3188 Z-1.9667 I0.1985 J0.3438
G2 X559.197 Y53.975 Z-2.0 I0.1985 J-0.3438
G2 X558.6015 Y53.6312 Z-2.0333 I-0.397 J0.0
G2 Y54.3188 Z-2.0667 I0.1985 J0.3438
G2 X559.197 Y53.975 Z-2.1 I0.1985 J-0.3438
G2 X558.6015 Y53.6312 Z-2.1333 I-0.397 J0.0
G2 Y54.3188 Z-2.1667 I0.1985 J0.3438
G2 X559.197 Y53.975 Z-2.2 I0.1985 J-0.3438
G2 X558.6015 Y53.6312 Z-2.2333 I-0.397 J0.0
G2 Y54.3188 Z-2.2667 I0.1985 J0.3438
G2 X559.197 Y53.975 Z-2.3 I0.1985 J-0.3438
G2 X558.6015 Y53.6312 Z-2.3333 I-0.397 J0.0
G2 Y54.3188 Z-2.3667 I0.1985 J0.3438
G2 X559.197 Y53.975 Z-2.4 I0.1985 J-0.3438
G2 X558.6015 Y53.6312 Z-2.4333 I-0.397 J0.0
G2 Y54.3188 Z-2.4667 I0.1985 J0.3438
G2 X559.197 Y53.975 Z-2.5 I0.1985 J-0.3438
G2 X558.6015 Y53.6312 Z-2.5333 I-0.397 J0.0
G2 Y54.3188 Z-2.5667 I0.1985 J0.3438
G2 X559.197 Y53.975 Z-2.6 I0.1985 J-0.3438
G2 X558.6015 Y53.6312 Z-2.6333 I-0.397 J0.0
G2 Y54.3188 Z-2.6667 I0.1985 J0.3438
G2 X559.197 Y53.975 Z-2.7 I0.1985 J-0.3438
G2 X558.6015 Y53.6312 Z-2.7333 I-0.397 J0.0
G2 Y54.3188 Z-2.7667 I0.1985 J0.3438
G2 X559.197 Y53.975 Z-2.8 I0.1985 J-0.3438
G2 X558.6015 Y53.6312 Z-2.8333 I-0.397 J0.0
G2 Y54.3188 Z-2.8667 I0.1985 J0.3438
G2 X559.197 Y53.975 Z-2.9 I0.1985 J-0.3438
G2 X558.6015 Y53.6312 Z-2.9333 I-0.397 J0.0
G2 Y54.3188 Z-2.9667 I0.1985 J0.3438
G2 X559.197 Y53.975 Z-3.0 I0.1985 J-0.3438
G2 X558.6015 Y53.6312 Z-3.0333 I-0.397 J0.0
G2 Y54.3188 Z-3.0667 I0.1985 J0.3438
G2 X559.197 Y53.975 Z-3.1 I0.1985 J-0.3438
G2 X558.6015 Y53.6312 Z-3.1333 I-0.397 J0.0
G2 Y54.3188 Z-3.1667 I0.1985 J0.3438
G2 X559.197 Y53.975 Z-3.2 I0.1985 J-0.3438
G2 X558.6015 Y53.6312 Z-3.2333 I-0.397 J0.0
G2 Y54.3188 Z-3.2667 I0.1985 J0.3438
G2 X559.197 Y53.975 Z-3.3 I0.1985 J-0.3438
G2 X558.6015 Y53.6312 Z-3.3333 I-0.397 J0.0
G2 Y54.3188 Z-3.3667 I0.1985 J0.3438
G2 X559.197 Y53.975 Z-3.4 I0.1985 J-0.3438
G2 X558.6015 Y53.6312 Z-3.4333 I-0.397 J0.0
G2 Y54.3188 Z-3.4667 I0.1985 J0.3438
G2 X559.197 Y53.975 Z-3.5 I0.1985 J-0.3438
G2 X558.6015 Y53.6312 Z-3.5333 I-0.397 J0.0
G2 Y54.3188 Z-3.5667 I0.1985 J0.3438
G2 X559.197 Y53.975 Z-3.6 I0.1985 J-0.3438
G2 X558.6015 Y53.6312 Z-3.6333 I-0.397 J0.0
G2 Y54.3188 Z-3.6667 I0.1985 J0.3438
G2 X559.197 Y53.975 Z-3.7 I0.1985 J-0.3438
G2 X558.6015 Y53.6312 Z-3.7333 I-0.397 J0.0
G2 Y54.3188 Z-3.7667 I0.1985 J0.3438
G2 X559.197 Y53.975 Z-3.8 I0.1985 J-0.3438
G2 X558.6015 Y53.6312 Z-3.8333 I-0.397 J0.0
G2 Y54.3188 Z-3.8667 I0.1985 J0.3438
G2 X559.197 Y53.975 Z-3.9 I0.1985 J-0.3438
G2 X558.6015 Y53.6312 Z-3.9333 I-0.397 J0.0
G2 Y54.3188 Z-3.9667 I0.1985 J0.3438
G2 X559.197 Y53.975 Z-4.0 I0.1985 J-0.3438
G2 X558.6015 Y53.6312 Z-4.0333 I-0.397 J0.0
G2 Y54.3188 Z-4.0667 I0.1985 J0.3438
G2 X559.197 Y53.975 Z-4.1 I0.1985 J-0.3438
G2 X558.6015 Y53.6312 Z-4.1333 I-0.397 J0.0
G2 Y54.3188 Z-4.1667 I0.1985 J0.3438
G2 X559.197 Y53.975 Z-4.2 I0.1985 J-0.3438
G2 X558.6015 Y53.6312 Z-4.2333 I-0.397 J0.0
G2 Y54.3188 Z-4.2667 I0.1985 J0.3438
G2 X559.197 Y53.975 Z-4.3 I0.1985 J-0.3438
G2 X558.6015 Y53.6312 Z-4.3333 I-0.397 J0.0
G2 Y54.3188 Z-4.3667 I0.1985 J0.3438
G2 X559.197 Y53.975 Z-4.4 I0.1985 J-0.3438
G2 X558.6015 Y53.6312 Z-4.4333 I-0.397 J0.0
G2 Y54.3188 Z-4.4667 I0.1985 J0.3438
G2 X559.197 Y53.975 Z-4.5 I0.1985 J-0.3438
G2 X558.6015 Y53.6312 Z-4.5333 I-0.397 J0.0
G2 Y54.3188 Z-4.5667 I0.1985 J0.3438
G2 X559.197 Y53.975 Z-4.6 I0.1985 J-0.3438
G2 X558.6015 Y53.6312 Z-4.6333 I-0.397 J0.0
G2 Y54.3188 Z-4.6667 I0.1985 J0.3438
G2 X559.197 Y53.975 Z-4.7 I0.1985 J-0.3438
G2 X558.6015 Y53.6312 Z-4.7333 I-0.397 J0.0
G2 Y54.3188 Z-4.7667 I0.1985 J0.3438
G2 X559.197 Y53.975 Z-4.8 I0.1985 J-0.3438
G2 X558.6015 Y53.6312 Z-4.8333 I-0.397 J0.0
G2 Y54.3188 Z-4.8667 I0.1985 J0.3438
G2 X559.197 Y53.975 Z-4.9 I0.1985 J-0.3438
G2 X558.6015 Y53.6312 Z-4.9333 I-0.397 J0.0
G2 Y54.3188 Z-4.9667 I0.1985 J0.3438
G2 X559.197 Y53.975 Z-5.0 I0.1985 J-0.3438
G2 X558.6015 Y53.6312 Z-5.0333 I-0.397 J0.0
G2 Y54.3188 Z-5.0667 I0.1985 J0.3438
G2 X559.197 Y53.975 Z-5.1 I0.1985 J-0.3438
G2 X558.6015 Y53.6312 Z-5.1333 I-0.397 J0.0
G2 Y54.3188 Z-5.1667 I0.1985 J0.3438
G2 X559.197 Y53.975 Z-5.2 I0.1985 J-0.3438
G2 X558.6015 Y53.6312 Z-5.2333 I-0.397 J0.0
G2 Y54.3188 Z-5.2667 I0.1985 J0.3438
G2 X559.197 Y53.975 Z-5.3 I0.1985 J-0.3438
G2 X558.6015 Y53.6312 Z-5.3333 I-0.397 J0.0
G2 Y54.3188 Z-5.3667 I0.1985 J0.3438
G2 X559.197 Y53.975 Z-5.4 I0.1985 J-0.3438
G2 X558.6015 Y53.6312 Z-5.4333 I-0.397 J0.0
G2 Y54.3188 Z-5.4667 I0.1985 J0.3438
G2 X559.197 Y53.975 Z-5.5 I0.1985 J-0.3438
G2 X558.6015 Y53.6312 Z-5.5333 I-0.397 J0.0
G2 Y54.3188 Z-5.5667 I0.1985 J0.3438
G2 X559.197 Y53.975 Z-5.6 I0.1985 J-0.3438
G2 X558.6015 Y53.6312 Z-5.6333 I-0.397 J0.0
G2 Y54.3188 Z-5.6667 I0.1985 J0.3438
G2 X559.197 Y53.975 Z-5.7 I0.1985 J-0.3438
G2 X558.6015 Y53.6312 Z-5.7333 I-0.397 J0.0
G2 Y54.3188 Z-5.7667 I0.1985 J0.3438
G2 X559.197 Y53.975 Z-5.8 I0.1985 J-0.3438
G2 X558.6015 Y53.6312 Z-5.8333 I-0.397 J0.0
G2 Y54.3188 Z-5.8667 I0.1985 J0.3438
G2 X559.197 Y53.975 Z-5.9 I0.1985 J-0.3438
G2 X558.6015 Y53.6312 Z-5.9333 I-0.397 J0.0
G2 Y54.3188 Z-5.9667 I0.1985 J0.3438
G2 X559.197 Y53.975 Z-6.0 I0.1985 J-0.3438
G2 X558.6015 Y53.6312 Z-6.0333 I-0.397 J0.0
G2 Y54.3188 Z-6.0667 I0.1985 J0.3438
G2 X559.197 Y53.975 Z-6.1 I0.1985 J-0.3438
G2 X558.6015 Y53.6312 Z-6.1333 I-0.397 J0.0
G2 Y54.3188 Z-6.1667 I0.1985 J0.3438
G2 X559.197 Y53.975 Z-6.2 I0.1985 J-0.3438
G2 X558.6015 Y53.6312 Z-6.2333 I-0.397 J0.0
G2 Y54.3188 Z-6.2667 I0.1985 J0.3438
G2 X559.197 Y53.975 Z-6.3 I0.1985 J-0.3438
G2 X558.6015 Y53.6312 Z-6.3333 I-0.397 J0.0
G2 Y54.3188 Z-6.3667 I0.1985 J0.3438
G2 X559.197 Y53.975 Z-6.4 I0.1985 J-0.3438
G2 X558.6015 Y53.6312 Z-6.4333 I-0.397 J0.0
G2 Y54.3188 Z-6.4667 I0.1985 J0.3438
G2 X559.197 Y53.975 Z-6.5 I0.1985 J-0.3438
G2 X558.6015 Y53.6312 Z-6.5333 I-0.397 J0.0
G2 Y54.3188 Z-6.5667 I0.1985 J0.3438
G2 X559.197 Y53.975 Z-6.6 I0.1985 J-0.3438
G2 X558.6015 Y53.6312 Z-6.6333 I-0.397 J0.0
G2 Y54.3188 Z-6.6667 I0.1985 J0.3438
G2 X559.197 Y53.975 Z-6.7 I0.1985 J-0.3438
G2 X558.6015 Y53.6312 Z-6.7333 I-0.397 J0.0
G2 Y54.3188 Z-6.7667 I0.1985 J0.3438
G2 X559.197 Y53.975 Z-6.8 I0.1985 J-0.3438
G2 X558.6015 Y53.6312 Z-6.8333 I-0.397 J0.0
G2 Y54.3188 Z-6.8667 I0.1985 J0.3438
G2 X559.197 Y53.975 Z-6.9 I0.1985 J-0.3438
G2 X558.6015 Y53.6312 Z-6.9333 I-0.397 J0.0
G2 Y54.3188 Z-6.9667 I0.1985 J0.3438
G2 X559.197 Y53.975 Z-7.0 I0.1985 J-0.3438
G2 X558.6015 Y53.6312 Z-7.0333 I-0.397 J0.0
G2 Y54.3188 Z-7.0667 I0.1985 J0.3438
G2 X559.197 Y53.975 Z-7.1 I0.1985 J-0.3438
G2 X558.6015 Y53.6312 Z-7.1333 I-0.397 J0.0
G2 Y54.3188 Z-7.1667 I0.1985 J0.3438
G2 X559.197 Y53.975 Z-7.2 I0.1985 J-0.3438
G2 X558.6015 Y53.6312 Z-7.2333 I-0.397 J0.0
G2 Y54.3188 Z-7.2667 I0.1985 J0.3438
G2 X559.197 Y53.975 Z-7.3 I0.1985 J-0.3438
G2 X558.6015 Y53.6312 Z-7.3333 I-0.397 J0.0
G2 Y54.3188 Z-7.3667 I0.1985 J0.3438
G2 X559.197 Y53.975 Z-7.4 I0.1985 J-0.3438
G2 X558.6015 Y53.6312 Z-7.4333 I-0.397 J0.0
G2 Y54.3188 Z-7.4667 I0.1985 J0.3438
G2 X559.197 Y53.975 Z-7.5 I0.1985 J-0.3438
G2 X558.6015 Y53.6312 Z-7.5333 I-0.397 J0.0
G2 Y54.3188 Z-7.5667 I0.1985 J0.3438
G2 X559.197 Y53.975 Z-7.6 I0.1985 J-0.3438
G2 X558.6015 Y53.6312 Z-7.6333 I-0.397 J0.0
G2 Y54.3188 Z-7.6667 I0.1985 J0.3438
G2 X559.197 Y53.975 Z-7.7 I0.1985 J-0.3438
G2 X558.6015 Y53.6312 Z-7.7333 I-0.397 J0.0
G2 Y54.3188 Z-7.7667 I0.1985 J0.3438
G2 X559.197 Y53.975 Z-7.8 I0.1985 J-0.3438
G2 X558.6015 Y53.6312 Z-7.8333 I-0.397 J0.0
G2 Y54.3188 Z-7.8667 I0.1985 J0.3438
G2 X559.197 Y53.975 Z-7.9 I0.1985 J-0.3438
G2 X558.6015 Y53.6312 Z-7.9333 I-0.397 J0.0
G2 Y54.3188 Z-7.9667 I0.1985 J0.3438
G2 X559.197 Y53.975 Z-8.0 I0.1985 J-0.3438
G2 X558.6015 Y53.6312 Z-8.0333 I-0.397 J0.0
G2 Y54.3188 Z-8.0667 I0.1985 J0.3438
G2 X559.197 Y53.975 Z-8.1 I0.1985 J-0.3438
G2 X558.6015 Y53.6312 Z-8.1333 I-0.397 J0.0
G2 Y54.3188 Z-8.1667 I0.1985 J0.3438
G2 X559.197 Y53.975 Z-8.2 I0.1985 J-0.3438
G2 X558.6015 Y53.6312 Z-8.2333 I-0.397 J0.0
G2 Y54.3188 Z-8.2667 I0.1985 J0.3438
G2 X559.197 Y53.975 Z-8.3 I0.1985 J-0.3438
G2 X558.6015 Y53.6312 Z-8.3333 I-0.397 J0.0
G2 Y54.3188 Z-8.3667 I0.1985 J0.3438
G2 X559.197 Y53.975 Z-8.4 I0.1985 J-0.3438
G2 X558.6015 Y53.6312 Z-8.4333 I-0.397 J0.0
G2 Y54.3188 Z-8.4667 I0.1985 J0.3438
G2 X559.197 Y53.975 Z-8.5 I0.1985 J-0.3438
G2 X558.6015 Y53.6312 Z-8.5333 I-0.397 J0.0
G2 Y54.3188 Z-8.5667 I0.1985 J0.3438
G2 X559.197 Y53.975 Z-8.6 I0.1985 J-0.3438
G2 X558.6015 Y53.6312 Z-8.6333 I-0.397 J0.0
G2 Y54.3188 Z-8.6667 I0.1985 J0.3438
G2 X559.197 Y53.975 Z-8.7 I0.1985 J-0.3438
G2 X558.6015 Y53.6312 Z-8.7333 I-0.397 J0.0
G2 Y54.3188 Z-8.7667 I0.1985 J0.3438
G2 X559.197 Y53.975 Z-8.8 I0.1985 J-0.3438
G2 X558.6015 Y53.6312 Z-8.8333 I-0.397 J0.0
G2 Y54.3188 Z-8.8667 I0.1985 J0.3438
G2 X559.197 Y53.975 Z-8.9 I0.1985 J-0.3438
G2 X558.6015 Y53.6312 Z-8.9333 I-0.397 J0.0
G2 Y54.3188 Z-8.9667 I0.1985 J0.3438
G2 X559.197 Y53.975 Z-9.0 I0.1985 J-0.3438
G2 X558.6015 Y53.6312 Z-9.0333 I-0.397 J0.0
G2 Y54.3188 Z-9.0667 I0.1985 J0.3438
G2 X559.197 Y53.975 Z-9.1 I0.1985 J-0.3438
G2 X558.6015 Y53.6312 Z-9.1333 I-0.397 J0.0
G2 Y54.3188 Z-9.1667 I0.1985 J0.3438
G2 X559.197 Y53.975 Z-9.2 I0.1985 J-0.3438
G2 X558.6015 Y53.6312 Z-9.2333 I-0.397 J0.0
G2 Y54.3188 Z-9.2667 I0.1985 J0.3438
G2 X559.197 Y53.975 Z-9.3 I0.1985 J-0.3438
G2 X558.6015 Y53.6312 Z-9.3333 I-0.397 J0.0
G2 Y54.3188 Z-9.3667 I0.1985 J0.3438
G2 X559.197 Y53.975 Z-9.4 I0.1985 J-0.3438
G2 X558.6015 Y53.6312 Z-9.4333 I-0.397 J0.0
G2 Y54.3188 Z-9.4667 I0.1985 J0.3438
G2 X559.197 Y53.975 Z-9.5 I0.1985 J-0.3438
G2 X558.6015 Y53.6312 Z-9.5333 I-0.397 J0.0
G2 Y54.3188 Z-9.5667 I0.1985 J0.3438
G2 X559.197 Y53.975 Z-9.6 I0.1985 J-0.3438
G2 X558.6015 Y53.6312 Z-9.6333 I-0.397 J0.0
G2 Y54.3188 Z-9.6667 I0.1985 J0.3438
G2 X559.197 Y53.975 Z-9.7 I0.1985 J-0.3438
G2 X558.6015 Y53.6312 Z-9.7333 I-0.397 J0.0
G2 Y54.3188 Z-9.7667 I0.1985 J0.3438
G2 X559.197 Y53.975 Z-9.8 I0.1985 J-0.3438
G2 X558.6015 Y53.6312 Z-9.8333 I-0.397 J0.0
G2 Y54.3188 Z-9.8667 I0.1985 J0.3438
G2 X559.197 Y53.975 Z-9.9 I0.1985 J-0.3438
G2 X558.6015 Y53.6312 Z-9.9333 I-0.397 J0.0
G2 Y54.3188 Z-9.9667 I0.1985 J0.3438
G2 X559.197 Y53.975 Z-10.0 I0.1985 J-0.3438
G2 X558.6015 Y53.6312 Z-10.0333 I-0.397 J0.0
G2 Y54.3188 Z-10.0667 I0.1985 J0.3438
G2 X559.197 Y53.975 Z-10.1 I0.1985 J-0.3438
G2 X558.6015 Y53.6312 Z-10.1333 I-0.397 J0.0
G2 Y54.3188 Z-10.1667 I0.1985 J0.3438
G2 X559.197 Y53.975 Z-10.2 I0.1985 J-0.3438
G2 X558.6015 Y53.6312 Z-10.2333 I-0.397 J0.0
G2 Y54.3188 Z-10.2667 I0.1985 J0.3438
G2 X559.197 Y53.975 Z-10.3 I0.1985 J-0.3438
G2 X558.6015 Y53.6312 Z-10.3333 I-0.397 J0.0
G2 Y54.3188 Z-10.3667 I0.1985 J0.3438
G2 X559.197 Y53.975 Z-10.4 I0.1985 J-0.3438
G2 X558.6015 Y53.6312 Z-10.4333 I-0.397 J0.0
G2 Y54.3188 Z-10.4667 I0.1985 J0.3438
G2 X559.197 Y53.975 Z-10.5 I0.1985 J-0.3438
G2 X558.6015 Y53.6312 Z-10.5333 I-0.397 J0.0
G2 Y54.3188 Z-10.5667 I0.1985 J0.3438
G2 X559.197 Y53.975 Z-10.6 I0.1985 J-0.3438
G2 X558.6015 Y53.6312 Z-10.6333 I-0.397 J0.0
G2 Y54.3188 Z-10.6667 I0.1985 J0.3438
G2 X559.197 Y53.975 Z-10.7 I0.1985 J-0.3438
G2 X558.6015 Y53.6312 Z-10.7333 I-0.397 J0.0
G2 Y54.3188 Z-10.7667 I0.1985 J0.3438
G2 X559.197 Y53.975 Z-10.8 I0.1985 J-0.3438
G2 X558.6015 Y53.6312 Z-10.8333 I-0.397 J0.0
G2 Y54.3188 Z-10.8667 I0.1985 J0.3438
G2 X559.197 Y53.975 Z-10.9 I0.1985 J-0.3438
G2 X558.6015 Y53.6312 Z-10.9333 I-0.397 J0.0
G2 Y54.3188 Z-10.9667 I0.1985 J0.3438
G2 X559.197 Y53.975 Z-11.0 I0.1985 J-0.3438
G2 X558.6015 Y53.6312 Z-11.0333 I-0.397 J0.0
G2 Y54.3188 Z-11.0667 I0.1985 J0.3438
G2 X559.197 Y53.975 Z-11.1 I0.1985 J-0.3438
G2 X558.6015 Y53.6312 Z-11.1333 I-0.397 J0.0
G2 Y54.3188 Z-11.1667 I0.1985 J0.3438
G2 X559.197 Y53.975 Z-11.2 I0.1985 J-0.3438
G2 X558.6015 Y53.6312 Z-11.2333 I-0.397 J0.0
G2 Y54.3188 Z-11.2667 I0.1985 J0.3438
G2 X559.197 Y53.975 Z-11.3 I0.1985 J-0.3438
G2 X558.6015 Y53.6312 Z-11.3333 I-0.397 J0.0
G2 Y54.3188 Z-11.3667 I0.1985 J0.3438
G2 X559.197 Y53.975 Z-11.4 I0.1985 J-0.3438
G2 X558.6015 Y53.6312 Z-11.4333 I-0.397 J0.0
G2 Y54.3188 Z-11.4667 I0.1985 J0.3438
G2 X559.197 Y53.975 Z-11.5 I0.1985 J-0.3438
G2 X558.6015 Y53.6312 Z-11.5333 I-0.397 J0.0
G2 Y54.3188 Z-11.5667 I0.1985 J0.3438
G2 X559.197 Y53.975 Z-11.6 I0.1985 J-0.3438
G2 X558.6015 Y53.6312 Z-11.6333 I-0.397 J0.0
G2 Y54.3188 Z-11.6667 I0.1985 J0.3438
G2 X559.197 Y53.975 Z-11.7 I0.1985 J-0.3438
G2 X558.6015 Y53.6312 Z-11.7333 I-0.397 J0.0
G2 Y54.3188 Z-11.7667 I0.1985 J0.3438
G2 X559.197 Y53.975 Z-11.8 I0.1985 J-0.3438
G2 X558.6015 Y53.6312 Z-11.8333 I-0.397 J0.0
G2 Y54.3188 Z-11.8667 I0.1985 J0.3438
G2 X559.197 Y53.975 Z-11.9 I0.1985 J-0.3438
G2 X558.6015 Y53.6312 Z-11.9333 I-0.397 J0.0
G2 Y54.3188 Z-11.9667 I0.1985 J0.3438
G2 X559.197 Y53.975 Z-12.0 I0.1985 J-0.3438
G2 X558.6015 Y53.6312 Z-12.0333 I-0.397 J0.0
G2 Y54.3188 Z-12.0667 I0.1985 J0.3438
G2 X559.197 Y53.975 Z-12.1 I0.1985 J-0.3438
G2 X558.6015 Y53.6312 Z-12.1333 I-0.397 J0.0
G2 Y54.3188 Z-12.1667 I0.1985 J0.3438
G2 X559.197 Y53.975 Z-12.2 I0.1985 J-0.3438
G2 X558.6015 Y53.6312 Z-12.2333 I-0.397 J0.0
G2 Y54.3188 Z-12.2667 I0.1985 J0.3438
G2 X559.197 Y53.975 Z-12.3 I0.1985 J-0.3438
G2 X558.6015 Y53.6312 Z-12.3333 I-0.397 J0.0
G2 Y54.3188 Z-12.3667 I0.1985 J0.3438
G2 X559.197 Y53.975 Z-12.4 I0.1985 J-0.3438
G2 X558.6015 Y53.6312 Z-12.4333 I-0.397 J0.0
G2 Y54.3188 Z-12.4667 I0.1985 J0.3438
G2 X559.197 Y53.975 Z-12.5 I0.1985 J-0.3438
G2 X558.6015 Y53.6312 Z-12.5333 I-0.397 J0.0
G2 Y54.3188 Z-12.5667 I0.1985 J0.3438
G2 X559.197 Y53.975 Z-12.6 I0.1985 J-0.3438
G2 X558.6015 Y53.6312 Z-12.6333 I-0.397 J0.0
G2 Y54.3188 Z-12.6667 I0.1985 J0.3438
G2 X559.197 Y53.975 Z-12.7 I0.1985 J-0.3438
G2 X558.6015 Y53.6312 Z-12.7333 I-0.397 J0.0
G2 Y54.3188 Z-12.7667 I0.1985 J0.3438
G2 X559.197 Y53.975 Z-12.8 I0.1985 J-0.3438
G2 X558.6015 Y53.6312 Z-12.8333 I-0.397 J0.0
G2 Y54.3188 Z-12.8667 I0.1985 J0.3438
G2 X559.197 Y53.975 Z-12.9 I0.1985 J-0.3438
G2 X558.6015 Y53.6312 Z-12.9333 I-0.397 J0.0
G2 Y54.3188 Z-12.9667 I0.1985 J0.3438
G2 X559.197 Y53.975 Z-13.0 I0.1985 J-0.3438
G2 X558.6015 Y53.6312 Z-13.0333 I-0.397 J0.0
G2 Y54.3188 Z-13.0667 I0.1985 J0.3438
G2 X559.197 Y53.975 Z-13.1 I0.1985 J-0.3438
G2 X558.6015 Y53.6312 Z-13.1333 I-0.397 J0.0
G2 Y54.3188 Z-13.1667 I0.1985 J0.3438
G2 X559.197 Y53.975 Z-13.2 I0.1985 J-0.3438
G2 X558.6015 Y53.6312 Z-13.2333 I-0.397 J0.0
G2 Y54.3188 Z-13.2667 I0.1985 J0.3438
G2 X559.197 Y53.975 Z-13.3 I0.1985 J-0.3438
G2 X558.6015 Y53.6312 Z-13.3333 I-0.397 J0.0
G2 Y54.3188 Z-13.3667 I0.1985 J0.3438
G2 X559.197 Y53.975 Z-13.4 I0.1985 J-0.3438
G2 X558.6015 Y53.6312 Z-13.4333 I-0.397 J0.0
G2 Y54.3188 Z-13.4667 I0.1985 J0.3438
G2 X559.197 Y53.975 Z-13.5 I0.1985 J-0.3438
G2 X558.6015 Y53.6312 Z-13.5333 I-0.397 J0.0
G2 Y54.3188 Z-13.5667 I0.1985 J0.3438
G2 X559.197 Y53.975 Z-13.6 I0.1985 J-0.3438
G2 X558.6015 Y53.6312 Z-13.6333 I-0.397 J0.0
G2 Y54.3188 Z-13.6667 I0.1985 J0.3438
G2 X559.197 Y53.975 Z-13.7 I0.1985 J-0.3438
G2 X558.6015 Y53.6312 Z-13.7333 I-0.397 J0.0
G2 Y54.3188 Z-13.7667 I0.1985 J0.3438
G2 X559.197 Y53.975 Z-13.8 I0.1985 J-0.3438
G2 X558.6015 Y53.6312 Z-13.8333 I-0.397 J0.0
G2 Y54.3188 Z-13.8667 I0.1985 J0.3438
G2 X559.197 Y53.975 Z-13.9 I0.1985 J-0.3438
G2 X558.6015 Y53.6312 Z-13.9333 I-0.397 J0.0
G2 Y54.3188 Z-13.9667 I0.1985 J0.3438
G2 X559.197 Y53.975 Z-14.0 I0.1985 J-0.3438
G2 X558.6015 Y53.6312 Z-14.0333 I-0.397 J0.0
G2 Y54.3188 Z-14.0667 I0.1985 J0.3438
G2 X559.197 Y53.975 Z-14.1 I0.1985 J-0.3438
G2 X558.6015 Y53.6312 Z-14.1333 I-0.397 J0.0
G2 Y54.3188 Z-14.1667 I0.1985 J0.3438
G2 X559.197 Y53.975 Z-14.2 I0.1985 J-0.3438
G2 X558.6015 Y53.6312 Z-14.2333 I-0.397 J0.0
G2 Y54.3188 Z-14.2667 I0.1985 J0.3438
G2 X559.197 Y53.975 Z-14.3 I0.1985 J-0.3438
G2 X558.6015 Y53.6312 Z-14.3333 I-0.397 J0.0
G2 Y54.3188 Z-14.3667 I0.1985 J0.3438
G2 X559.197 Y53.975 Z-14.4 I0.1985 J-0.3438
G2 X558.6015 Y53.6312 Z-14.4333 I-0.397 J0.0
G2 Y54.3188 Z-14.4667 I0.1985 J0.3438
G2 X559.197 Y53.975 Z-14.5 I0.1985 J-0.3438
G2 X558.6015 Y53.6312 Z-14.5333 I-0.397 J0.0
G2 Y54.3188 Z-14.5667 I0.1985 J0.3438
G2 X559.197 Y53.975 Z-14.6 I0.1985 J-0.3438
G2 X558.6015 Y53.6312 Z-14.6333 I-0.397 J0.0
G2 Y54.3188 Z-14.6667 I0.1985 J0.3438
G2 X559.197 Y53.975 Z-14.7 I0.1985 J-0.3438
G2 X558.6015 Y53.6312 Z-14.7333 I-0.397 J0.0
G2 Y54.3188 Z-14.7667 I0.1985 J0.3438
G2 X559.197 Y53.975 Z-14.8 I0.1985 J-0.3438
G2 X558.6015 Y53.6312 Z-14.8333 I-0.397 J0.0
G2 Y54.3188 Z-14.8667 I0.1985 J0.3438
G2 X559.197 Y53.975 Z-14.9 I0.1985 J-0.3438
G2 X558.6015 Y53.6312 Z-14.9333 I-0.397 J0.0
G2 Y54.3188 Z-14.9667 I0.1985 J0.3438
G2 X559.197 Y53.975 Z-15.0 I0.1985 J-0.3438
G2 X558.6015 Y53.6312 Z-15.0333 I-0.397 J0.0
G2 Y54.3188 Z-15.0667 I0.1985 J0.3438
G2 X559.197 Y53.975 Z-15.1 I0.1985 J-0.3438
G2 X558.6015 Y53.6312 Z-15.1333 I-0.397 J0.0
G2 Y54.3188 Z-15.1667 I0.1985 J0.3438
G2 X559.197 Y53.975 Z-15.2 I0.1985 J-0.3438
G2 X558.6015 Y53.6312 Z-15.2333 I-0.397 J0.0
G2 Y54.3188 Z-15.2667 I0.1985 J0.3438
G2 X559.197 Y53.975 Z-15.3 I0.1985 J-0.3438
G2 X558.6015 Y53.6312 Z-15.3333 I-0.397 J0.0
G2 Y54.3188 Z-15.3667 I0.1985 J0.3438
G2 X559.197 Y53.975 Z-15.4 I0.1985 J-0.3438
G2 X558.6015 Y53.6312 Z-15.4333 I-0.397 J0.0
G2 Y54.3188 Z-15.4667 I0.1985 J0.3438
G2 X559.197 Y53.975 Z-15.5 I0.1985 J-0.3438
G2 X558.6015 Y53.6312 Z-15.5333 I-0.397 J0.0
G2 Y54.3188 Z-15.5667 I0.1985 J0.3438
G2 X559.197 Y53.975 Z-15.6 I0.1985 J-0.3438
G2 X558.6015 Y53.6312 Z-15.6333 I-0.397 J0.0
G2 Y54.3188 Z-15.6667 I0.1985 J0.3438
G2 X559.197 Y53.975 Z-15.7 I0.1985 J-0.3438
G2 X558.6015 Y53.6312 Z-15.7333 I-0.397 J0.0
G2 Y54.3188 Z-15.7667 I0.1985 J0.3438
G2 X559.197 Y53.975 Z-15.8 I0.1985 J-0.3438
G2 X558.6015 Y53.6312 Z-15.8333 I-0.397 J0.0
G2 Y54.3188 Z-15.8667 I0.1985 J0.3438
G2 X559.197 Y53.975 Z-15.9 I0.1985 J-0.3438
G2 X558.6015 Y53.6312 Z-15.9333 I-0.397 J0.0
G2 Y54.3188 Z-15.9667 I0.1985 J0.3438
G2 X559.197 Y53.975 Z-16.0 I0.1985 J-0.3438
G2 X558.6015 Y53.6312 Z-16.0333 I-0.397 J0.0
G2 Y54.3188 Z-16.0667 I0.1985 J0.3438
G2 X559.197 Y53.975 Z-16.1 I0.1985 J-0.3438
G2 X558.6015 Y53.6312 Z-16.1333 I-0.397 J0.0
G2 Y54.3188 Z-16.1667 I0.1985 J0.3438
G2 X559.197 Y53.975 Z-16.2 I0.1985 J-0.3438
G2 X558.6015 Y53.6312 Z-16.2333 I-0.397 J0.0
G2 Y54.3188 Z-16.2667 I0.1985 J0.3438
G2 X559.197 Y53.975 Z-16.3 I0.1985 J-0.3438
G2 X558.6015 Y53.6312 Z-16.3333 I-0.397 J0.0
G2 Y54.3188 Z-16.3667 I0.1985 J0.3438
G2 X559.197 Y53.975 Z-16.4 I0.1985 J-0.3438
G2 X558.6015 Y53.6312 Z-16.4333 I-0.397 J0.0
G2 Y54.3188 Z-16.4667 I0.1985 J0.3438
G2 X559.197 Y53.975 Z-16.5 I0.1985 J-0.3438
G2 X558.6015 Y53.6312 Z-16.5333 I-0.397 J0.0
G2 Y54.3188 Z-16.5667 I0.1985 J0.3438
G2 X559.197 Y53.975 Z-16.6 I0.1985 J-0.3438
G2 X558.6015 Y53.6312 Z-16.6333 I-0.397 J0.0
G2 Y54.3188 Z-16.6667 I0.1985 J0.3438
G2 X559.197 Y53.975 Z-16.7 I0.1985 J-0.3438
G2 X558.6015 Y53.6312 Z-16.7333 I-0.397 J0.0
G2 Y54.3188 Z-16.7667 I0.1985 J0.3438
G2 X559.197 Y53.975 Z-16.8 I0.1985 J-0.3438
G2 X558.6015 Y53.6312 Z-16.8333 I-0.397 J0.0
G2 Y54.3188 Z-16.8667 I0.1985 J0.3438
G2 X559.197 Y53.975 Z-16.9 I0.1985 J-0.3438
G2 X558.6015 Y53.6312 Z-16.9333 I-0.397 J0.0
G2 Y54.3188 Z-16.9667 I0.1985 J0.3438
G2 X559.197 Y53.975 Z-17.0 I0.1985 J-0.3438
G2 X558.6015 Y53.6312 Z-17.0333 I-0.397 J0.0
G2 Y54.3188 Z-17.0667 I0.1985 J0.3438
G2 X559.197 Y53.975 Z-17.1 I0.1985 J-0.3438
G2 X558.6015 Y53.6312 Z-17.1333 I-0.397 J0.0
G2 Y54.3188 Z-17.1667 I0.1985 J0.3438
G2 X559.197 Y53.975 Z-17.2 I0.1985 J-0.3438
G2 X558.6015 Y53.6312 Z-17.2333 I-0.397 J0.0
G2 Y54.3188 Z-17.2667 I0.1985 J0.3438
G2 X559.197 Y53.975 Z-17.3 I0.1985 J-0.3438
G2 X558.6015 Y53.6312 Z-17.3333 I-0.397 J0.0
G2 Y54.3188 Z-17.3667 I0.1985 J0.3438
G2 X559.197 Y53.975 Z-17.4 I0.1985 J-0.3438
G2 X558.6015 Y53.6312 Z-17.4333 I-0.397 J0.0
G2 Y54.3188 Z-17.4667 I0.1985 J0.3438
G2 X559.197 Y53.975 Z-17.5 I0.1985 J-0.3438
G2 X558.6015 Y53.6312 Z-17.5333 I-0.397 J0.0
G2 Y54.3188 Z-17.5667 I0.1985 J0.3438
G2 X559.197 Y53.975 Z-17.6 I0.1985 J-0.3438
G2 X558.6015 Y53.6312 Z-17.6333 I-0.397 J0.0
G2 Y54.3188 Z-17.6667 I0.1985 J0.3438
G2 X559.197 Y53.975 Z-17.7 I0.1985 J-0.3438
G2 X558.6015 Y53.6312 Z-17.7333 I-0.397 J0.0
G2 Y54.3188 Z-17.7667 I0.1985 J0.3438
G2 X559.197 Y53.975 Z-17.8 I0.1985 J-0.3438
G2 X558.6015 Y53.6312 Z-17.8333 I-0.397 J0.0
G2 Y54.3188 Z-17.8667 I0.1985 J0.3438
G2 X559.197 Y53.975 Z-17.9 I0.1985 J-0.3438
G2 X558.6015 Y53.6312 Z-17.9333 I-0.397 J0.0
G2 Y54.3188 Z-17.9667 I0.1985 J0.3438
G2 X559.197 Y53.975 Z-18.0 I0.1985 J-0.3438
G2 X558.6015 Y53.6312 Z-18.0333 I-0.397 J0.0
G2 Y54.3188 Z-18.0667 I0.1985 J0.3438
G2 X559.197 Y53.975 Z-18.1 I0.1985 J-0.3438
G2 X558.6015 Y53.6312 Z-18.1333 I-0.397 J0.0
G2 Y54.3188 Z-18.1667 I0.1985 J0.3438
G2 X559.197 Y53.975 Z-18.2 I0.1985 J-0.3438
G2 X558.6015 Y53.6312 Z-18.2333 I-0.397 J0.0
G2 Y54.3188 Z-18.2667 I0.1985 J0.3438
G2 X559.197 Y53.975 Z-18.3 I0.1985 J-0.3438
G2 X558.6015 Y53.6312 Z-18.3333 I-0.397 J0.0
G2 Y54.3188 Z-18.3667 I0.1985 J0.3438
G2 X559.197 Y53.975 Z-18.4 I0.1985 J-0.3438
G2 X558.6015 Y53.6312 Z-18.4333 I-0.397 J0.0
G2 Y54.3188 Z-18.4667 I0.1985 J0.3438
G2 X559.197 Y53.975 Z-18.5 I0.1985 J-0.3438
G2 X558.6015 Y53.6312 Z-18.5333 I-0.397 J0.0
G2 Y54.3188 Z-18.5667 I0.1985 J0.3438
G2 X559.197 Y53.975 Z-18.6 I0.1985 J-0.3438
G2 X558.6015 Y53.6312 Z-18.6333 I-0.397 J0.0
G2 Y54.3188 Z-18.6667 I0.1985 J0.3438
G2 X559.197 Y53.975 Z-18.7 I0.1985 J-0.3438
G2 X558.6015 Y53.6312 Z-18.7333 I-0.397 J0.0
G2 Y54.3188 Z-18.7667 I0.1985 J0.3438
G2 X559.197 Y53.975 Z-18.8 I0.1985 J-0.3438
G2 X558.6015 Y53.6312 Z-18.8333 I-0.397 J0.0
G2 Y54.3188 Z-18.8667 I0.1985 J0.3438
G2 X559.197 Y53.975 Z-18.9 I0.1985 J-0.3438
G2 X558.6015 Y53.6312 Z-18.9333 I-0.397 J0.0
G2 Y54.3188 Z-18.9667 I0.1985 J0.3438
G2 X559.197 Y53.975 Z-19.0 I0.1985 J-0.3438
G2 X558.6015 Y53.6312 Z-19.0333 I-0.397 J0.0
G2 Y54.3188 Z-19.0667 I0.1985 J0.3438
G2 X559.197 Y53.975 Z-19.1 I0.1985 J-0.3438
G2 X558.6015 Y53.6312 Z-19.1333 I-0.397 J0.0
G2 Y54.3188 Z-19.1667 I0.1985 J0.3438
G2 X559.197 Y53.975 Z-19.2 I0.1985 J-0.3438
G2 X558.6015 Y53.6312 Z-19.2333 I-0.397 J0.0
G2 Y54.3188 Z-19.2667 I0.1985 J0.3438
G2 X559.197 Y53.975 Z-19.3 I0.1985 J-0.3438
G2 X558.6015 Y53.6312 Z-19.3333 I-0.397 J0.0
G2 Y54.3188 Z-19.3667 I0.1985 J0.3438
G2 X559.197 Y53.975 Z-19.4 I0.1985 J-0.3438
G2 X558.6015 Y53.6312 Z-19.4333 I-0.397 J0.0
G2 Y54.3188 Z-19.4667 I0.1985 J0.3438
G2 X559.197 Y53.975 Z-19.5 I0.1985 J-0.3438
G2 X558.6015 Y53.6312 Z-19.5333 I-0.397 J0.0
G2 Y54.3188 Z-19.5667 I0.1985 J0.3438
G2 X559.197 Y53.975 Z-19.6 I0.1985 J-0.3438
G2 X558.6015 Y53.6312 Z-19.6333 I-0.397 J0.0
G2 Y54.3188 Z-19.6667 I0.1985 J0.3438
G2 X559.197 Y53.975 Z-19.7 I0.1985 J-0.3438
G2 X558.6015 Y53.6312 Z-19.7333 I-0.397 J0.0
G2 Y54.3188 Z-19.7667 I0.1985 J0.3438
G2 X559.197 Y53.975 Z-19.8 I0.1985 J-0.3438
G2 X558.6015 Y53.6312 Z-19.8333 I-0.397 J0.0
G2 Y54.3188 Z-19.8667 I0.1985 J0.3438
G2 X559.197 Y53.975 Z-19.9 I0.1985 J-0.3438
G2 X558.6015 Y53.6312 Z-19.9333 I-0.397 J0.0
G2 Y54.3188 Z-19.9667 I0.1985 J0.3438
G2 X559.197 Y53.975 Z-20.0 I0.1985 J-0.3438
G2 X558.6015 Y53.6312 Z-20.0333 I-0.397 J0.0
G2 Y54.3188 Z-20.0667 I0.1985 J0.3438
G2 X559.197 Y53.975 Z-20.1 I0.1985 J-0.3438
G2 X558.6015 Y53.6312 Z-20.1333 I-0.397 J0.0
G2 Y54.3188 Z-20.1667 I0.1985 J0.3438
G2 X559.197 Y53.975 Z-20.2 I0.1985 J-0.3438
G2 X558.6015 Y53.6312 Z-20.2333 I-0.397 J0.0
G2 Y54.3188 Z-20.2667 I0.1985 J0.3438
G2 X559.197 Y53.975 Z-20.3 I0.1985 J-0.3438
G2 X558.6015 Y53.6312 Z-20.3333 I-0.397 J0.0
G2 Y54.3188 Z-20.3667 I0.1985 J0.3438
G2 X559.197 Y53.975 Z-20.4 I0.1985 J-0.3438
G2 X558.6015 Y53.6312 Z-20.4333 I-0.397 J0.0
G2 Y54.3188 Z-20.4667 I0.1985 J0.3438
G2 X559.197 Y53.975 Z-20.5 I0.1985 J-0.3438
G2 X558.6015 Y53.6312 Z-20.5333 I-0.397 J0.0
G2 Y54.3188 Z-20.5667 I0.1985 J0.3438
G2 X559.197 Y53.975 Z-20.6 I0.1985 J-0.3438
G2 X558.6015 Y53.6312 Z-20.6333 I-0.397 J0.0
G2 Y54.3188 Z-20.6667 I0.1985 J0.3438
G2 X559.197 Y53.975 Z-20.7 I0.1985 J-0.3438
G2 X558.6015 Y53.6312 Z-20.7333 I-0.397 J0.0
G2 Y54.3188 Z-20.7667 I0.1985 J0.3438
G2 X559.197 Y53.975 Z-20.8 I0.1985 J-0.3438
G2 X558.6015 Y53.6312 Z-20.8333 I-0.397 J0.0
G2 Y54.3188 Z-20.8667 I0.1985 J0.3438
G2 X559.197 Y53.975 Z-20.9 I0.1985 J-0.3438
G2 X558.6015 Y53.6312 Z-20.9333 I-0.397 J0.0
G2 Y54.3188 Z-20.9667 I0.1985 J0.3438
G2 X559.197 Y53.975 Z-21.0 I0.1985 J-0.3438
G2 X558.6015 Y53.6312 I-0.397 J0.0
G2 Y54.3188 I0.1985 J0.3438
G2 X559.197 Y53.975 I0.1985 J-0.3438
G0 Z3.0
G0 X432.197
G0 Z0.1
G1 F120.0 Z0.0
G2 F3000.0 X431.6015 Y53.6312 Z-0.0333 I-0.397 J0.0
G2 Y54.3188 Z-0.0667 I0.1985 J0.3438
G2 X432.197 Y53.975 Z-0.1 I0.1985 J-0.3438
G2 X431.6015 Y53.6312 Z-0.1333 I-0.397 J0.0
G2 Y54.3188 Z-0.1667 I0.1985 J0.3438
G2 X432.197 Y53.975 Z-0.2 I0.1985 J-0.3438
G2 X431.6015 Y53.6312 Z-0.2333 I-0.397 J0.0
G2 Y54.3188 Z-0.2667 I0.1985 J0.3438
G2 X432.197 Y53.975 Z-0.3 I0.1985 J-0.3438
G2 X431.6015 Y53.6312 Z-0.3333 I-0.397 J0.0
G2 Y54.3188 Z-0.3667 I0.1985 J0.3438
G2 X432.197 Y53.975 Z-0.4 I0.1985 J-0.3438
G2 X431.6015 Y53.6312 Z-0.4333 I-0.397 J0.0
G2 Y54.3188 Z-0.4667 I0.1985 J0.3438
G2 X432.197 Y53.975 Z-0.5 I0.1985 J-0.3438
G2 X431.6015 Y53.6312 Z-0.5333 I-0.397 J0.0
G2 Y54.3188 Z-0.5667 I0.1985 J0.3438
G2 X432.197 Y53.975 Z-0.6 I0.1985 J-0.3438
G2 X431.6015 Y53.6312 Z-0.6333 I-0.397 J0.0
G2 Y54.3188 Z-0.6667 I0.1985 J0.3438
G2 X432.197 Y53.975 Z-0.7 I0.1985 J-0.3438
G2 X431.6015 Y53.6312 Z-0.7333 I-0.397 J0.0
G2 Y54.3188 Z-0.7667 I0.1985 J0.3438
G2 X432.197 Y53.975 Z-0.8 I0.1985 J-0.3438
G2 X431.6015 Y53.6312 Z-0.8333 I-0.397 J0.0
G2 Y54.3188 Z-0.8667 I0.1985 J0.3438
G2 X432.197 Y53.975 Z-0.9 I0.1985 J-0.3438
G2 X431.6015 Y53.6312 Z-0.9333 I-0.397 J0.0
G2 Y54.3188 Z-0.9667 I0.1985 J0.3438
G2 X432.197 Y53.975 Z-1.0 I0.1985 J-0.3438
G2 X431.6015 Y53.6312 Z-1.0333 I-0.397 J0.0
G2 Y54.3188 Z-1.0667 I0.1985 J0.3438
G2 X432.197 Y53.975 Z-1.1 I0.1985 J-0.3438
G2 X431.6015 Y53.6312 Z-1.1333 I-0.397 J0.0
G2 Y54.3188 Z-1.1667 I0.1985 J0.3438
G2 X432.197 Y53.975 Z-1.2 I0.1985 J-0.3438
G2 X431.6015 Y53.6312 Z-1.2333 I-0.397 J0.0
G2 Y54.3188 Z-1.2667 I0.1985 J0.3438
G2 X432.197 Y53.975 Z-1.3 I0.1985 J-0.3438
G2 X431.6015 Y53.6312 Z-1.3333 I-0.397 J0.0
G2 Y54.3188 Z-1.3667 I0.1985 J0.3438
G2 X432.197 Y53.975 Z-1.4 I0.1985 J-0.3438
G2 X431.6015 Y53.6312 Z-1.4333 I-0.397 J0.0
G2 Y54.3188 Z-1.4667 I0.1985 J0.3438
G2 X432.197 Y53.975 Z-1.5 I0.1985 J-0.3438
G2 X431.6015 Y53.6312 Z-1.5333 I-0.397 J0.0
G2 Y54.3188 Z-1.5667 I0.1985 J0.3438
G2 X432.197 Y53.975 Z-1.6 I0.1985 J-0.3438
G2 X431.6015 Y53.6312 Z-1.6333 I-0.397 J0.0
G2 Y54.3188 Z-1.6667 I0.1985 J0.3438
G2 X432.197 Y53.975 Z-1.7 I0.1985 J-0.3438
G2 X431.6015 Y53.6312 Z-1.7333 I-0.397 J0.0
G2 Y54.3188 Z-1.7667 I0.1985 J0.3438
G2 X432.197 Y53.975 Z-1.8 I0.1985 J-0.3438
G2 X431.6015 Y53.6312 Z-1.8333 I-0.397 J0.0
G2 Y54.3188 Z-1.8667 I0.1985 J0.3438
G2 X432.197 Y53.975 Z-1.9 I0.1985 J-0.3438
G2 X431.6015 Y53.6312 Z-1.9333 I-0.397 J0.0
G2 Y54.3188 Z-1.9667 I0.1985 J0.3438
G2 X432.197 Y53.975 Z-2.0 I0.1985 J-0.3438
G2 X431.6015 Y53.6312 Z-2.0333 I-0.397 J0.0
G2 Y54.3188 Z-2.0667 I0.1985 J0.3438
G2 X432.197 Y53.975 Z-2.1 I0.1985 J-0.3438
G2 X431.6015 Y53.6312 Z-2.1333 I-0.397 J0.0
G2 Y54.3188 Z-2.1667 I0.1985 J0.3438
G2 X432.197 Y53.975 Z-2.2 I0.1985 J-0.3438
G2 X431.6015 Y53.6312 Z-2.2333 I-0.397 J0.0
G2 Y54.3188 Z-2.2667 I0.1985 J0.3438
G2 X432.197 Y53.975 Z-2.3 I0.1985 J-0.3438
G2 X431.6015 Y53.6312 Z-2.3333 I-0.397 J0.0
G2 Y54.3188 Z-2.3667 I0.1985 J0.3438
G2 X432.197 Y53.975 Z-2.4 I0.1985 J-0.3438
G2 X431.6015 Y53.6312 Z-2.4333 I-0.397 J0.0
G2 Y54.3188 Z-2.4667 I0.1985 J0.3438
G2 X432.197 Y53.975 Z-2.5 I0.1985 J-0.3438
G2 X431.6015 Y53.6312 Z-2.5333 I-0.397 J0.0
G2 Y54.3188 Z-2.5667 I0.1985 J0.3438
G2 X432.197 Y53.975 Z-2.6 I0.1985 J-0.3438
G2 X431.6015 Y53.6312 Z-2.6333 I-0.397 J0.0
G2 Y54.3188 Z-2.6667 I0.1985 J0.3438
G2 X432.197 Y53.975 Z-2.7 I0.1985 J-0.3438
G2 X431.6015 Y53.6312 Z-2.7333 I-0.397 J0.0
G2 Y54.3188 Z-2.7667 I0.1985 J0.3438
G2 X432.197 Y53.975 Z-2.8 I0.1985 J-0.3438
G2 X431.6015 Y53.6312 Z-2.8333 I-0.397 J0.0
G2 Y54.3188 Z-2.8667 I0.1985 J0.3438
G2 X432.197 Y53.975 Z-2.9 I0.1985 J-0.3438
G2 X431.6015 Y53.6312 Z-2.9333 I-0.397 J0.0
G2 Y54.3188 Z-2.9667 I0.1985 J0.3438
G2 X432.197 Y53.975 Z-3.0 I0.1985 J-0.3438
G2 X431.6015 Y53.6312 Z-3.0333 I-0.397 J0.0
G2 Y54.3188 Z-3.0667 I0.1985 J0.3438
G2 X432.197 Y53.975 Z-3.1 I0.1985 J-0.3438
G2 X431.6015 Y53.6312 Z-3.1333 I-0.397 J0.0
G2 Y54.3188 Z-3.1667 I0.1985 J0.3438
G2 X432.197 Y53.975 Z-3.2 I0.1985 J-0.3438
G2 X431.6015 Y53.6312 Z-3.2333 I-0.397 J0.0
G2 Y54.3188 Z-3.2667 I0.1985 J0.3438
G2 X432.197 Y53.975 Z-3.3 I0.1985 J-0.3438
G2 X431.6015 Y53.6312 Z-3.3333 I-0.397 J0.0
G2 Y54.3188 Z-3.3667 I0.1985 J0.3438
G2 X432.197 Y53.975 Z-3.4 I0.1985 J-0.3438
G2 X431.6015 Y53.6312 Z-3.4333 I-0.397 J0.0
G2 Y54.3188 Z-3.4667 I0.1985 J0.3438
G2 X432.197 Y53.975 Z-3.5 I0.1985 J-0.3438
G2 X431.6015 Y53.6312 Z-3.5333 I-0.397 J0.0
G2 Y54.3188 Z-3.5667 I0.1985 J0.3438
G2 X432.197 Y53.975 Z-3.6 I0.1985 J-0.3438
G2 X431.6015 Y53.6312 Z-3.6333 I-0.397 J0.0
G2 Y54.3188 Z-3.6667 I0.1985 J0.3438
G2 X432.197 Y53.975 Z-3.7 I0.1985 J-0.3438
G2 X431.6015 Y53.6312 Z-3.7333 I-0.397 J0.0
G2 Y54.3188 Z-3.7667 I0.1985 J0.3438
G2 X432.197 Y53.975 Z-3.8 I0.1985 J-0.3438
G2 X431.6015 Y53.6312 Z-3.8333 I-0.397 J0.0
G2 Y54.3188 Z-3.8667 I0.1985 J0.3438
G2 X432.197 Y53.975 Z-3.9 I0.1985 J-0.3438
G2 X431.6015 Y53.6312 Z-3.9333 I-0.397 J0.0
G2 Y54.3188 Z-3.9667 I0.1985 J0.3438
G2 X432.197 Y53.975 Z-4.0 I0.1985 J-0.3438
G2 X431.6015 Y53.6312 Z-4.0333 I-0.397 J0.0
G2 Y54.3188 Z-4.0667 I0.1985 J0.3438
G2 X432.197 Y53.975 Z-4.1 I0.1985 J-0.3438
G2 X431.6015 Y53.6312 Z-4.1333 I-0.397 J0.0
G2 Y54.3188 Z-4.1667 I0.1985 J0.3438
G2 X432.197 Y53.975 Z-4.2 I0.1985 J-0.3438
G2 X431.6015 Y53.6312 Z-4.2333 I-0.397 J0.0
G2 Y54.3188 Z-4.2667 I0.1985 J0.3438
G2 X432.197 Y53.975 Z-4.3 I0.1985 J-0.3438
G2 X431.6015 Y53.6312 Z-4.3333 I-0.397 J0.0
G2 Y54.3188 Z-4.3667 I0.1985 J0.3438
G2 X432.197 Y53.975 Z-4.4 I0.1985 J-0.3438
G2 X431.6015 Y53.6312 Z-4.4333 I-0.397 J0.0
G2 Y54.3188 Z-4.4667 I0.1985 J0.3438
G2 X432.197 Y53.975 Z-4.5 I0.1985 J-0.3438
G2 X431.6015 Y53.6312 Z-4.5333 I-0.397 J0.0
G2 Y54.3188 Z-4.5667 I0.1985 J0.3438
G2 X432.197 Y53.975 Z-4.6 I0.1985 J-0.3438
G2 X431.6015 Y53.6312 Z-4.6333 I-0.397 J0.0
G2 Y54.3188 Z-4.6667 I0.1985 J0.3438
G2 X432.197 Y53.975 Z-4.7 I0.1985 J-0.3438
G2 X431.6015 Y53.6312 Z-4.7333 I-0.397 J0.0
G2 Y54.3188 Z-4.7667 I0.1985 J0.3438
G2 X432.197 Y53.975 Z-4.8 I0.1985 J-0.3438
G2 X431.6015 Y53.6312 Z-4.8333 I-0.397 J0.0
G2 Y54.3188 Z-4.8667 I0.1985 J0.3438
G2 X432.197 Y53.975 Z-4.9 I0.1985 J-0.3438
G2 X431.6015 Y53.6312 Z-4.9333 I-0.397 J0.0
G2 Y54.3188 Z-4.9667 I0.1985 J0.3438
G2 X432.197 Y53.975 Z-5.0 I0.1985 J-0.3438
G2 X431.6015 Y53.6312 Z-5.0333 I-0.397 J0.0
G2 Y54.3188 Z-5.0667 I0.1985 J0.3438
G2 X432.197 Y53.975 Z-5.1 I0.1985 J-0.3438
G2 X431.6015 Y53.6312 Z-5.1333 I-0.397 J0.0
G2 Y54.3188 Z-5.1667 I0.1985 J0.3438
G2 X432.197 Y53.975 Z-5.2 I0.1985 J-0.3438
G2 X431.6015 Y53.6312 Z-5.2333 I-0.397 J0.0
G2 Y54.3188 Z-5.2667 I0.1985 J0.3438
G2 X432.197 Y53.975 Z-5.3 I0.1985 J-0.3438
G2 X431.6015 Y53.6312 Z-5.3333 I-0.397 J0.0
G2 Y54.3188 Z-5.3667 I0.1985 J0.3438
G2 X432.197 Y53.975 Z-5.4 I0.1985 J-0.3438
G2 X431.6015 Y53.6312 Z-5.4333 I-0.397 J0.0
G2 Y54.3188 Z-5.4667 I0.1985 J0.3438
G2 X432.197 Y53.975 Z-5.5 I0.1985 J-0.3438
G2 X431.6015 Y53.6312 Z-5.5333 I-0.397 J0.0
G2 Y54.3188 Z-5.5667 I0.1985 J0.3438
G2 X432.197 Y53.975 Z-5.6 I0.1985 J-0.3438
G2 X431.6015 Y53.6312 Z-5.6333 I-0.397 J0.0
G2 Y54.3188 Z-5.6667 I0.1985 J0.3438
G2 X432.197 Y53.975 Z-5.7 I0.1985 J-0.3438
G2 X431.6015 Y53.6312 Z-5.7333 I-0.397 J0.0
G2 Y54.3188 Z-5.7667 I0.1985 J0.3438
G2 X432.197 Y53.975 Z-5.8 I0.1985 J-0.3438
G2 X431.6015 Y53.6312 Z-5.8333 I-0.397 J0.0
G2 Y54.3188 Z-5.8667 I0.1985 J0.3438
G2 X432.197 Y53.975 Z-5.9 I0.1985 J-0.3438
G2 X431.6015 Y53.6312 Z-5.9333 I-0.397 J0.0
G2 Y54.3188 Z-5.9667 I0.1985 J0.3438
G2 X432.197 Y53.975 Z-6.0 I0.1985 J-0.3438
G2 X431.6015 Y53.6312 Z-6.0333 I-0.397 J0.0
G2 Y54.3188 Z-6.0667 I0.1985 J0.3438
G2 X432.197 Y53.975 Z-6.1 I0.1985 J-0.3438
G2 X431.6015 Y53.6312 Z-6.1333 I-0.397 J0.0
G2 Y54.3188 Z-6.1667 I0.1985 J0.3438
G2 X432.197 Y53.975 Z-6.2 I0.1985 J-0.3438
G2 X431.6015 Y53.6312 Z-6.2333 I-0.397 J0.0
G2 Y54.3188 Z-6.2667 I0.1985 J0.3438
G2 X432.197 Y53.975 Z-6.3 I0.1985 J-0.3438
G2 X431.6015 Y53.6312 Z-6.3333 I-0.397 J0.0
G2 Y54.3188 Z-6.3667 I0.1985 J0.3438
G2 X432.197 Y53.975 Z-6.4 I0.1985 J-0.3438
G2 X431.6015 Y53.6312 Z-6.4333 I-0.397 J0.0
G2 Y54.3188 Z-6.4667 I0.1985 J0.3438
G2 X432.197 Y53.975 Z-6.5 I0.1985 J-0.3438
G2 X431.6015 Y53.6312 Z-6.5333 I-0.397 J0.0
G2 Y54.3188 Z-6.5667 I0.1985 J0.3438
G2 X432.197 Y53.975 Z-6.6 I0.1985 J-0.3438
G2 X431.6015 Y53.6312 Z-6.6333 I-0.397 J0.0
G2 Y54.3188 Z-6.6667 I0.1985 J0.3438
G2 X432.197 Y53.975 Z-6.7 I0.1985 J-0.3438
G2 X431.6015 Y53.6312 Z-6.7333 I-0.397 J0.0
G2 Y54.3188 Z-6.7667 I0.1985 J0.3438
G2 X432.197 Y53.975 Z-6.8 I0.1985 J-0.3438
G2 X431.6015 Y53.6312 Z-6.8333 I-0.397 J0.0
G2 Y54.3188 Z-6.8667 I0.1985 J0.3438
G2 X432.197 Y53.975 Z-6.9 I0.1985 J-0.3438
G2 X431.6015 Y53.6312 Z-6.9333 I-0.397 J0.0
G2 Y54.3188 Z-6.9667 I0.1985 J0.3438
G2 X432.197 Y53.975 Z-7.0 I0.1985 J-0.3438
G2 X431.6015 Y53.6312 Z-7.0333 I-0.397 J0.0
G2 Y54.3188 Z-7.0667 I0.1985 J0.3438
G2 X432.197 Y53.975 Z-7.1 I0.1985 J-0.3438
G2 X431.6015 Y53.6312 Z-7.1333 I-0.397 J0.0
G2 Y54.3188 Z-7.1667 I0.1985 J0.3438
G2 X432.197 Y53.975 Z-7.2 I0.1985 J-0.3438
G2 X431.6015 Y53.6312 Z-7.2333 I-0.397 J0.0
G2 Y54.3188 Z-7.2667 I0.1985 J0.3438
G2 X432.197 Y53.975 Z-7.3 I0.1985 J-0.3438
G2 X431.6015 Y53.6312 Z-7.3333 I-0.397 J0.0
G2 Y54.3188 Z-7.3667 I0.1985 J0.3438
G2 X432.197 Y53.975 Z-7.4 I0.1985 J-0.3438
G2 X431.6015 Y53.6312 Z-7.4333 I-0.397 J0.0
G2 Y54.3188 Z-7.4667 I0.1985 J0.3438
G2 X432.197 Y53.975 Z-7.5 I0.1985 J-0.3438
G2 X431.6015 Y53.6312 Z-7.5333 I-0.397 J0.0
G2 Y54.3188 Z-7.5667 I0.1985 J0.3438
G2 X432.197 Y53.975 Z-7.6 I0.1985 J-0.3438
G2 X431.6015 Y53.6312 Z-7.6333 I-0.397 J0.0
G2 Y54.3188 Z-7.6667 I0.1985 J0.3438
G2 X432.197 Y53.975 Z-7.7 I0.1985 J-0.3438
G2 X431.6015 Y53.6312 Z-7.7333 I-0.397 J0.0
G2 Y54.3188 Z-7.7667 I0.1985 J0.3438
G2 X432.197 Y53.975 Z-7.8 I0.1985 J-0.3438
G2 X431.6015 Y53.6312 Z-7.8333 I-0.397 J0.0
G2 Y54.3188 Z-7.8667 I0.1985 J0.3438
G2 X432.197 Y53.975 Z-7.9 I0.1985 J-0.3438
G2 X431.6015 Y53.6312 Z-7.9333 I-0.397 J0.0
G2 Y54.3188 Z-7.9667 I0.1985 J0.3438
G2 X432.197 Y53.975 Z-8.0 I0.1985 J-0.3438
G2 X431.6015 Y53.6312 Z-8.0333 I-0.397 J0.0
G2 Y54.3188 Z-8.0667 I0.1985 J0.3438
G2 X432.197 Y53.975 Z-8.1 I0.1985 J-0.3438
G2 X431.6015 Y53.6312 Z-8.1333 I-0.397 J0.0
G2 Y54.3188 Z-8.1667 I0.1985 J0.3438
G2 X432.197 Y53.975 Z-8.2 I0.1985 J-0.3438
G2 X431.6015 Y53.6312 Z-8.2333 I-0.397 J0.0
G2 Y54.3188 Z-8.2667 I0.1985 J0.3438
G2 X432.197 Y53.975 Z-8.3 I0.1985 J-0.3438
G2 X431.6015 Y53.6312 Z-8.3333 I-0.397 J0.0
G2 Y54.3188 Z-8.3667 I0.1985 J0.3438
G2 X432.197 Y53.975 Z-8.4 I0.1985 J-0.3438
G2 X431.6015 Y53.6312 Z-8.4333 I-0.397 J0.0
G2 Y54.3188 Z-8.4667 I0.1985 J0.3438
G2 X432.197 Y53.975 Z-8.5 I0.1985 J-0.3438
G2 X431.6015 Y53.6312 Z-8.5333 I-0.397 J0.0
G2 Y54.3188 Z-8.5667 I0.1985 J0.3438
G2 X432.197 Y53.975 Z-8.6 I0.1985 J-0.3438
G2 X431.6015 Y53.6312 Z-8.6333 I-0.397 J0.0
G2 Y54.3188 Z-8.6667 I0.1985 J0.3438
G2 X432.197 Y53.975 Z-8.7 I0.1985 J-0.3438
G2 X431.6015 Y53.6312 Z-8.7333 I-0.397 J0.0
G2 Y54.3188 Z-8.7667 I0.1985 J0.3438
G2 X432.197 Y53.975 Z-8.8 I0.1985 J-0.3438
G2 X431.6015 Y53.6312 Z-8.8333 I-0.397 J0.0
G2 Y54.3188 Z-8.8667 I0.1985 J0.3438
G2 X432.197 Y53.975 Z-8.9 I0.1985 J-0.3438
G2 X431.6015 Y53.6312 Z-8.9333 I-0.397 J0.0
G2 Y54.3188 Z-8.9667 I0.1985 J0.3438
G2 X432.197 Y53.975 Z-9.0 I0.1985 J-0.3438
G2 X431.6015 Y53.6312 Z-9.0333 I-0.397 J0.0
G2 Y54.3188 Z-9.0667 I0.1985 J0.3438
G2 X432.197 Y53.975 Z-9.1 I0.1985 J-0.3438
G2 X431.6015 Y53.6312 Z-9.1333 I-0.397 J0.0
G2 Y54.3188 Z-9.1667 I0.1985 J0.3438
G2 X432.197 Y53.975 Z-9.2 I0.1985 J-0.3438
G2 X431.6015 Y53.6312 Z-9.2333 I-0.397 J0.0
G2 Y54.3188 Z-9.2667 I0.1985 J0.3438
G2 X432.197 Y53.975 Z-9.3 I0.1985 J-0.3438
G2 X431.6015 Y53.6312 Z-9.3333 I-0.397 J0.0
G2 Y54.3188 Z-9.3667 I0.1985 J0.3438
G2 X432.197 Y53.975 Z-9.4 I0.1985 J-0.3438
G2 X431.6015 Y53.6312 Z-9.4333 I-0.397 J0.0
G2 Y54.3188 Z-9.4667 I0.1985 J0.3438
G2 X432.197 Y53.975 Z-9.5 I0.1985 J-0.3438
G2 X431.6015 Y53.6312 Z-9.5333 I-0.397 J0.0
G2 Y54.3188 Z-9.5667 I0.1985 J0.3438
G2 X432.197 Y53.975 Z-9.6 I0.1985 J-0.3438
G2 X431.6015 Y53.6312 Z-9.6333 I-0.397 J0.0
G2 Y54.3188 Z-9.6667 I0.1985 J0.3438
G2 X432.197 Y53.975 Z-9.7 I0.1985 J-0.3438
G2 X431.6015 Y53.6312 Z-9.7333 I-0.397 J0.0
G2 Y54.3188 Z-9.7667 I0.1985 J0.3438
G2 X432.197 Y53.975 Z-9.8 I0.1985 J-0.3438
G2 X431.6015 Y53.6312 Z-9.8333 I-0.397 J0.0
G2 Y54.3188 Z-9.8667 I0.1985 J0.3438
G2 X432.197 Y53.975 Z-9.9 I0.1985 J-0.3438
G2 X431.6015 Y53.6312 Z-9.9333 I-0.397 J0.0
G2 Y54.3188 Z-9.9667 I0.1985 J0.3438
G2 X432.197 Y53.975 Z-10.0 I0.1985 J-0.3438
G2 X431.6015 Y53.6312 Z-10.0333 I-0.397 J0.0
G2 Y54.3188 Z-10.0667 I0.1985 J0.3438
G2 X432.197 Y53.975 Z-10.1 I0.1985 J-0.3438
G2 X431.6015 Y53.6312 Z-10.1333 I-0.397 J0.0
G2 Y54.3188 Z-10.1667 I0.1985 J0.3438
G2 X432.197 Y53.975 Z-10.2 I0.1985 J-0.3438
G2 X431.6015 Y53.6312 Z-10.2333 I-0.397 J0.0
G2 Y54.3188 Z-10.2667 I0.1985 J0.3438
G2 X432.197 Y53.975 Z-10.3 I0.1985 J-0.3438
G2 X431.6015 Y53.6312 Z-10.3333 I-0.397 J0.0
G2 Y54.3188 Z-10.3667 I0.1985 J0.3438
G2 X432.197 Y53.975 Z-10.4 I0.1985 J-0.3438
G2 X431.6015 Y53.6312 Z-10.4333 I-0.397 J0.0
G2 Y54.3188 Z-10.4667 I0.1985 J0.3438
G2 X432.197 Y53.975 Z-10.5 I0.1985 J-0.3438
G2 X431.6015 Y53.6312 Z-10.5333 I-0.397 J0.0
G2 Y54.3188 Z-10.5667 I0.1985 J0.3438
G2 X432.197 Y53.975 Z-10.6 I0.1985 J-0.3438
G2 X431.6015 Y53.6312 Z-10.6333 I-0.397 J0.0
G2 Y54.3188 Z-10.6667 I0.1985 J0.3438
G2 X432.197 Y53.975 Z-10.7 I0.1985 J-0.3438
G2 X431.6015 Y53.6312 Z-10.7333 I-0.397 J0.0
G2 Y54.3188 Z-10.7667 I0.1985 J0.3438
G2 X432.197 Y53.975 Z-10.8 I0.1985 J-0.3438
G2 X431.6015 Y53.6312 Z-10.8333 I-0.397 J0.0
G2 Y54.3188 Z-10.8667 I0.1985 J0.3438
G2 X432.197 Y53.975 Z-10.9 I0.1985 J-0.3438
G2 X431.6015 Y53.6312 Z-10.9333 I-0.397 J0.0
G2 Y54.3188 Z-10.9667 I0.1985 J0.3438
G2 X432.197 Y53.975 Z-11.0 I0.1985 J-0.3438
G2 X431.6015 Y53.6312 Z-11.0333 I-0.397 J0.0
G2 Y54.3188 Z-11.0667 I0.1985 J0.3438
G2 X432.197 Y53.975 Z-11.1 I0.1985 J-0.3438
G2 X431.6015 Y53.6312 Z-11.1333 I-0.397 J0.0
G2 Y54.3188 Z-11.1667 I0.1985 J0.3438
G2 X432.197 Y53.975 Z-11.2 I0.1985 J-0.3438
G2 X431.6015 Y53.6312 Z-11.2333 I-0.397 J0.0
G2 Y54.3188 Z-11.2667 I0.1985 J0.3438
G2 X432.197 Y53.975 Z-11.3 I0.1985 J-0.3438
G2 X431.6015 Y53.6312 Z-11.3333 I-0.397 J0.0
G2 Y54.3188 Z-11.3667 I0.1985 J0.3438
G2 X432.197 Y53.975 Z-11.4 I0.1985 J-0.3438
G2 X431.6015 Y53.6312 Z-11.4333 I-0.397 J0.0
G2 Y54.3188 Z-11.4667 I0.1985 J0.3438
G2 X432.197 Y53.975 Z-11.5 I0.1985 J-0.3438
G2 X431.6015 Y53.6312 Z-11.5333 I-0.397 J0.0
G2 Y54.3188 Z-11.5667 I0.1985 J0.3438
G2 X432.197 Y53.975 Z-11.6 I0.1985 J-0.3438
G2 X431.6015 Y53.6312 Z-11.6333 I-0.397 J0.0
G2 Y54.3188 Z-11.6667 I0.1985 J0.3438
G2 X432.197 Y53.975 Z-11.7 I0.1985 J-0.3438
G2 X431.6015 Y53.6312 Z-11.7333 I-0.397 J0.0
G2 Y54.3188 Z-11.7667 I0.1985 J0.3438
G2 X432.197 Y53.975 Z-11.8 I0.1985 J-0.3438
G2 X431.6015 Y53.6312 Z-11.8333 I-0.397 J0.0
G2 Y54.3188 Z-11.8667 I0.1985 J0.3438
G2 X432.197 Y53.975 Z-11.9 I0.1985 J-0.3438
G2 X431.6015 Y53.6312 Z-11.9333 I-0.397 J0.0
G2 Y54.3188 Z-11.9667 I0.1985 J0.3438
G2 X432.197 Y53.975 Z-12.0 I0.1985 J-0.3438
G2 X431.6015 Y53.6312 Z-12.0333 I-0.397 J0.0
G2 Y54.3188 Z-12.0667 I0.1985 J0.3438
G2 X432.197 Y53.975 Z-12.1 I0.1985 J-0.3438
G2 X431.6015 Y53.6312 Z-12.1333 I-0.397 J0.0
G2 Y54.3188 Z-12.1667 I0.1985 J0.3438
G2 X432.197 Y53.975 Z-12.2 I0.1985 J-0.3438
G2 X431.6015 Y53.6312 Z-12.2333 I-0.397 J0.0
G2 Y54.3188 Z-12.2667 I0.1985 J0.3438
G2 X432.197 Y53.975 Z-12.3 I0.1985 J-0.3438
G2 X431.6015 Y53.6312 Z-12.3333 I-0.397 J0.0
G2 Y54.3188 Z-12.3667 I0.1985 J0.3438
G2 X432.197 Y53.975 Z-12.4 I0.1985 J-0.3438
G2 X431.6015 Y53.6312 Z-12.4333 I-0.397 J0.0
G2 Y54.3188 Z-12.4667 I0.1985 J0.3438
G2 X432.197 Y53.975 Z-12.5 I0.1985 J-0.3438
G2 X431.6015 Y53.6312 Z-12.5333 I-0.397 J0.0
G2 Y54.3188 Z-12.5667 I0.1985 J0.3438
G2 X432.197 Y53.975 Z-12.6 I0.1985 J-0.3438
G2 X431.6015 Y53.6312 Z-12.6333 I-0.397 J0.0
G2 Y54.3188 Z-12.6667 I0.1985 J0.3438
G2 X432.197 Y53.975 Z-12.7 I0.1985 J-0.3438
G2 X431.6015 Y53.6312 Z-12.7333 I-0.397 J0.0
G2 Y54.3188 Z-12.7667 I0.1985 J0.3438
G2 X432.197 Y53.975 Z-12.8 I0.1985 J-0.3438
G2 X431.6015 Y53.6312 Z-12.8333 I-0.397 J0.0
G2 Y54.3188 Z-12.8667 I0.1985 J0.3438
G2 X432.197 Y53.975 Z-12.9 I0.1985 J-0.3438
G2 X431.6015 Y53.6312 Z-12.9333 I-0.397 J0.0
G2 Y54.3188 Z-12.9667 I0.1985 J0.3438
G2 X432.197 Y53.975 Z-13.0 I0.1985 J-0.3438
G2 X431.6015 Y53.6312 Z-13.0333 I-0.397 J0.0
G2 Y54.3188 Z-13.0667 I0.1985 J0.3438
G2 X432.197 Y53.975 Z-13.1 I0.1985 J-0.3438
G2 X431.6015 Y53.6312 Z-13.1333 I-0.397 J0.0
G2 Y54.3188 Z-13.1667 I0.1985 J0.3438
G2 X432.197 Y53.975 Z-13.2 I0.1985 J-0.3438
G2 X431.6015 Y53.6312 Z-13.2333 I-0.397 J0.0
G2 Y54.3188 Z-13.2667 I0.1985 J0.3438
G2 X432.197 Y53.975 Z-13.3 I0.1985 J-0.3438
G2 X431.6015 Y53.6312 Z-13.3333 I-0.397 J0.0
G2 Y54.3188 Z-13.3667 I0.1985 J0.3438
G2 X432.197 Y53.975 Z-13.4 I0.1985 J-0.3438
G2 X431.6015 Y53.6312 Z-13.4333 I-0.397 J0.0
G2 Y54.3188 Z-13.4667 I0.1985 J0.3438
G2 X432.197 Y53.975 Z-13.5 I0.1985 J-0.3438
G2 X431.6015 Y53.6312 Z-13.5333 I-0.397 J0.0
G2 Y54.3188 Z-13.5667 I0.1985 J0.3438
G2 X432.197 Y53.975 Z-13.6 I0.1985 J-0.3438
G2 X431.6015 Y53.6312 Z-13.6333 I-0.397 J0.0
G2 Y54.3188 Z-13.6667 I0.1985 J0.3438
G2 X432.197 Y53.975 Z-13.7 I0.1985 J-0.3438
G2 X431.6015 Y53.6312 Z-13.7333 I-0.397 J0.0
G2 Y54.3188 Z-13.7667 I0.1985 J0.3438
G2 X432.197 Y53.975 Z-13.8 I0.1985 J-0.3438
G2 X431.6015 Y53.6312 Z-13.8333 I-0.397 J0.0
G2 Y54.3188 Z-13.8667 I0.1985 J0.3438
G2 X432.197 Y53.975 Z-13.9 I0.1985 J-0.3438
G2 X431.6015 Y53.6312 Z-13.9333 I-0.397 J0.0
G2 Y54.3188 Z-13.9667 I0.1985 J0.3438
G2 X432.197 Y53.975 Z-14.0 I0.1985 J-0.3438
G2 X431.6015 Y53.6312 Z-14.0333 I-0.397 J0.0
G2 Y54.3188 Z-14.0667 I0.1985 J0.3438
G2 X432.197 Y53.975 Z-14.1 I0.1985 J-0.3438
G2 X431.6015 Y53.6312 Z-14.1333 I-0.397 J0.0
G2 Y54.3188 Z-14.1667 I0.1985 J0.3438
G2 X432.197 Y53.975 Z-14.2 I0.1985 J-0.3438
G2 X431.6015 Y53.6312 Z-14.2333 I-0.397 J0.0
G2 Y54.3188 Z-14.2667 I0.1985 J0.3438
G2 X432.197 Y53.975 Z-14.3 I0.1985 J-0.3438
G2 X431.6015 Y53.6312 Z-14.3333 I-0.397 J0.0
G2 Y54.3188 Z-14.3667 I0.1985 J0.3438
G2 X432.197 Y53.975 Z-14.4 I0.1985 J-0.3438
G2 X431.6015 Y53.6312 Z-14.4333 I-0.397 J0.0
G2 Y54.3188 Z-14.4667 I0.1985 J0.3438
G2 X432.197 Y53.975 Z-14.5 I0.1985 J-0.3438
G2 X431.6015 Y53.6312 Z-14.5333 I-0.397 J0.0
G2 Y54.3188 Z-14.5667 I0.1985 J0.3438
G2 X432.197 Y53.975 Z-14.6 I0.1985 J-0.3438
G2 X431.6015 Y53.6312 Z-14.6333 I-0.397 J0.0
G2 Y54.3188 Z-14.6667 I0.1985 J0.3438
G2 X432.197 Y53.975 Z-14.7 I0.1985 J-0.3438
G2 X431.6015 Y53.6312 Z-14.7333 I-0.397 J0.0
G2 Y54.3188 Z-14.7667 I0.1985 J0.3438
G2 X432.197 Y53.975 Z-14.8 I0.1985 J-0.3438
G2 X431.6015 Y53.6312 Z-14.8333 I-0.397 J0.0
G2 Y54.3188 Z-14.8667 I0.1985 J0.3438
G2 X432.197 Y53.975 Z-14.9 I0.1985 J-0.3438
G2 X431.6015 Y53.6312 Z-14.9333 I-0.397 J0.0
G2 Y54.3188 Z-14.9667 I0.1985 J0.3438
G2 X432.197 Y53.975 Z-15.0 I0.1985 J-0.3438
G2 X431.6015 Y53.6312 Z-15.0333 I-0.397 J0.0
G2 Y54.3188 Z-15.0667 I0.1985 J0.3438
G2 X432.197 Y53.975 Z-15.1 I0.1985 J-0.3438
G2 X431.6015 Y53.6312 Z-15.1333 I-0.397 J0.0
G2 Y54.3188 Z-15.1667 I0.1985 J0.3438
G2 X432.197 Y53.975 Z-15.2 I0.1985 J-0.3438
G2 X431.6015 Y53.6312 Z-15.2333 I-0.397 J0.0
G2 Y54.3188 Z-15.2667 I0.1985 J0.3438
G2 X432.197 Y53.975 Z-15.3 I0.1985 J-0.3438
G2 X431.6015 Y53.6312 Z-15.3333 I-0.397 J0.0
G2 Y54.3188 Z-15.3667 I0.1985 J0.3438
G2 X432.197 Y53.975 Z-15.4 I0.1985 J-0.3438
G2 X431.6015 Y53.6312 Z-15.4333 I-0.397 J0.0
G2 Y54.3188 Z-15.4667 I0.1985 J0.3438
G2 X432.197 Y53.975 Z-15.5 I0.1985 J-0.3438
G2 X431.6015 Y53.6312 Z-15.5333 I-0.397 J0.0
G2 Y54.3188 Z-15.5667 I0.1985 J0.3438
G2 X432.197 Y53.975 Z-15.6 I0.1985 J-0.3438
G2 X431.6015 Y53.6312 Z-15.6333 I-0.397 J0.0
G2 Y54.3188 Z-15.6667 I0.1985 J0.3438
G2 X432.197 Y53.975 Z-15.7 I0.1985 J-0.3438
G2 X431.6015 Y53.6312 Z-15.7333 I-0.397 J0.0
G2 Y54.3188 Z-15.7667 I0.1985 J0.3438
G2 X432.197 Y53.975 Z-15.8 I0.1985 J-0.3438
G2 X431.6015 Y53.6312 Z-15.8333 I-0.397 J0.0
G2 Y54.3188 Z-15.8667 I0.1985 J0.3438
G2 X432.197 Y53.975 Z-15.9 I0.1985 J-0.3438
G2 X431.6015 Y53.6312 Z-15.9333 I-0.397 J0.0
G2 Y54.3188 Z-15.9667 I0.1985 J0.3438
G2 X432.197 Y53.975 Z-16.0 I0.1985 J-0.3438
G2 X431.6015 Y53.6312 Z-16.0333 I-0.397 J0.0
G2 Y54.3188 Z-16.0667 I0.1985 J0.3438
G2 X432.197 Y53.975 Z-16.1 I0.1985 J-0.3438
G2 X431.6015 Y53.6312 Z-16.1333 I-0.397 J0.0
G2 Y54.3188 Z-16.1667 I0.1985 J0.3438
G2 X432.197 Y53.975 Z-16.2 I0.1985 J-0.3438
G2 X431.6015 Y53.6312 Z-16.2333 I-0.397 J0.0
G2 Y54.3188 Z-16.2667 I0.1985 J0.3438
G2 X432.197 Y53.975 Z-16.3 I0.1985 J-0.3438
G2 X431.6015 Y53.6312 Z-16.3333 I-0.397 J0.0
G2 Y54.3188 Z-16.3667 I0.1985 J0.3438
G2 X432.197 Y53.975 Z-16.4 I0.1985 J-0.3438
G2 X431.6015 Y53.6312 Z-16.4333 I-0.397 J0.0
G2 Y54.3188 Z-16.4667 I0.1985 J0.3438
G2 X432.197 Y53.975 Z-16.5 I0.1985 J-0.3438
G2 X431.6015 Y53.6312 Z-16.5333 I-0.397 J0.0
G2 Y54.3188 Z-16.5667 I0.1985 J0.3438
G2 X432.197 Y53.975 Z-16.6 I0.1985 J-0.3438
G2 X431.6015 Y53.6312 Z-16.6333 I-0.397 J0.0
G2 Y54.3188 Z-16.6667 I0.1985 J0.3438
G2 X432.197 Y53.975 Z-16.7 I0.1985 J-0.3438
G2 X431.6015 Y53.6312 Z-16.7333 I-0.397 J0.0
G2 Y54.3188 Z-16.7667 I0.1985 J0.3438
G2 X432.197 Y53.975 Z-16.8 I0.1985 J-0.3438
G2 X431.6015 Y53.6312 Z-16.8333 I-0.397 J0.0
G2 Y54.3188 Z-16.8667 I0.1985 J0.3438
G2 X432.197 Y53.975 Z-16.9 I0.1985 J-0.3438
G2 X431.6015 Y53.6312 Z-16.9333 I-0.397 J0.0
G2 Y54.3188 Z-16.9667 I0.1985 J0.3438
G2 X432.197 Y53.975 Z-17.0 I0.1985 J-0.3438
G2 X431.6015 Y53.6312 Z-17.0333 I-0.397 J0.0
G2 Y54.3188 Z-17.0667 I0.1985 J0.3438
G2 X432.197 Y53.975 Z-17.1 I0.1985 J-0.3438
G2 X431.6015 Y53.6312 Z-17.1333 I-0.397 J0.0
G2 Y54.3188 Z-17.1667 I0.1985 J0.3438
G2 X432.197 Y53.975 Z-17.2 I0.1985 J-0.3438
G2 X431.6015 Y53.6312 Z-17.2333 I-0.397 J0.0
G2 Y54.3188 Z-17.2667 I0.1985 J0.3438
G2 X432.197 Y53.975 Z-17.3 I0.1985 J-0.3438
G2 X431.6015 Y53.6312 Z-17.3333 I-0.397 J0.0
G2 Y54.3188 Z-17.3667 I0.1985 J0.3438
G2 X432.197 Y53.975 Z-17.4 I0.1985 J-0.3438
G2 X431.6015 Y53.6312 Z-17.4333 I-0.397 J0.0
G2 Y54.3188 Z-17.4667 I0.1985 J0.3438
G2 X432.197 Y53.975 Z-17.5 I0.1985 J-0.3438
G2 X431.6015 Y53.6312 Z-17.5333 I-0.397 J0.0
G2 Y54.3188 Z-17.5667 I0.1985 J0.3438
G2 X432.197 Y53.975 Z-17.6 I0.1985 J-0.3438
G2 X431.6015 Y53.6312 Z-17.6333 I-0.397 J0.0
G2 Y54.3188 Z-17.6667 I0.1985 J0.3438
G2 X432.197 Y53.975 Z-17.7 I0.1985 J-0.3438
G2 X431.6015 Y53.6312 Z-17.7333 I-0.397 J0.0
G2 Y54.3188 Z-17.7667 I0.1985 J0.3438
G2 X432.197 Y53.975 Z-17.8 I0.1985 J-0.3438
G2 X431.6015 Y53.6312 Z-17.8333 I-0.397 J0.0
G2 Y54.3188 Z-17.8667 I0.1985 J0.3438
G2 X432.197 Y53.975 Z-17.9 I0.1985 J-0.3438
G2 X431.6015 Y53.6312 Z-17.9333 I-0.397 J0.0
G2 Y54.3188 Z-17.9667 I0.1985 J0.3438
G2 X432.197 Y53.975 Z-18.0 I0.1985 J-0.3438
G2 X431.6015 Y53.6312 Z-18.0333 I-0.397 J0.0
G2 Y54.3188 Z-18.0667 I0.1985 J0.3438
G2 X432.197 Y53.975 Z-18.1 I0.1985 J-0.3438
G2 X431.6015 Y53.6312 Z-18.1333 I-0.397 J0.0
G2 Y54.3188 Z-18.1667 I0.1985 J0.3438
G2 X432.197 Y53.975 Z-18.2 I0.1985 J-0.3438
G2 X431.6015 Y53.6312 Z-18.2333 I-0.397 J0.0
G2 Y54.3188 Z-18.2667 I0.1985 J0.3438
G2 X432.197 Y53.975 Z-18.3 I0.1985 J-0.3438
G2 X431.6015 Y53.6312 Z-18.3333 I-0.397 J0.0
G2 Y54.3188 Z-18.3667 I0.1985 J0.3438
G2 X432.197 Y53.975 Z-18.4 I0.1985 J-0.3438
G2 X431.6015 Y53.6312 Z-18.4333 I-0.397 J0.0
G2 Y54.3188 Z-18.4667 I0.1985 J0.3438
G2 X432.197 Y53.975 Z-18.5 I0.1985 J-0.3438
G2 X431.6015 Y53.6312 Z-18.5333 I-0.397 J0.0
G2 Y54.3188 Z-18.5667 I0.1985 J0.3438
G2 X432.197 Y53.975 Z-18.6 I0.1985 J-0.3438
G2 X431.6015 Y53.6312 Z-18.6333 I-0.397 J0.0
G2 Y54.3188 Z-18.6667 I0.1985 J0.3438
G2 X432.197 Y53.975 Z-18.7 I0.1985 J-0.3438
G2 X431.6015 Y53.6312 Z-18.7333 I-0.397 J0.0
G2 Y54.3188 Z-18.7667 I0.1985 J0.3438
G2 X432.197 Y53.975 Z-18.8 I0.1985 J-0.3438
G2 X431.6015 Y53.6312 Z-18.8333 I-0.397 J0.0
G2 Y54.3188 Z-18.8667 I0.1985 J0.3438
G2 X432.197 Y53.975 Z-18.9 I0.1985 J-0.3438
G2 X431.6015 Y53.6312 Z-18.9333 I-0.397 J0.0
G2 Y54.3188 Z-18.9667 I0.1985 J0.3438
G2 X432.197 Y53.975 Z-19.0 I0.1985 J-0.3438
G2 X431.6015 Y53.6312 Z-19.0333 I-0.397 J0.0
G2 Y54.3188 Z-19.0667 I0.1985 J0.3438
G2 X432.197 Y53.975 Z-19.1 I0.1985 J-0.3438
G2 X431.6015 Y53.6312 Z-19.1333 I-0.397 J0.0
G2 Y54.3188 Z-19.1667 I0.1985 J0.3438
G2 X432.197 Y53.975 Z-19.2 I0.1985 J-0.3438
G2 X431.6015 Y53.6312 Z-19.2333 I-0.397 J0.0
G2 Y54.3188 Z-19.2667 I0.1985 J0.3438
G2 X432.197 Y53.975 Z-19.3 I0.1985 J-0.3438
G2 X431.6015 Y53.6312 Z-19.3333 I-0.397 J0.0
G2 Y54.3188 Z-19.3667 I0.1985 J0.3438
G2 X432.197 Y53.975 Z-19.4 I0.1985 J-0.3438
G2 X431.6015 Y53.6312 Z-19.4333 I-0.397 J0.0
G2 Y54.3188 Z-19.4667 I0.1985 J0.3438
G2 X432.197 Y53.975 Z-19.5 I0.1985 J-0.3438
G2 X431.6015 Y53.6312 Z-19.5333 I-0.397 J0.0
G2 Y54.3188 Z-19.5667 I0.1985 J0.3438
G2 X432.197 Y53.975 Z-19.6 I0.1985 J-0.3438
G2 X431.6015 Y53.6312 Z-19.6333 I-0.397 J0.0
G2 Y54.3188 Z-19.6667 I0.1985 J0.3438
G2 X432.197 Y53.975 Z-19.7 I0.1985 J-0.3438
G2 X431.6015 Y53.6312 Z-19.7333 I-0.397 J0.0
G2 Y54.3188 Z-19.7667 I0.1985 J0.3438
G2 X432.197 Y53.975 Z-19.8 I0.1985 J-0.3438
G2 X431.6015 Y53.6312 Z-19.8333 I-0.397 J0.0
G2 Y54.3188 Z-19.8667 I0.1985 J0.3438
G2 X432.197 Y53.975 Z-19.9 I0.1985 J-0.3438
G2 X431.6015 Y53.6312 Z-19.9333 I-0.397 J0.0
G2 Y54.3188 Z-19.9667 I0.1985 J0.3438
G2 X432.197 Y53.975 Z-20.0 I0.1985 J-0.3438
G2 X431.6015 Y53.6312 Z-20.0333 I-0.397 J0.0
G2 Y54.3188 Z-20.0667 I0.1985 J0.3438
G2 X432.197 Y53.975 Z-20.1 I0.1985 J-0.3438
G2 X431.6015 Y53.6312 Z-20.1333 I-0.397 J0.0
G2 Y54.3188 Z-20.1667 I0.1985 J0.3438
G2 X432.197 Y53.975 Z-20.2 I0.1985 J-0.3438
G2 X431.6015 Y53.6312 Z-20.2333 I-0.397 J0.0
G2 Y54.3188 Z-20.2667 I0.1985 J0.3438
G2 X432.197 Y53.975 Z-20.3 I0.1985 J-0.3438
G2 X431.6015 Y53.6312 Z-20.3333 I-0.397 J0.0
G2 Y54.3188 Z-20.3667 I0.1985 J0.3438
G2 X432.197 Y53.975 Z-20.4 I0.1985 J-0.3438
G2 X431.6015 Y53.6312 Z-20.4333 I-0.397 J0.0
G2 Y54.3188 Z-20.4667 I0.1985 J0.3438
G2 X432.197 Y53.975 Z-20.5 I0.1985 J-0.3438
G2 X431.6015 Y53.6312 Z-20.5333 I-0.397 J0.0
G2 Y54.3188 Z-20.5667 I0.1985 J0.3438
G2 X432.197 Y53.975 Z-20.6 I0.1985 J-0.3438
G2 X431.6015 Y53.6312 Z-20.6333 I-0.397 J0.0
G2 Y54.3188 Z-20.6667 I0.1985 J0.3438
G2 X432.197 Y53.975 Z-20.7 I0.1985 J-0.3438
G2 X431.6015 Y53.6312 Z-20.7333 I-0.397 J0.0
G2 Y54.3188 Z-20.7667 I0.1985 J0.3438
G2 X432.197 Y53.975 Z-20.8 I0.1985 J-0.3438
G2 X431.6015 Y53.6312 Z-20.8333 I-0.397 J0.0
G2 Y54.3188 Z-20.8667 I0.1985 J0.3438
G2 X432.197 Y53.975 Z-20.9 I0.1985 J-0.3438
G2 X431.6015 Y53.6312 Z-20.9333 I-0.397 J0.0
G2 Y54.3188 Z-20.9667 I0.1985 J0.3438
G2 X432.197 Y53.975 Z-21.0 I0.1985 J-0.3438
G2 X431.6015 Y53.6312 I-0.397 J0.0
G2 Y54.3188 I0.1985 J0.3438
G2 X432.197 Y53.975 I0.1985 J-0.3438
G0 Z3.0
G0 X305.197
G0 Z0.1
G1 F120.0 Z0.0
G2 F3000.0 X304.6015 Y53.6312 Z-0.0333 I-0.397 J0.0
G2 Y54.3188 Z-0.0667 I0.1985 J0.3438
G2 X305.197 Y53.975 Z-0.1 I0.1985 J-0.3438
G2 X304.6015 Y53.6312 Z-0.1333 I-0.397 J0.0
G2 Y54.3188 Z-0.1667 I0.1985 J0.3438
G2 X305.197 Y53.975 Z-0.2 I0.1985 J-0.3438
G2 X304.6015 Y53.6312 Z-0.2333 I-0.397 J0.0
G2 Y54.3188 Z-0.2667 I0.1985 J0.3438
G2 X305.197 Y53.975 Z-0.3 I0.1985 J-0.3438
G2 X304.6015 Y53.6312 Z-0.3333 I-0.397 J0.0
G2 Y54.3188 Z-0.3667 I0.1985 J0.3438
G2 X305.197 Y53.975 Z-0.4 I0.1985 J-0.3438
G2 X304.6015 Y53.6312 Z-0.4333 I-0.397 J0.0
G2 Y54.3188 Z-0.4667 I0.1985 J0.3438
G2 X305.197 Y53.975 Z-0.5 I0.1985 J-0.3438
G2 X304.6015 Y53.6312 Z-0.5333 I-0.397 J0.0
G2 Y54.3188 Z-0.5667 I0.1985 J0.3438
G2 X305.197 Y53.975 Z-0.6 I0.1985 J-0.3438
G2 X304.6015 Y53.6312 Z-0.6333 I-0.397 J0.0
G2 Y54.3188 Z-0.6667 I0.1985 J0.3438
G2 X305.197 Y53.975 Z-0.7 I0.1985 J-0.3438
G2 X304.6015 Y53.6312 Z-0.7333 I-0.397 J0.0
G2 Y54.3188 Z-0.7667 I0.1985 J0.3438
G2 X305.197 Y53.975 Z-0.8 I0.1985 J-0.3438
G2 X304.6015 Y53.6312 Z-0.8333 I-0.397 J0.0
G2 Y54.3188 Z-0.8667 I0.1985 J0.3438
G2 X305.197 Y53.975 Z-0.9 I0.1985 J-0.3438
G2 X304.6015 Y53.6312 Z-0.9333 I-0.397 J0.0
G2 Y54.3188 Z-0.9667 I0.1985 J0.3438
G2 X305.197 Y53.975 Z-1.0 I0.1985 J-0.3438
G2 X304.6015 Y53.6312 Z-1.0333 I-0.397 J0.0
G2 Y54.3188 Z-1.0667 I0.1985 J0.3438
G2 X305.197 Y53.975 Z-1.1 I0.1985 J-0.3438
G2 X304.6015 Y53.6312 Z-1.1333 I-0.397 J0.0
G2 Y54.3188 Z-1.1667 I0.1985 J0.3438
G2 X305.197 Y53.975 Z-1.2 I0.1985 J-0.3438
G2 X304.6015 Y53.6312 Z-1.2333 I-0.397 J0.0
G2 Y54.3188 Z-1.2667 I0.1985 J0.3438
G2 X305.197 Y53.975 Z-1.3 I0.1985 J-0.3438
G2 X304.6015 Y53.6312 Z-1.3333 I-0.397 J0.0
G2 Y54.3188 Z-1.3667 I0.1985 J0.3438
G2 X305.197 Y53.975 Z-1.4 I0.1985 J-0.3438
G2 X304.6015 Y53.6312 Z-1.4333 I-0.397 J0.0
G2 Y54.3188 Z-1.4667 I0.1985 J0.3438
G2 X305.197 Y53.975 Z-1.5 I0.1985 J-0.3438
G2 X304.6015 Y53.6312 Z-1.5333 I-0.397 J0.0
G2 Y54.3188 Z-1.5667 I0.1985 J0.3438
G2 X305.197 Y53.975 Z-1.6 I0.1985 J-0.3438
G2 X304.6015 Y53.6312 Z-1.6333 I-0.397 J0.0
G2 Y54.3188 Z-1.6667 I0.1985 J0.3438
G2 X305.197 Y53.975 Z-1.7 I0.1985 J-0.3438
G2 X304.6015 Y53.6312 Z-1.7333 I-0.397 J0.0
G2 Y54.3188 Z-1.7667 I0.1985 J0.3438
G2 X305.197 Y53.975 Z-1.8 I0.1985 J-0.3438
G2 X304.6015 Y53.6312 Z-1.8333 I-0.397 J0.0
G2 Y54.3188 Z-1.8667 I0.1985 J0.3438
G2 X305.197 Y53.975 Z-1.9 I0.1985 J-0.3438
G2 X304.6015 Y53.6312 Z-1.9333 I-0.397 J0.0
G2 Y54.3188 Z-1.9667 I0.1985 J0.3438
G2 X305.197 Y53.975 Z-2.0 I0.1985 J-0.3438
G2 X304.6015 Y53.6312 Z-2.0333 I-0.397 J0.0
G2 Y54.3188 Z-2.0667 I0.1985 J0.3438
G2 X305.197 Y53.975 Z-2.1 I0.1985 J-0.3438
G2 X304.6015 Y53.6312 Z-2.1333 I-0.397 J0.0
G2 Y54.3188 Z-2.1667 I0.1985 J0.3438
G2 X305.197 Y53.975 Z-2.2 I0.1985 J-0.3438
G2 X304.6015 Y53.6312 Z-2.2333 I-0.397 J0.0
G2 Y54.3188 Z-2.2667 I0.1985 J0.3438
G2 X305.197 Y53.975 Z-2.3 I0.1985 J-0.3438
G2 X304.6015 Y53.6312 Z-2.3333 I-0.397 J0.0
G2 Y54.3188 Z-2.3667 I0.1985 J0.3438
G2 X305.197 Y53.975 Z-2.4 I0.1985 J-0.3438
G2 X304.6015 Y53.6312 Z-2.4333 I-0.397 J0.0
G2 Y54.3188 Z-2.4667 I0.1985 J0.3438
G2 X305.197 Y53.975 Z-2.5 I0.1985 J-0.3438
G2 X304.6015 Y53.6312 Z-2.5333 I-0.397 J0.0
G2 Y54.3188 Z-2.5667 I0.1985 J0.3438
G2 X305.197 Y53.975 Z-2.6 I0.1985 J-0.3438
G2 X304.6015 Y53.6312 Z-2.6333 I-0.397 J0.0
G2 Y54.3188 Z-2.6667 I0.1985 J0.3438
G2 X305.197 Y53.975 Z-2.7 I0.1985 J-0.3438
G2 X304.6015 Y53.6312 Z-2.7333 I-0.397 J0.0
G2 Y54.3188 Z-2.7667 I0.1985 J0.3438
G2 X305.197 Y53.975 Z-2.8 I0.1985 J-0.3438
G2 X304.6015 Y53.6312 Z-2.8333 I-0.397 J0.0
G2 Y54.3188 Z-2.8667 I0.1985 J0.3438
G2 X305.197 Y53.975 Z-2.9 I0.1985 J-0.3438
G2 X304.6015 Y53.6312 Z-2.9333 I-0.397 J0.0
G2 Y54.3188 Z-2.9667 I0.1985 J0.3438
G2 X305.197 Y53.975 Z-3.0 I0.1985 J-0.3438
G2 X304.6015 Y53.6312 Z-3.0333 I-0.397 J0.0
G2 Y54.3188 Z-3.0667 I0.1985 J0.3438
G2 X305.197 Y53.975 Z-3.1 I0.1985 J-0.3438
G2 X304.6015 Y53.6312 Z-3.1333 I-0.397 J0.0
G2 Y54.3188 Z-3.1667 I0.1985 J0.3438
G2 X305.197 Y53.975 Z-3.2 I0.1985 J-0.3438
G2 X304.6015 Y53.6312 Z-3.2333 I-0.397 J0.0
G2 Y54.3188 Z-3.2667 I0.1985 J0.3438
G2 X305.197 Y53.975 Z-3.3 I0.1985 J-0.3438
G2 X304.6015 Y53.6312 Z-3.3333 I-0.397 J0.0
G2 Y54.3188 Z-3.3667 I0.1985 J0.3438
G2 X305.197 Y53.975 Z-3.4 I0.1985 J-0.3438
G2 X304.6015 Y53.6312 Z-3.4333 I-0.397 J0.0
G2 Y54.3188 Z-3.4667 I0.1985 J0.3438
G2 X305.197 Y53.975 Z-3.5 I0.1985 J-0.3438
G2 X304.6015 Y53.6312 Z-3.5333 I-0.397 J0.0
G2 Y54.3188 Z-3.5667 I0.1985 J0.3438
G2 X305.197 Y53.975 Z-3.6 I0.1985 J-0.3438
G2 X304.6015 Y53.6312 Z-3.6333 I-0.397 J0.0
G2 Y54.3188 Z-3.6667 I0.1985 J0.3438
G2 X305.197 Y53.975 Z-3.7 I0.1985 J-0.3438
G2 X304.6015 Y53.6312 Z-3.7333 I-0.397 J0.0
G2 Y54.3188 Z-3.7667 I0.1985 J0.3438
G2 X305.197 Y53.975 Z-3.8 I0.1985 J-0.3438
G2 X304.6015 Y53.6312 Z-3.8333 I-0.397 J0.0
G2 Y54.3188 Z-3.8667 I0.1985 J0.3438
G2 X305.197 Y53.975 Z-3.9 I0.1985 J-0.3438
G2 X304.6015 Y53.6312 Z-3.9333 I-0.397 J0.0
G2 Y54.3188 Z-3.9667 I0.1985 J0.3438
G2 X305.197 Y53.975 Z-4.0 I0.1985 J-0.3438
G2 X304.6015 Y53.6312 Z-4.0333 I-0.397 J0.0
G2 Y54.3188 Z-4.0667 I0.1985 J0.3438
G2 X305.197 Y53.975 Z-4.1 I0.1985 J-0.3438
G2 X304.6015 Y53.6312 Z-4.1333 I-0.397 J0.0
G2 Y54.3188 Z-4.1667 I0.1985 J0.3438
G2 X305.197 Y53.975 Z-4.2 I0.1985 J-0.3438
G2 X304.6015 Y53.6312 Z-4.2333 I-0.397 J0.0
G2 Y54.3188 Z-4.2667 I0.1985 J0.3438
G2 X305.197 Y53.975 Z-4.3 I0.1985 J-0.3438
G2 X304.6015 Y53.6312 Z-4.3333 I-0.397 J0.0
G2 Y54.3188 Z-4.3667 I0.1985 J0.3438
G2 X305.197 Y53.975 Z-4.4 I0.1985 J-0.3438
G2 X304.6015 Y53.6312 Z-4.4333 I-0.397 J0.0
G2 Y54.3188 Z-4.4667 I0.1985 J0.3438
