( Made using CamBam - http://www.cambam.co.uk )
( Hutch_Desktop 11/18/2019 5:16:29 PM )
( T10 : 2.0 )
G21 G90 G91.1 G64 G40
G0 Z12.0
( T10 : 2.0 )
T10 M6
( Drill1 )
G17
M3 S15000
G0 X19.05 Y9.525
G0 Z12.0
G0 X19.447 Y9.525
G0 Z0.1
G1 F120.0 Z0.0
G2 F3000.0 X18.8515 Y9.1812 Z-0.0833 I-0.397 J0.0
G2 Y9.8688 Z-0.1667 I0.1985 J0.3438
G2 X19.447 Y9.525 Z-0.25 I0.1985 J-0.3438
G2 X18.8515 Y9.1812 Z-0.3333 I-0.397 J0.0
G2 Y9.8688 Z-0.4167 I0.1985 J0.3438
G2 X19.447 Y9.525 Z-0.5 I0.1985 J-0.3438
G2 X18.8515 Y9.1812 Z-0.5833 I-0.397 J0.0
G2 Y9.8688 Z-0.6667 I0.1985 J0.3438
G2 X19.447 Y9.525 Z-0.75 I0.1985 J-0.3438
G2 X18.8515 Y9.1812 Z-0.8333 I-0.397 J0.0
G2 Y9.8688 Z-0.9167 I0.1985 J0.3438
G2 X19.447 Y9.525 Z-1.0 I0.1985 J-0.3438
G2 X18.8515 Y9.1812 Z-1.0833 I-0.397 J0.0
G2 Y9.8688 Z-1.1667 I0.1985 J0.3438
G2 X19.447 Y9.525 Z-1.25 I0.1985 J-0.3438
G2 X18.8515 Y9.1812 Z-1.3333 I-0.397 J0.0
G2 Y9.8688 Z-1.4167 I0.1985 J0.3438
G2 X19.447 Y9.525 Z-1.5 I0.1985 J-0.3438
G2 X18.8515 Y9.1812 Z-1.5833 I-0.397 J0.0
G2 Y9.8688 Z-1.6667 I0.1985 J0.3438
G2 X19.447 Y9.525 Z-1.75 I0.1985 J-0.3438
G2 X18.8515 Y9.1812 Z-1.8333 I-0.397 J0.0
G2 Y9.8688 Z-1.9167 I0.1985 J0.3438
G2 X19.447 Y9.525 Z-2.0 I0.1985 J-0.3438
G2 X18.8515 Y9.1812 Z-2.0833 I-0.397 J0.0
G2 Y9.8688 Z-2.1667 I0.1985 J0.3438
G2 X19.447 Y9.525 Z-2.25 I0.1985 J-0.3438
G2 X18.8515 Y9.1812 Z-2.3333 I-0.397 J0.0
G2 Y9.8688 Z-2.4167 I0.1985 J0.3438
G2 X19.447 Y9.525 Z-2.5 I0.1985 J-0.3438
G2 X18.8515 Y9.1812 Z-2.5833 I-0.397 J0.0
G2 Y9.8688 Z-2.6667 I0.1985 J0.3438
G2 X19.447 Y9.525 Z-2.75 I0.1985 J-0.3438
G2 X18.8515 Y9.1812 Z-2.8333 I-0.397 J0.0
G2 Y9.8688 Z-2.9167 I0.1985 J0.3438
G2 X19.447 Y9.525 Z-3.0 I0.1985 J-0.3438
G2 X18.8515 Y9.1812 Z-3.0833 I-0.397 J0.0
G2 Y9.8688 Z-3.1667 I0.1985 J0.3438
G2 X19.447 Y9.525 Z-3.25 I0.1985 J-0.3438
G2 X18.8515 Y9.1812 Z-3.3333 I-0.397 J0.0
G2 Y9.8688 Z-3.4167 I0.1985 J0.3438
G2 X19.447 Y9.525 Z-3.5 I0.1985 J-0.3438
G2 X18.8515 Y9.1812 Z-3.5833 I-0.397 J0.0
G2 Y9.8688 Z-3.6667 I0.1985 J0.3438
G2 X19.447 Y9.525 Z-3.75 I0.1985 J-0.3438
G2 X18.8515 Y9.1812 Z-3.8333 I-0.397 J0.0
G2 Y9.8688 Z-3.9167 I0.1985 J0.3438
G2 X19.447 Y9.525 Z-4.0 I0.1985 J-0.3438
G2 X18.8515 Y9.1812 Z-4.0833 I-0.397 J0.0
G2 Y9.8688 Z-4.1667 I0.1985 J0.3438
G2 X19.447 Y9.525 Z-4.25 I0.1985 J-0.3438
G2 X18.8515 Y9.1812 Z-4.3333 I-0.397 J0.0
G2 Y9.8688 Z-4.4167 I0.1985 J0.3438
G2 X19.447 Y9.525 Z-4.5 I0.1985 J-0.3438
G2 X18.8515 Y9.1812 Z-4.5833 I-0.397 J0.0
G2 Y9.8688 Z-4.6667 I0.1985 J0.3438
G2 X19.447 Y9.525 Z-4.75 I0.1985 J-0.3438
G2 X18.8515 Y9.1812 Z-4.8333 I-0.397 J0.0
G2 Y9.8688 Z-4.9167 I0.1985 J0.3438
G2 X19.447 Y9.525 Z-5.0 I0.1985 J-0.3438
G2 X18.8515 Y9.1812 Z-5.0833 I-0.397 J0.0
G2 Y9.8688 Z-5.1667 I0.1985 J0.3438
G2 X19.447 Y9.525 Z-5.25 I0.1985 J-0.3438
G2 X18.8515 Y9.1812 Z-5.3333 I-0.397 J0.0
G2 Y9.8688 Z-5.4167 I0.1985 J0.3438
G2 X19.447 Y9.525 Z-5.5 I0.1985 J-0.3438
G2 X18.8515 Y9.1812 Z-5.5833 I-0.397 J0.0
G2 Y9.8688 Z-5.6667 I0.1985 J0.3438
G2 X19.447 Y9.525 Z-5.75 I0.1985 J-0.3438
G2 X18.8515 Y9.1812 Z-5.8333 I-0.397 J0.0
G2 Y9.8688 Z-5.9167 I0.1985 J0.3438
G2 X19.447 Y9.525 Z-6.0 I0.1985 J-0.3438
G2 X18.8515 Y9.1812 Z-6.0833 I-0.397 J0.0
G2 Y9.8688 Z-6.1667 I0.1985 J0.3438
G2 X19.447 Y9.525 Z-6.25 I0.1985 J-0.3438
G2 X18.8515 Y9.1812 Z-6.3333 I-0.397 J0.0
G2 Y9.8688 Z-6.4167 I0.1985 J0.3438
G2 X19.447 Y9.525 Z-6.5 I0.1985 J-0.3438
G2 X18.8515 Y9.1812 Z-6.5833 I-0.397 J0.0
G2 Y9.8688 Z-6.6667 I0.1985 J0.3438
G2 X19.447 Y9.525 Z-6.75 I0.1985 J-0.3438
G2 X18.8515 Y9.1812 Z-6.8333 I-0.397 J0.0
G2 Y9.8688 Z-6.9167 I0.1985 J0.3438
G2 X19.447 Y9.525 Z-7.0 I0.1985 J-0.3438
G2 X18.8515 Y9.1812 Z-7.0833 I-0.397 J0.0
G2 Y9.8688 Z-7.1667 I0.1985 J0.3438
G2 X19.447 Y9.525 Z-7.25 I0.1985 J-0.3438
G2 X18.8515 Y9.1812 Z-7.3333 I-0.397 J0.0
G2 Y9.8688 Z-7.4167 I0.1985 J0.3438
G2 X19.447 Y9.525 Z-7.5 I0.1985 J-0.3438
G2 X18.8515 Y9.1812 Z-7.5833 I-0.397 J0.0
G2 Y9.8688 Z-7.6667 I0.1985 J0.3438
G2 X19.447 Y9.525 Z-7.75 I0.1985 J-0.3438
G2 X18.8515 Y9.1812 Z-7.8333 I-0.397 J0.0
G2 Y9.8688 Z-7.9167 I0.1985 J0.3438
G2 X19.447 Y9.525 Z-8.0 I0.1985 J-0.3438
G2 X18.8515 Y9.1812 Z-8.0833 I-0.397 J0.0
G2 Y9.8688 Z-8.1667 I0.1985 J0.3438
G2 X19.447 Y9.525 Z-8.25 I0.1985 J-0.3438
G2 X18.8515 Y9.1812 Z-8.3333 I-0.397 J0.0
G2 Y9.8688 Z-8.4167 I0.1985 J0.3438
G2 X19.447 Y9.525 Z-8.5 I0.1985 J-0.3438
G2 X18.8515 Y9.1812 Z-8.5833 I-0.397 J0.0
G2 Y9.8688 Z-8.6667 I0.1985 J0.3438
G2 X19.447 Y9.525 Z-8.75 I0.1985 J-0.3438
G2 X18.8515 Y9.1812 Z-8.8333 I-0.397 J0.0
G2 Y9.8688 Z-8.9167 I0.1985 J0.3438
G2 X19.447 Y9.525 Z-9.0 I0.1985 J-0.3438
G2 X18.8515 Y9.1812 Z-9.0833 I-0.397 J0.0
G2 Y9.8688 Z-9.1667 I0.1985 J0.3438
G2 X19.447 Y9.525 Z-9.25 I0.1985 J-0.3438
G2 X18.8515 Y9.1812 Z-9.3333 I-0.397 J0.0
G2 Y9.8688 Z-9.4167 I0.1985 J0.3438
G2 X19.447 Y9.525 Z-9.5 I0.1985 J-0.3438
G2 X18.8515 Y9.1812 Z-9.5833 I-0.397 J0.0
G2 Y9.8688 Z-9.6667 I0.1985 J0.3438
G2 X19.447 Y9.525 Z-9.75 I0.1985 J-0.3438
G2 X18.8515 Y9.1812 Z-9.8333 I-0.397 J0.0
G2 Y9.8688 Z-9.9167 I0.1985 J0.3438
G2 X19.447 Y9.525 Z-10.0 I0.1985 J-0.3438
G2 X18.8515 Y9.1812 Z-10.0833 I-0.397 J0.0
G2 Y9.8688 Z-10.1667 I0.1985 J0.3438
G2 X19.447 Y9.525 Z-10.25 I0.1985 J-0.3438
G2 X18.8515 Y9.1812 Z-10.3333 I-0.397 J0.0
G2 Y9.8688 Z-10.4167 I0.1985 J0.3438
G2 X19.447 Y9.525 Z-10.5 I0.1985 J-0.3438
G2 X18.8515 Y9.1812 Z-10.5833 I-0.397 J0.0
G2 Y9.8688 Z-10.6667 I0.1985 J0.3438
G2 X19.447 Y9.525 Z-10.75 I0.1985 J-0.3438
G2 X18.8515 Y9.1812 Z-10.8333 I-0.397 J0.0
G2 Y9.8688 Z-10.9167 I0.1985 J0.3438
G2 X19.447 Y9.525 Z-11.0 I0.1985 J-0.3438
G2 X18.8515 Y9.1812 Z-11.0833 I-0.397 J0.0
G2 Y9.8688 Z-11.1667 I0.1985 J0.3438
G2 X19.447 Y9.525 Z-11.25 I0.1985 J-0.3438
G2 X18.8515 Y9.1812 Z-11.3333 I-0.397 J0.0
G2 Y9.8688 Z-11.4167 I0.1985 J0.3438
G2 X19.447 Y9.525 Z-11.5 I0.1985 J-0.3438
G2 X18.8515 Y9.1812 Z-11.5833 I-0.397 J0.0
G2 Y9.8688 Z-11.6667 I0.1985 J0.3438
G2 X19.447 Y9.525 Z-11.75 I0.1985 J-0.3438
G2 X18.8515 Y9.1812 Z-11.8333 I-0.397 J0.0
G2 Y9.8688 Z-11.9167 I0.1985 J0.3438
G2 X19.447 Y9.525 Z-12.0 I0.1985 J-0.3438
G2 X18.8515 Y9.1812 Z-12.0833 I-0.397 J0.0
G2 Y9.8688 Z-12.1667 I0.1985 J0.3438
G2 X19.447 Y9.525 Z-12.25 I0.1985 J-0.3438
G2 X18.8515 Y9.1812 Z-12.3333 I-0.397 J0.0
G2 Y9.8688 Z-12.4167 I0.1985 J0.3438
G2 X19.447 Y9.525 Z-12.5 I0.1985 J-0.3438
G2 X18.8515 Y9.1812 Z-12.5833 I-0.397 J0.0
G2 Y9.8688 Z-12.6667 I0.1985 J0.3438
G2 X19.447 Y9.525 Z-12.75 I0.1985 J-0.3438
G2 X18.8515 Y9.1812 Z-12.8333 I-0.397 J0.0
G2 Y9.8688 Z-12.9167 I0.1985 J0.3438
G2 X19.447 Y9.525 Z-13.0 I0.1985 J-0.3438
G2 X18.8515 Y9.1812 Z-13.0833 I-0.397 J0.0
G2 Y9.8688 Z-13.1667 I0.1985 J0.3438
G2 X19.447 Y9.525 Z-13.25 I0.1985 J-0.3438
G2 X18.8515 Y9.1812 Z-13.3333 I-0.397 J0.0
G2 Y9.8688 Z-13.4167 I0.1985 J0.3438
G2 X19.447 Y9.525 Z-13.5 I0.1985 J-0.3438
G2 X18.8515 Y9.1812 Z-13.5833 I-0.397 J0.0
G2 Y9.8688 Z-13.6667 I0.1985 J0.3438
G2 X19.447 Y9.525 Z-13.75 I0.1985 J-0.3438
G2 X18.8515 Y9.1812 Z-13.8333 I-0.397 J0.0
G2 Y9.8688 Z-13.9167 I0.1985 J0.3438
G2 X19.447 Y9.525 Z-14.0 I0.1985 J-0.3438
G2 X18.8515 Y9.1812 Z-14.0833 I-0.397 J0.0
G2 Y9.8688 Z-14.1667 I0.1985 J0.3438
G2 X19.447 Y9.525 Z-14.25 I0.1985 J-0.3438
G2 X18.8515 Y9.1812 Z-14.3333 I-0.397 J0.0
G2 Y9.8688 Z-14.4167 I0.1985 J0.3438
G2 X19.447 Y9.525 Z-14.5 I0.1985 J-0.3438
G2 X18.8515 Y9.1812 Z-14.5833 I-0.397 J0.0
G2 Y9.8688 Z-14.6667 I0.1985 J0.3438
G2 X19.447 Y9.525 Z-14.75 I0.1985 J-0.3438
G2 X18.8515 Y9.1812 Z-14.8333 I-0.397 J0.0
G2 Y9.8688 Z-14.9167 I0.1985 J0.3438
G2 X19.447 Y9.525 Z-15.0 I0.1985 J-0.3438
G2 X18.8515 Y9.1812 Z-15.0833 I-0.397 J0.0
G2 Y9.8688 Z-15.1667 I0.1985 J0.3438
G2 X19.447 Y9.525 Z-15.25 I0.1985 J-0.3438
G2 X18.8515 Y9.1812 Z-15.3333 I-0.397 J0.0
G2 Y9.8688 Z-15.4167 I0.1985 J0.3438
G2 X19.447 Y9.525 Z-15.5 I0.1985 J-0.3438
G2 X18.8515 Y9.1812 Z-15.5833 I-0.397 J0.0
G2 Y9.8688 Z-15.6667 I0.1985 J0.3438
G2 X19.447 Y9.525 Z-15.75 I0.1985 J-0.3438
G2 X18.8515 Y9.1812 Z-15.8333 I-0.397 J0.0
G2 Y9.8688 Z-15.9167 I0.1985 J0.3438
G2 X19.447 Y9.525 Z-16.0 I0.1985 J-0.3438
G2 X18.8515 Y9.1812 Z-16.0833 I-0.397 J0.0
G2 Y9.8688 Z-16.1667 I0.1985 J0.3438
G2 X19.447 Y9.525 Z-16.25 I0.1985 J-0.3438
G2 X18.8515 Y9.1812 Z-16.3333 I-0.397 J0.0
G2 Y9.8688 Z-16.4167 I0.1985 J0.3438
G2 X19.447 Y9.525 Z-16.5 I0.1985 J-0.3438
G2 X18.8515 Y9.1812 Z-16.5833 I-0.397 J0.0
G2 Y9.8688 Z-16.6667 I0.1985 J0.3438
G2 X19.447 Y9.525 Z-16.75 I0.1985 J-0.3438
G2 X18.8515 Y9.1812 Z-16.8333 I-0.397 J0.0
G2 Y9.8688 Z-16.9167 I0.1985 J0.3438
G2 X19.447 Y9.525 Z-17.0 I0.1985 J-0.3438
G2 X18.8515 Y9.1812 Z-17.0833 I-0.397 J0.0
G2 Y9.8688 Z-17.1667 I0.1985 J0.3438
G2 X19.447 Y9.525 Z-17.25 I0.1985 J-0.3438
G2 X18.8515 Y9.1812 Z-17.3333 I-0.397 J0.0
G2 Y9.8688 Z-17.4167 I0.1985 J0.3438
G2 X19.447 Y9.525 Z-17.5 I0.1985 J-0.3438
G2 X18.8515 Y9.1812 Z-17.5833 I-0.397 J0.0
G2 Y9.8688 Z-17.6667 I0.1985 J0.3438
G2 X19.447 Y9.525 Z-17.75 I0.1985 J-0.3438
G2 X18.8515 Y9.1812 Z-17.8333 I-0.397 J0.0
G2 Y9.8688 Z-17.9167 I0.1985 J0.3438
G2 X19.447 Y9.525 Z-18.0 I0.1985 J-0.3438
G2 X18.8515 Y9.1812 Z-18.0833 I-0.397 J0.0
G2 Y9.8688 Z-18.1667 I0.1985 J0.3438
G2 X19.447 Y9.525 Z-18.25 I0.1985 J-0.3438
G2 X18.8515 Y9.1812 Z-18.3333 I-0.397 J0.0
G2 Y9.8688 Z-18.4167 I0.1985 J0.3438
G2 X19.447 Y9.525 Z-18.5 I0.1985 J-0.3438
G2 X18.8515 Y9.1812 Z-18.5833 I-0.397 J0.0
G2 Y9.8688 Z-18.6667 I0.1985 J0.3438
G2 X19.447 Y9.525 Z-18.75 I0.1985 J-0.3438
G2 X18.8515 Y9.1812 Z-18.8333 I-0.397 J0.0
G2 Y9.8688 Z-18.9167 I0.1985 J0.3438
G2 X19.447 Y9.525 Z-19.0 I0.1985 J-0.3438
G2 X18.8515 Y9.1812 Z-19.0833 I-0.397 J0.0
G2 Y9.8688 Z-19.1667 I0.1985 J0.3438
G2 X19.447 Y9.525 Z-19.25 I0.1985 J-0.3438
G2 X18.8515 Y9.1812 Z-19.3333 I-0.397 J0.0
G2 Y9.8688 Z-19.4167 I0.1985 J0.3438
G2 X19.447 Y9.525 Z-19.5 I0.1985 J-0.3438
G2 X18.8515 Y9.1812 Z-19.5833 I-0.397 J0.0
G2 Y9.8688 Z-19.6667 I0.1985 J0.3438
G2 X19.447 Y9.525 Z-19.75 I0.1985 J-0.3438
G2 X18.8515 Y9.1812 Z-19.8333 I-0.397 J0.0
G2 Y9.8688 Z-19.9167 I0.1985 J0.3438
G2 X19.447 Y9.525 Z-20.0 I0.1985 J-0.3438
G2 X18.8515 Y9.1812 Z-20.0833 I-0.397 J0.0
G2 Y9.8688 Z-20.1667 I0.1985 J0.3438
G2 X19.447 Y9.525 Z-20.25 I0.1985 J-0.3438
G2 X18.8515 Y9.1812 Z-20.3333 I-0.397 J0.0
G2 Y9.8688 Z-20.4167 I0.1985 J0.3438
G2 X19.447 Y9.525 Z-20.5 I0.1985 J-0.3438
G2 X18.8515 Y9.1812 Z-20.5833 I-0.397 J0.0
G2 Y9.8688 Z-20.6667 I0.1985 J0.3438
G2 X19.447 Y9.525 Z-20.75 I0.1985 J-0.3438
G2 X18.8515 Y9.1812 Z-20.8333 I-0.397 J0.0
G2 Y9.8688 Z-20.9167 I0.1985 J0.3438
G2 X19.447 Y9.525 Z-21.0 I0.1985 J-0.3438
G2 X18.8515 Y9.1812 I-0.397 J0.0
G2 Y9.8688 I0.1985 J0.3438
G2 X19.447 Y9.525 I0.1985 J-0.3438
G0 Z12.0
G0 X213.122
G0 Z0.1
G1 F120.0 Z0.0
G2 F3000.0 X212.5265 Y9.1812 Z-0.0833 I-0.397 J0.0
G2 Y9.8688 Z-0.1667 I0.1985 J0.3438
G2 X213.122 Y9.525 Z-0.25 I0.1985 J-0.3438
G2 X212.5265 Y9.1812 Z-0.3333 I-0.397 J0.0
G2 Y9.8688 Z-0.4167 I0.1985 J0.3438
G2 X213.122 Y9.525 Z-0.5 I0.1985 J-0.3438
G2 X212.5265 Y9.1812 Z-0.5833 I-0.397 J0.0
G2 Y9.8688 Z-0.6667 I0.1985 J0.3438
G2 X213.122 Y9.525 Z-0.75 I0.1985 J-0.3438
G2 X212.5265 Y9.1812 Z-0.8333 I-0.397 J0.0
G2 Y9.8688 Z-0.9167 I0.1985 J0.3438
G2 X213.122 Y9.525 Z-1.0 I0.1985 J-0.3438
G2 X212.5265 Y9.1812 Z-1.0833 I-0.397 J0.0
G2 Y9.8688 Z-1.1667 I0.1985 J0.3438
G2 X213.122 Y9.525 Z-1.25 I0.1985 J-0.3438
G2 X212.5265 Y9.1812 Z-1.3333 I-0.397 J0.0
G2 Y9.8688 Z-1.4167 I0.1985 J0.3438
G2 X213.122 Y9.525 Z-1.5 I0.1985 J-0.3438
G2 X212.5265 Y9.1812 Z-1.5833 I-0.397 J0.0
G2 Y9.8688 Z-1.6667 I0.1985 J0.3438
G2 X213.122 Y9.525 Z-1.75 I0.1985 J-0.3438
G2 X212.5265 Y9.1812 Z-1.8333 I-0.397 J0.0
G2 Y9.8688 Z-1.9167 I0.1985 J0.3438
G2 X213.122 Y9.525 Z-2.0 I0.1985 J-0.3438
G2 X212.5265 Y9.1812 Z-2.0833 I-0.397 J0.0
G2 Y9.8688 Z-2.1667 I0.1985 J0.3438
G2 X213.122 Y9.525 Z-2.25 I0.1985 J-0.3438
G2 X212.5265 Y9.1812 Z-2.3333 I-0.397 J0.0
G2 Y9.8688 Z-2.4167 I0.1985 J0.3438
G2 X213.122 Y9.525 Z-2.5 I0.1985 J-0.3438
G2 X212.5265 Y9.1812 Z-2.5833 I-0.397 J0.0
G2 Y9.8688 Z-2.6667 I0.1985 J0.3438
G2 X213.122 Y9.525 Z-2.75 I0.1985 J-0.3438
G2 X212.5265 Y9.1812 Z-2.8333 I-0.397 J0.0
G2 Y9.8688 Z-2.9167 I0.1985 J0.3438
G2 X213.122 Y9.525 Z-3.0 I0.1985 J-0.3438
G2 X212.5265 Y9.1812 Z-3.0833 I-0.397 J0.0
G2 Y9.8688 Z-3.1667 I0.1985 J0.3438
G2 X213.122 Y9.525 Z-3.25 I0.1985 J-0.3438
G2 X212.5265 Y9.1812 Z-3.3333 I-0.397 J0.0
G2 Y9.8688 Z-3.4167 I0.1985 J0.3438
G2 X213.122 Y9.525 Z-3.5 I0.1985 J-0.3438
G2 X212.5265 Y9.1812 Z-3.5833 I-0.397 J0.0
G2 Y9.8688 Z-3.6667 I0.1985 J0.3438
G2 X213.122 Y9.525 Z-3.75 I0.1985 J-0.3438
G2 X212.5265 Y9.1812 Z-3.8333 I-0.397 J0.0
G2 Y9.8688 Z-3.9167 I0.1985 J0.3438
G2 X213.122 Y9.525 Z-4.0 I0.1985 J-0.3438
G2 X212.5265 Y9.1812 Z-4.0833 I-0.397 J0.0
G2 Y9.8688 Z-4.1667 I0.1985 J0.3438
G2 X213.122 Y9.525 Z-4.25 I0.1985 J-0.3438
G2 X212.5265 Y9.1812 Z-4.3333 I-0.397 J0.0
G2 Y9.8688 Z-4.4167 I0.1985 J0.3438
G2 X213.122 Y9.525 Z-4.5 I0.1985 J-0.3438
G2 X212.5265 Y9.1812 Z-4.5833 I-0.397 J0.0
G2 Y9.8688 Z-4.6667 I0.1985 J0.3438
G2 X213.122 Y9.525 Z-4.75 I0.1985 J-0.3438
G2 X212.5265 Y9.1812 Z-4.8333 I-0.397 J0.0
G2 Y9.8688 Z-4.9167 I0.1985 J0.3438
G2 X213.122 Y9.525 Z-5.0 I0.1985 J-0.3438
G2 X212.5265 Y9.1812 Z-5.0833 I-0.397 J0.0
G2 Y9.8688 Z-5.1667 I0.1985 J0.3438
G2 X213.122 Y9.525 Z-5.25 I0.1985 J-0.3438
G2 X212.5265 Y9.1812 Z-5.3333 I-0.397 J0.0
G2 Y9.8688 Z-5.4167 I0.1985 J0.3438
G2 X213.122 Y9.525 Z-5.5 I0.1985 J-0.3438
G2 X212.5265 Y9.1812 Z-5.5833 I-0.397 J0.0
G2 Y9.8688 Z-5.6667 I0.1985 J0.3438
G2 X213.122 Y9.525 Z-5.75 I0.1985 J-0.3438
G2 X212.5265 Y9.1812 Z-5.8333 I-0.397 J0.0
G2 Y9.8688 Z-5.9167 I0.1985 J0.3438
G2 X213.122 Y9.525 Z-6.0 I0.1985 J-0.3438
G2 X212.5265 Y9.1812 Z-6.0833 I-0.397 J0.0
G2 Y9.8688 Z-6.1667 I0.1985 J0.3438
G2 X213.122 Y9.525 Z-6.25 I0.1985 J-0.3438
G2 X212.5265 Y9.1812 Z-6.3333 I-0.397 J0.0
G2 Y9.8688 Z-6.4167 I0.1985 J0.3438
G2 X213.122 Y9.525 Z-6.5 I0.1985 J-0.3438
G2 X212.5265 Y9.1812 Z-6.5833 I-0.397 J0.0
G2 Y9.8688 Z-6.6667 I0.1985 J0.3438
G2 X213.122 Y9.525 Z-6.75 I0.1985 J-0.3438
G2 X212.5265 Y9.1812 Z-6.8333 I-0.397 J0.0
G2 Y9.8688 Z-6.9167 I0.1985 J0.3438
G2 X213.122 Y9.525 Z-7.0 I0.1985 J-0.3438
G2 X212.5265 Y9.1812 Z-7.0833 I-0.397 J0.0
G2 Y9.8688 Z-7.1667 I0.1985 J0.3438
G2 X213.122 Y9.525 Z-7.25 I0.1985 J-0.3438
G2 X212.5265 Y9.1812 Z-7.3333 I-0.397 J0.0
G2 Y9.8688 Z-7.4167 I0.1985 J0.3438
G2 X213.122 Y9.525 Z-7.5 I0.1985 J-0.3438
G2 X212.5265 Y9.1812 Z-7.5833 I-0.397 J0.0
G2 Y9.8688 Z-7.6667 I0.1985 J0.3438
G2 X213.122 Y9.525 Z-7.75 I0.1985 J-0.3438
G2 X212.5265 Y9.1812 Z-7.8333 I-0.397 J0.0
G2 Y9.8688 Z-7.9167 I0.1985 J0.3438
G2 X213.122 Y9.525 Z-8.0 I0.1985 J-0.3438
G2 X212.5265 Y9.1812 Z-8.0833 I-0.397 J0.0
G2 Y9.8688 Z-8.1667 I0.1985 J0.3438
G2 X213.122 Y9.525 Z-8.25 I0.1985 J-0.3438
G2 X212.5265 Y9.1812 Z-8.3333 I-0.397 J0.0
G2 Y9.8688 Z-8.4167 I0.1985 J0.3438
G2 X213.122 Y9.525 Z-8.5 I0.1985 J-0.3438
G2 X212.5265 Y9.1812 Z-8.5833 I-0.397 J0.0
G2 Y9.8688 Z-8.6667 I0.1985 J0.3438
G2 X213.122 Y9.525 Z-8.75 I0.1985 J-0.3438
G2 X212.5265 Y9.1812 Z-8.8333 I-0.397 J0.0
G2 Y9.8688 Z-8.9167 I0.1985 J0.3438
G2 X213.122 Y9.525 Z-9.0 I0.1985 J-0.3438
G2 X212.5265 Y9.1812 Z-9.0833 I-0.397 J0.0
G2 Y9.8688 Z-9.1667 I0.1985 J0.3438
G2 X213.122 Y9.525 Z-9.25 I0.1985 J-0.3438
G2 X212.5265 Y9.1812 Z-9.3333 I-0.397 J0.0
G2 Y9.8688 Z-9.4167 I0.1985 J0.3438
G2 X213.122 Y9.525 Z-9.5 I0.1985 J-0.3438
G2 X212.5265 Y9.1812 Z-9.5833 I-0.397 J0.0
G2 Y9.8688 Z-9.6667 I0.1985 J0.3438
G2 X213.122 Y9.525 Z-9.75 I0.1985 J-0.3438
G2 X212.5265 Y9.1812 Z-9.8333 I-0.397 J0.0
G2 Y9.8688 Z-9.9167 I0.1985 J0.3438
G2 X213.122 Y9.525 Z-10.0 I0.1985 J-0.3438
G2 X212.5265 Y9.1812 Z-10.0833 I-0.397 J0.0
G2 Y9.8688 Z-10.1667 I0.1985 J0.3438
G2 X213.122 Y9.525 Z-10.25 I0.1985 J-0.3438
G2 X212.5265 Y9.1812 Z-10.3333 I-0.397 J0.0
G2 Y9.8688 Z-10.4167 I0.1985 J0.3438
G2 X213.122 Y9.525 Z-10.5 I0.1985 J-0.3438
G2 X212.5265 Y9.1812 Z-10.5833 I-0.397 J0.0
G2 Y9.8688 Z-10.6667 I0.1985 J0.3438
G2 X213.122 Y9.525 Z-10.75 I0.1985 J-0.3438
G2 X212.5265 Y9.1812 Z-10.8333 I-0.397 J0.0
G2 Y9.8688 Z-10.9167 I0.1985 J0.3438
G2 X213.122 Y9.525 Z-11.0 I0.1985 J-0.3438
G2 X212.5265 Y9.1812 Z-11.0833 I-0.397 J0.0
G2 Y9.8688 Z-11.1667 I0.1985 J0.3438
G2 X213.122 Y9.525 Z-11.25 I0.1985 J-0.3438
G2 X212.5265 Y9.1812 Z-11.3333 I-0.397 J0.0
G2 Y9.8688 Z-11.4167 I0.1985 J0.3438
G2 X213.122 Y9.525 Z-11.5 I0.1985 J-0.3438
G2 X212.5265 Y9.1812 Z-11.5833 I-0.397 J0.0
G2 Y9.8688 Z-11.6667 I0.1985 J0.3438
G2 X213.122 Y9.525 Z-11.75 I0.1985 J-0.3438
G2 X212.5265 Y9.1812 Z-11.8333 I-0.397 J0.0
G2 Y9.8688 Z-11.9167 I0.1985 J0.3438
G2 X213.122 Y9.525 Z-12.0 I0.1985 J-0.3438
G2 X212.5265 Y9.1812 Z-12.0833 I-0.397 J0.0
G2 Y9.8688 Z-12.1667 I0.1985 J0.3438
G2 X213.122 Y9.525 Z-12.25 I0.1985 J-0.3438
G2 X212.5265 Y9.1812 Z-12.3333 I-0.397 J0.0
G2 Y9.8688 Z-12.4167 I0.1985 J0.3438
G2 X213.122 Y9.525 Z-12.5 I0.1985 J-0.3438
G2 X212.5265 Y9.1812 Z-12.5833 I-0.397 J0.0
G2 Y9.8688 Z-12.6667 I0.1985 J0.3438
G2 X213.122 Y9.525 Z-12.75 I0.1985 J-0.3438
G2 X212.5265 Y9.1812 Z-12.8333 I-0.397 J0.0
G2 Y9.8688 Z-12.9167 I0.1985 J0.3438
G2 X213.122 Y9.525 Z-13.0 I0.1985 J-0.3438
G2 X212.5265 Y9.1812 Z-13.0833 I-0.397 J0.0
G2 Y9.8688 Z-13.1667 I0.1985 J0.3438
G2 X213.122 Y9.525 Z-13.25 I0.1985 J-0.3438
G2 X212.5265 Y9.1812 Z-13.3333 I-0.397 J0.0
G2 Y9.8688 Z-13.4167 I0.1985 J0.3438
G2 X213.122 Y9.525 Z-13.5 I0.1985 J-0.3438
G2 X212.5265 Y9.1812 Z-13.5833 I-0.397 J0.0
G2 Y9.8688 Z-13.6667 I0.1985 J0.3438
G2 X213.122 Y9.525 Z-13.75 I0.1985 J-0.3438
G2 X212.5265 Y9.1812 Z-13.8333 I-0.397 J0.0
G2 Y9.8688 Z-13.9167 I0.1985 J0.3438
G2 X213.122 Y9.525 Z-14.0 I0.1985 J-0.3438
G2 X212.5265 Y9.1812 Z-14.0833 I-0.397 J0.0
G2 Y9.8688 Z-14.1667 I0.1985 J0.3438
G2 X213.122 Y9.525 Z-14.25 I0.1985 J-0.3438
G2 X212.5265 Y9.1812 Z-14.3333 I-0.397 J0.0
G2 Y9.8688 Z-14.4167 I0.1985 J0.3438
G2 X213.122 Y9.525 Z-14.5 I0.1985 J-0.3438
G2 X212.5265 Y9.1812 Z-14.5833 I-0.397 J0.0
G2 Y9.8688 Z-14.6667 I0.1985 J0.3438
G2 X213.122 Y9.525 Z-14.75 I0.1985 J-0.3438
G2 X212.5265 Y9.1812 Z-14.8333 I-0.397 J0.0
G2 Y9.8688 Z-14.9167 I0.1985 J0.3438
G2 X213.122 Y9.525 Z-15.0 I0.1985 J-0.3438
G2 X212.5265 Y9.1812 Z-15.0833 I-0.397 J0.0
G2 Y9.8688 Z-15.1667 I0.1985 J0.3438
G2 X213.122 Y9.525 Z-15.25 I0.1985 J-0.3438
G2 X212.5265 Y9.1812 Z-15.3333 I-0.397 J0.0
G2 Y9.8688 Z-15.4167 I0.1985 J0.3438
G2 X213.122 Y9.525 Z-15.5 I0.1985 J-0.3438
G2 X212.5265 Y9.1812 Z-15.5833 I-0.397 J0.0
G2 Y9.8688 Z-15.6667 I0.1985 J0.3438
G2 X213.122 Y9.525 Z-15.75 I0.1985 J-0.3438
G2 X212.5265 Y9.1812 Z-15.8333 I-0.397 J0.0
G2 Y9.8688 Z-15.9167 I0.1985 J0.3438
G2 X213.122 Y9.525 Z-16.0 I0.1985 J-0.3438
G2 X212.5265 Y9.1812 Z-16.0833 I-0.397 J0.0
G2 Y9.8688 Z-16.1667 I0.1985 J0.3438
G2 X213.122 Y9.525 Z-16.25 I0.1985 J-0.3438
G2 X212.5265 Y9.1812 Z-16.3333 I-0.397 J0.0
G2 Y9.8688 Z-16.4167 I0.1985 J0.3438
G2 X213.122 Y9.525 Z-16.5 I0.1985 J-0.3438
G2 X212.5265 Y9.1812 Z-16.5833 I-0.397 J0.0
G2 Y9.8688 Z-16.6667 I0.1985 J0.3438
G2 X213.122 Y9.525 Z-16.75 I0.1985 J-0.3438
G2 X212.5265 Y9.1812 Z-16.8333 I-0.397 J0.0
G2 Y9.8688 Z-16.9167 I0.1985 J0.3438
G2 X213.122 Y9.525 Z-17.0 I0.1985 J-0.3438
G2 X212.5265 Y9.1812 Z-17.0833 I-0.397 J0.0
G2 Y9.8688 Z-17.1667 I0.1985 J0.3438
G2 X213.122 Y9.525 Z-17.25 I0.1985 J-0.3438
G2 X212.5265 Y9.1812 Z-17.3333 I-0.397 J0.0
G2 Y9.8688 Z-17.4167 I0.1985 J0.3438
G2 X213.122 Y9.525 Z-17.5 I0.1985 J-0.3438
G2 X212.5265 Y9.1812 Z-17.5833 I-0.397 J0.0
G2 Y9.8688 Z-17.6667 I0.1985 J0.3438
G2 X213.122 Y9.525 Z-17.75 I0.1985 J-0.3438
G2 X212.5265 Y9.1812 Z-17.8333 I-0.397 J0.0
G2 Y9.8688 Z-17.9167 I0.1985 J0.3438
G2 X213.122 Y9.525 Z-18.0 I0.1985 J-0.3438
G2 X212.5265 Y9.1812 Z-18.0833 I-0.397 J0.0
G2 Y9.8688 Z-18.1667 I0.1985 J0.3438
G2 X213.122 Y9.525 Z-18.25 I0.1985 J-0.3438
G2 X212.5265 Y9.1812 Z-18.3333 I-0.397 J0.0
G2 Y9.8688 Z-18.4167 I0.1985 J0.3438
G2 X213.122 Y9.525 Z-18.5 I0.1985 J-0.3438
G2 X212.5265 Y9.1812 Z-18.5833 I-0.397 J0.0
G2 Y9.8688 Z-18.6667 I0.1985 J0.3438
G2 X213.122 Y9.525 Z-18.75 I0.1985 J-0.3438
G2 X212.5265 Y9.1812 Z-18.8333 I-0.397 J0.0
G2 Y9.8688 Z-18.9167 I0.1985 J0.3438
G2 X213.122 Y9.525 Z-19.0 I0.1985 J-0.3438
G2 X212.5265 Y9.1812 Z-19.0833 I-0.397 J0.0
G2 Y9.8688 Z-19.1667 I0.1985 J0.3438
G2 X213.122 Y9.525 Z-19.25 I0.1985 J-0.3438
G2 X212.5265 Y9.1812 Z-19.3333 I-0.397 J0.0
G2 Y9.8688 Z-19.4167 I0.1985 J0.3438
G2 X213.122 Y9.525 Z-19.5 I0.1985 J-0.3438
G2 X212.5265 Y9.1812 Z-19.5833 I-0.397 J0.0
G2 Y9.8688 Z-19.6667 I0.1985 J0.3438
G2 X213.122 Y9.525 Z-19.75 I0.1985 J-0.3438
G2 X212.5265 Y9.1812 Z-19.8333 I-0.397 J0.0
G2 Y9.8688 Z-19.9167 I0.1985 J0.3438
G2 X213.122 Y9.525 Z-20.0 I0.1985 J-0.3438
G2 X212.5265 Y9.1812 Z-20.0833 I-0.397 J0.0
G2 Y9.8688 Z-20.1667 I0.1985 J0.3438
G2 X213.122 Y9.525 Z-20.25 I0.1985 J-0.3438
G2 X212.5265 Y9.1812 Z-20.3333 I-0.397 J0.0
G2 Y9.8688 Z-20.4167 I0.1985 J0.3438
G2 X213.122 Y9.525 Z-20.5 I0.1985 J-0.3438
G2 X212.5265 Y9.1812 Z-20.5833 I-0.397 J0.0
G2 Y9.8688 Z-20.6667 I0.1985 J0.3438
G2 X213.122 Y9.525 Z-20.75 I0.1985 J-0.3438
G2 X212.5265 Y9.1812 Z-20.8333 I-0.397 J0.0
G2 Y9.8688 Z-20.9167 I0.1985 J0.3438
G2 X213.122 Y9.525 Z-21.0 I0.1985 J-0.3438
G2 X212.5265 Y9.1812 I-0.397 J0.0
G2 Y9.8688 I0.1985 J0.3438
G2 X213.122 Y9.525 I0.1985 J-0.3438
G0 Z12.0
G0 X406.797
G0 Z0.1
G1 F120.0 Z0.0
G2 F3000.0 X406.2015 Y9.1812 Z-0.0833 I-0.397 J0.0
G2 Y9.8688 Z-0.1667 I0.1985 J0.3438
G2 X406.797 Y9.525 Z-0.25 I0.1985 J-0.3438
G2 X406.2015 Y9.1812 Z-0.3333 I-0.397 J0.0
G2 Y9.8688 Z-0.4167 I0.1985 J0.3438
G2 X406.797 Y9.525 Z-0.5 I0.1985 J-0.3438
G2 X406.2015 Y9.1812 Z-0.5833 I-0.397 J0.0
G2 Y9.8688 Z-0.6667 I0.1985 J0.3438
G2 X406.797 Y9.525 Z-0.75 I0.1985 J-0.3438
G2 X406.2015 Y9.1812 Z-0.8333 I-0.397 J0.0
G2 Y9.8688 Z-0.9167 I0.1985 J0.3438
G2 X406.797 Y9.525 Z-1.0 I0.1985 J-0.3438
G2 X406.2015 Y9.1812 Z-1.0833 I-0.397 J0.0
G2 Y9.8688 Z-1.1667 I0.1985 J0.3438
G2 X406.797 Y9.525 Z-1.25 I0.1985 J-0.3438
G2 X406.2015 Y9.1812 Z-1.3333 I-0.397 J0.0
G2 Y9.8688 Z-1.4167 I0.1985 J0.3438
G2 X406.797 Y9.525 Z-1.5 I0.1985 J-0.3438
G2 X406.2015 Y9.1812 Z-1.5833 I-0.397 J0.0
G2 Y9.8688 Z-1.6667 I0.1985 J0.3438
G2 X406.797 Y9.525 Z-1.75 I0.1985 J-0.3438
G2 X406.2015 Y9.1812 Z-1.8333 I-0.397 J0.0
G2 Y9.8688 Z-1.9167 I0.1985 J0.3438
G2 X406.797 Y9.525 Z-2.0 I0.1985 J-0.3438
G2 X406.2015 Y9.1812 Z-2.0833 I-0.397 J0.0
G2 Y9.8688 Z-2.1667 I0.1985 J0.3438
G2 X406.797 Y9.525 Z-2.25 I0.1985 J-0.3438
G2 X406.2015 Y9.1812 Z-2.3333 I-0.397 J0.0
G2 Y9.8688 Z-2.4167 I0.1985 J0.3438
G2 X406.797 Y9.525 Z-2.5 I0.1985 J-0.3438
G2 X406.2015 Y9.1812 Z-2.5833 I-0.397 J0.0
G2 Y9.8688 Z-2.6667 I0.1985 J0.3438
G2 X406.797 Y9.525 Z-2.75 I0.1985 J-0.3438
G2 X406.2015 Y9.1812 Z-2.8333 I-0.397 J0.0
G2 Y9.8688 Z-2.9167 I0.1985 J0.3438
G2 X406.797 Y9.525 Z-3.0 I0.1985 J-0.3438
G2 X406.2015 Y9.1812 Z-3.0833 I-0.397 J0.0
G2 Y9.8688 Z-3.1667 I0.1985 J0.3438
G2 X406.797 Y9.525 Z-3.25 I0.1985 J-0.3438
G2 X406.2015 Y9.1812 Z-3.3333 I-0.397 J0.0
G2 Y9.8688 Z-3.4167 I0.1985 J0.3438
G2 X406.797 Y9.525 Z-3.5 I0.1985 J-0.3438
G2 X406.2015 Y9.1812 Z-3.5833 I-0.397 J0.0
G2 Y9.8688 Z-3.6667 I0.1985 J0.3438
G2 X406.797 Y9.525 Z-3.75 I0.1985 J-0.3438
G2 X406.2015 Y9.1812 Z-3.8333 I-0.397 J0.0
G2 Y9.8688 Z-3.9167 I0.1985 J0.3438
G2 X406.797 Y9.525 Z-4.0 I0.1985 J-0.3438
G2 X406.2015 Y9.1812 Z-4.0833 I-0.397 J0.0
G2 Y9.8688 Z-4.1667 I0.1985 J0.3438
G2 X406.797 Y9.525 Z-4.25 I0.1985 J-0.3438
G2 X406.2015 Y9.1812 Z-4.3333 I-0.397 J0.0
G2 Y9.8688 Z-4.4167 I0.1985 J0.3438
G2 X406.797 Y9.525 Z-4.5 I0.1985 J-0.3438
G2 X406.2015 Y9.1812 Z-4.5833 I-0.397 J0.0
G2 Y9.8688 Z-4.6667 I0.1985 J0.3438
G2 X406.797 Y9.525 Z-4.75 I0.1985 J-0.3438
G2 X406.2015 Y9.1812 Z-4.8333 I-0.397 J0.0
G2 Y9.8688 Z-4.9167 I0.1985 J0.3438
G2 X406.797 Y9.525 Z-5.0 I0.1985 J-0.3438
G2 X406.2015 Y9.1812 Z-5.0833 I-0.397 J0.0
G2 Y9.8688 Z-5.1667 I0.1985 J0.3438
G2 X406.797 Y9.525 Z-5.25 I0.1985 J-0.3438
G2 X406.2015 Y9.1812 Z-5.3333 I-0.397 J0.0
G2 Y9.8688 Z-5.4167 I0.1985 J0.3438
G2 X406.797 Y9.525 Z-5.5 I0.1985 J-0.3438
G2 X406.2015 Y9.1812 Z-5.5833 I-0.397 J0.0
G2 Y9.8688 Z-5.6667 I0.1985 J0.3438
G2 X406.797 Y9.525 Z-5.75 I0.1985 J-0.3438
G2 X406.2015 Y9.1812 Z-5.8333 I-0.397 J0.0
G2 Y9.8688 Z-5.9167 I0.1985 J0.3438
G2 X406.797 Y9.525 Z-6.0 I0.1985 J-0.3438
G2 X406.2015 Y9.1812 Z-6.0833 I-0.397 J0.0
G2 Y9.8688 Z-6.1667 I0.1985 J0.3438
G2 X406.797 Y9.525 Z-6.25 I0.1985 J-0.3438
G2 X406.2015 Y9.1812 Z-6.3333 I-0.397 J0.0
G2 Y9.8688 Z-6.4167 I0.1985 J0.3438
G2 X406.797 Y9.525 Z-6.5 I0.1985 J-0.3438
G2 X406.2015 Y9.1812 Z-6.5833 I-0.397 J0.0
G2 Y9.8688 Z-6.6667 I0.1985 J0.3438
G2 X406.797 Y9.525 Z-6.75 I0.1985 J-0.3438
G2 X406.2015 Y9.1812 Z-6.8333 I-0.397 J0.0
G2 Y9.8688 Z-6.9167 I0.1985 J0.3438
G2 X406.797 Y9.525 Z-7.0 I0.1985 J-0.3438
G2 X406.2015 Y9.1812 Z-7.0833 I-0.397 J0.0
G2 Y9.8688 Z-7.1667 I0.1985 J0.3438
G2 X406.797 Y9.525 Z-7.25 I0.1985 J-0.3438
G2 X406.2015 Y9.1812 Z-7.3333 I-0.397 J0.0
G2 Y9.8688 Z-7.4167 I0.1985 J0.3438
G2 X406.797 Y9.525 Z-7.5 I0.1985 J-0.3438
G2 X406.2015 Y9.1812 Z-7.5833 I-0.397 J0.0
G2 Y9.8688 Z-7.6667 I0.1985 J0.3438
G2 X406.797 Y9.525 Z-7.75 I0.1985 J-0.3438
G2 X406.2015 Y9.1812 Z-7.8333 I-0.397 J0.0
G2 Y9.8688 Z-7.9167 I0.1985 J0.3438
G2 X406.797 Y9.525 Z-8.0 I0.1985 J-0.3438
G2 X406.2015 Y9.1812 Z-8.0833 I-0.397 J0.0
G2 Y9.8688 Z-8.1667 I0.1985 J0.3438
G2 X406.797 Y9.525 Z-8.25 I0.1985 J-0.3438
G2 X406.2015 Y9.1812 Z-8.3333 I-0.397 J0.0
G2 Y9.8688 Z-8.4167 I0.1985 J0.3438
G2 X406.797 Y9.525 Z-8.5 I0.1985 J-0.3438
G2 X406.2015 Y9.1812 Z-8.5833 I-0.397 J0.0
G2 Y9.8688 Z-8.6667 I0.1985 J0.3438
G2 X406.797 Y9.525 Z-8.75 I0.1985 J-0.3438
G2 X406.2015 Y9.1812 Z-8.8333 I-0.397 J0.0
G2 Y9.8688 Z-8.9167 I0.1985 J0.3438
G2 X406.797 Y9.525 Z-9.0 I0.1985 J-0.3438
G2 X406.2015 Y9.1812 Z-9.0833 I-0.397 J0.0
G2 Y9.8688 Z-9.1667 I0.1985 J0.3438
G2 X406.797 Y9.525 Z-9.25 I0.1985 J-0.3438
G2 X406.2015 Y9.1812 Z-9.3333 I-0.397 J0.0
G2 Y9.8688 Z-9.4167 I0.1985 J0.3438
G2 X406.797 Y9.525 Z-9.5 I0.1985 J-0.3438
G2 X406.2015 Y9.1812 Z-9.5833 I-0.397 J0.0
G2 Y9.8688 Z-9.6667 I0.1985 J0.3438
G2 X406.797 Y9.525 Z-9.75 I0.1985 J-0.3438
G2 X406.2015 Y9.1812 Z-9.8333 I-0.397 J0.0
G2 Y9.8688 Z-9.9167 I0.1985 J0.3438
G2 X406.797 Y9.525 Z-10.0 I0.1985 J-0.3438
G2 X406.2015 Y9.1812 Z-10.0833 I-0.397 J0.0
G2 Y9.8688 Z-10.1667 I0.1985 J0.3438
G2 X406.797 Y9.525 Z-10.25 I0.1985 J-0.3438
G2 X406.2015 Y9.1812 Z-10.3333 I-0.397 J0.0
G2 Y9.8688 Z-10.4167 I0.1985 J0.3438
G2 X406.797 Y9.525 Z-10.5 I0.1985 J-0.3438
G2 X406.2015 Y9.1812 Z-10.5833 I-0.397 J0.0
G2 Y9.8688 Z-10.6667 I0.1985 J0.3438
G2 X406.797 Y9.525 Z-10.75 I0.1985 J-0.3438
G2 X406.2015 Y9.1812 Z-10.8333 I-0.397 J0.0
G2 Y9.8688 Z-10.9167 I0.1985 J0.3438
G2 X406.797 Y9.525 Z-11.0 I0.1985 J-0.3438
G2 X406.2015 Y9.1812 Z-11.0833 I-0.397 J0.0
G2 Y9.8688 Z-11.1667 I0.1985 J0.3438
G2 X406.797 Y9.525 Z-11.25 I0.1985 J-0.3438
G2 X406.2015 Y9.1812 Z-11.3333 I-0.397 J0.0
G2 Y9.8688 Z-11.4167 I0.1985 J0.3438
G2 X406.797 Y9.525 Z-11.5 I0.1985 J-0.3438
G2 X406.2015 Y9.1812 Z-11.5833 I-0.397 J0.0
G2 Y9.8688 Z-11.6667 I0.1985 J0.3438
G2 X406.797 Y9.525 Z-11.75 I0.1985 J-0.3438
G2 X406.2015 Y9.1812 Z-11.8333 I-0.397 J0.0
G2 Y9.8688 Z-11.9167 I0.1985 J0.3438
G2 X406.797 Y9.525 Z-12.0 I0.1985 J-0.3438
G2 X406.2015 Y9.1812 Z-12.0833 I-0.397 J0.0
G2 Y9.8688 Z-12.1667 I0.1985 J0.3438
G2 X406.797 Y9.525 Z-12.25 I0.1985 J-0.3438
G2 X406.2015 Y9.1812 Z-12.3333 I-0.397 J0.0
G2 Y9.8688 Z-12.4167 I0.1985 J0.3438
G2 X406.797 Y9.525 Z-12.5 I0.1985 J-0.3438
G2 X406.2015 Y9.1812 Z-12.5833 I-0.397 J0.0
G2 Y9.8688 Z-12.6667 I0.1985 J0.3438
G2 X406.797 Y9.525 Z-12.75 I0.1985 J-0.3438
G2 X406.2015 Y9.1812 Z-12.8333 I-0.397 J0.0
G2 Y9.8688 Z-12.9167 I0.1985 J0.3438
G2 X406.797 Y9.525 Z-13.0 I0.1985 J-0.3438
G2 X406.2015 Y9.1812 Z-13.0833 I-0.397 J0.0
G2 Y9.8688 Z-13.1667 I0.1985 J0.3438
G2 X406.797 Y9.525 Z-13.25 I0.1985 J-0.3438
G2 X406.2015 Y9.1812 Z-13.3333 I-0.397 J0.0
G2 Y9.8688 Z-13.4167 I0.1985 J0.3438
G2 X406.797 Y9.525 Z-13.5 I0.1985 J-0.3438
G2 X406.2015 Y9.1812 Z-13.5833 I-0.397 J0.0
G2 Y9.8688 Z-13.6667 I0.1985 J0.3438
G2 X406.797 Y9.525 Z-13.75 I0.1985 J-0.3438
G2 X406.2015 Y9.1812 Z-13.8333 I-0.397 J0.0
G2 Y9.8688 Z-13.9167 I0.1985 J0.3438
G2 X406.797 Y9.525 Z-14.0 I0.1985 J-0.3438
G2 X406.2015 Y9.1812 Z-14.0833 I-0.397 J0.0
G2 Y9.8688 Z-14.1667 I0.1985 J0.3438
G2 X406.797 Y9.525 Z-14.25 I0.1985 J-0.3438
G2 X406.2015 Y9.1812 Z-14.3333 I-0.397 J0.0
G2 Y9.8688 Z-14.4167 I0.1985 J0.3438
G2 X406.797 Y9.525 Z-14.5 I0.1985 J-0.3438
G2 X406.2015 Y9.1812 Z-14.5833 I-0.397 J0.0
G2 Y9.8688 Z-14.6667 I0.1985 J0.3438
G2 X406.797 Y9.525 Z-14.75 I0.1985 J-0.3438
G2 X406.2015 Y9.1812 Z-14.8333 I-0.397 J0.0
G2 Y9.8688 Z-14.9167 I0.1985 J0.3438
G2 X406.797 Y9.525 Z-15.0 I0.1985 J-0.3438
G2 X406.2015 Y9.1812 Z-15.0833 I-0.397 J0.0
G2 Y9.8688 Z-15.1667 I0.1985 J0.3438
G2 X406.797 Y9.525 Z-15.25 I0.1985 J-0.3438
G2 X406.2015 Y9.1812 Z-15.3333 I-0.397 J0.0
G2 Y9.8688 Z-15.4167 I0.1985 J0.3438
G2 X406.797 Y9.525 Z-15.5 I0.1985 J-0.3438
G2 X406.2015 Y9.1812 Z-15.5833 I-0.397 J0.0
G2 Y9.8688 Z-15.6667 I0.1985 J0.3438
G2 X406.797 Y9.525 Z-15.75 I0.1985 J-0.3438
G2 X406.2015 Y9.1812 Z-15.8333 I-0.397 J0.0
G2 Y9.8688 Z-15.9167 I0.1985 J0.3438
G2 X406.797 Y9.525 Z-16.0 I0.1985 J-0.3438
G2 X406.2015 Y9.1812 Z-16.0833 I-0.397 J0.0
G2 Y9.8688 Z-16.1667 I0.1985 J0.3438
G2 X406.797 Y9.525 Z-16.25 I0.1985 J-0.3438
G2 X406.2015 Y9.1812 Z-16.3333 I-0.397 J0.0
G2 Y9.8688 Z-16.4167 I0.1985 J0.3438
G2 X406.797 Y9.525 Z-16.5 I0.1985 J-0.3438
G2 X406.2015 Y9.1812 Z-16.5833 I-0.397 J0.0
G2 Y9.8688 Z-16.6667 I0.1985 J0.3438
G2 X406.797 Y9.525 Z-16.75 I0.1985 J-0.3438
G2 X406.2015 Y9.1812 Z-16.8333 I-0.397 J0.0
G2 Y9.8688 Z-16.9167 I0.1985 J0.3438
G2 X406.797 Y9.525 Z-17.0 I0.1985 J-0.3438
G2 X406.2015 Y9.1812 Z-17.0833 I-0.397 J0.0
G2 Y9.8688 Z-17.1667 I0.1985 J0.3438
G2 X406.797 Y9.525 Z-17.25 I0.1985 J-0.3438
G2 X406.2015 Y9.1812 Z-17.3333 I-0.397 J0.0
G2 Y9.8688 Z-17.4167 I0.1985 J0.3438
G2 X406.797 Y9.525 Z-17.5 I0.1985 J-0.3438
G2 X406.2015 Y9.1812 Z-17.5833 I-0.397 J0.0
G2 Y9.8688 Z-17.6667 I0.1985 J0.3438
G2 X406.797 Y9.525 Z-17.75 I0.1985 J-0.3438
G2 X406.2015 Y9.1812 Z-17.8333 I-0.397 J0.0
G2 Y9.8688 Z-17.9167 I0.1985 J0.3438
G2 X406.797 Y9.525 Z-18.0 I0.1985 J-0.3438
G2 X406.2015 Y9.1812 Z-18.0833 I-0.397 J0.0
G2 Y9.8688 Z-18.1667 I0.1985 J0.3438
G2 X406.797 Y9.525 Z-18.25 I0.1985 J-0.3438
G2 X406.2015 Y9.1812 Z-18.3333 I-0.397 J0.0
G2 Y9.8688 Z-18.4167 I0.1985 J0.3438
G2 X406.797 Y9.525 Z-18.5 I0.1985 J-0.3438
G2 X406.2015 Y9.1812 Z-18.5833 I-0.397 J0.0
G2 Y9.8688 Z-18.6667 I0.1985 J0.3438
G2 X406.797 Y9.525 Z-18.75 I0.1985 J-0.3438
G2 X406.2015 Y9.1812 Z-18.8333 I-0.397 J0.0
G2 Y9.8688 Z-18.9167 I0.1985 J0.3438
G2 X406.797 Y9.525 Z-19.0 I0.1985 J-0.3438
G2 X406.2015 Y9.1812 Z-19.0833 I-0.397 J0.0
G2 Y9.8688 Z-19.1667 I0.1985 J0.3438
G2 X406.797 Y9.525 Z-19.25 I0.1985 J-0.3438
G2 X406.2015 Y9.1812 Z-19.3333 I-0.397 J0.0
G2 Y9.8688 Z-19.4167 I0.1985 J0.3438
G2 X406.797 Y9.525 Z-19.5 I0.1985 J-0.3438
G2 X406.2015 Y9.1812 Z-19.5833 I-0.397 J0.0
G2 Y9.8688 Z-19.6667 I0.1985 J0.3438
G2 X406.797 Y9.525 Z-19.75 I0.1985 J-0.3438
G2 X406.2015 Y9.1812 Z-19.8333 I-0.397 J0.0
G2 Y9.8688 Z-19.9167 I0.1985 J0.3438
G2 X406.797 Y9.525 Z-20.0 I0.1985 J-0.3438
G2 X406.2015 Y9.1812 Z-20.0833 I-0.397 J0.0
G2 Y9.8688 Z-20.1667 I0.1985 J0.3438
G2 X406.797 Y9.525 Z-20.25 I0.1985 J-0.3438
G2 X406.2015 Y9.1812 Z-20.3333 I-0.397 J0.0
G2 Y9.8688 Z-20.4167 I0.1985 J0.3438
G2 X406.797 Y9.525 Z-20.5 I0.1985 J-0.3438
G2 X406.2015 Y9.1812 Z-20.5833 I-0.397 J0.0
G2 Y9.8688 Z-20.6667 I0.1985 J0.3438
G2 X406.797 Y9.525 Z-20.75 I0.1985 J-0.3438
G2 X406.2015 Y9.1812 Z-20.8333 I-0.397 J0.0
G2 Y9.8688 Z-20.9167 I0.1985 J0.3438
G2 X406.797 Y9.525 Z-21.0 I0.1985 J-0.3438
G2 X406.2015 Y9.1812 I-0.397 J0.0
G2 Y9.8688 I0.1985 J0.3438
G2 X406.797 Y9.525 I0.1985 J-0.3438
G0 Z12.0
G0 X600.472
G0 Z0.1
G1 F120.0 Z0.0
G2 F3000.0 X599.8765 Y9.1812 Z-0.0833 I-0.397 J0.0
G2 Y9.8688 Z-0.1667 I0.1985 J0.3438
G2 X600.472 Y9.525 Z-0.25 I0.1985 J-0.3438
G2 X599.8765 Y9.1812 Z-0.3333 I-0.397 J0.0
G2 Y9.8688 Z-0.4167 I0.1985 J0.3438
G2 X600.472 Y9.525 Z-0.5 I0.1985 J-0.3438
G2 X599.8765 Y9.1812 Z-0.5833 I-0.397 J0.0
G2 Y9.8688 Z-0.6667 I0.1985 J0.3438
G2 X600.472 Y9.525 Z-0.75 I0.1985 J-0.3438
G2 X599.8765 Y9.1812 Z-0.8333 I-0.397 J0.0
G2 Y9.8688 Z-0.9167 I0.1985 J0.3438
G2 X600.472 Y9.525 Z-1.0 I0.1985 J-0.3438
G2 X599.8765 Y9.1812 Z-1.0833 I-0.397 J0.0
G2 Y9.8688 Z-1.1667 I0.1985 J0.3438
G2 X600.472 Y9.525 Z-1.25 I0.1985 J-0.3438
G2 X599.8765 Y9.1812 Z-1.3333 I-0.397 J0.0
G2 Y9.8688 Z-1.4167 I0.1985 J0.3438
G2 X600.472 Y9.525 Z-1.5 I0.1985 J-0.3438
G2 X599.8765 Y9.1812 Z-1.5833 I-0.397 J0.0
G2 Y9.8688 Z-1.6667 I0.1985 J0.3438
G2 X600.472 Y9.525 Z-1.75 I0.1985 J-0.3438
G2 X599.8765 Y9.1812 Z-1.8333 I-0.397 J0.0
G2 Y9.8688 Z-1.9167 I0.1985 J0.3438
G2 X600.472 Y9.525 Z-2.0 I0.1985 J-0.3438
G2 X599.8765 Y9.1812 Z-2.0833 I-0.397 J0.0
G2 Y9.8688 Z-2.1667 I0.1985 J0.3438
G2 X600.472 Y9.525 Z-2.25 I0.1985 J-0.3438
G2 X599.8765 Y9.1812 Z-2.3333 I-0.397 J0.0
G2 Y9.8688 Z-2.4167 I0.1985 J0.3438
G2 X600.472 Y9.525 Z-2.5 I0.1985 J-0.3438
G2 X599.8765 Y9.1812 Z-2.5833 I-0.397 J0.0
G2 Y9.8688 Z-2.6667 I0.1985 J0.3438
G2 X600.472 Y9.525 Z-2.75 I0.1985 J-0.3438
G2 X599.8765 Y9.1812 Z-2.8333 I-0.397 J0.0
G2 Y9.8688 Z-2.9167 I0.1985 J0.3438
G2 X600.472 Y9.525 Z-3.0 I0.1985 J-0.3438
G2 X599.8765 Y9.1812 Z-3.0833 I-0.397 J0.0
G2 Y9.8688 Z-3.1667 I0.1985 J0.3438
G2 X600.472 Y9.525 Z-3.25 I0.1985 J-0.3438
G2 X599.8765 Y9.1812 Z-3.3333 I-0.397 J0.0
G2 Y9.8688 Z-3.4167 I0.1985 J0.3438
G2 X600.472 Y9.525 Z-3.5 I0.1985 J-0.3438
G2 X599.8765 Y9.1812 Z-3.5833 I-0.397 J0.0
G2 Y9.8688 Z-3.6667 I0.1985 J0.3438
G2 X600.472 Y9.525 Z-3.75 I0.1985 J-0.3438
G2 X599.8765 Y9.1812 Z-3.8333 I-0.397 J0.0
G2 Y9.8688 Z-3.9167 I0.1985 J0.3438
G2 X600.472 Y9.525 Z-4.0 I0.1985 J-0.3438
G2 X599.8765 Y9.1812 Z-4.0833 I-0.397 J0.0
G2 Y9.8688 Z-4.1667 I0.1985 J0.3438
G2 X600.472 Y9.525 Z-4.25 I0.1985 J-0.3438
G2 X599.8765 Y9.1812 Z-4.3333 I-0.397 J0.0
G2 Y9.8688 Z-4.4167 I0.1985 J0.3438
G2 X600.472 Y9.525 Z-4.5 I0.1985 J-0.3438
G2 X599.8765 Y9.1812 Z-4.5833 I-0.397 J0.0
G2 Y9.8688 Z-4.6667 I0.1985 J0.3438
G2 X600.472 Y9.525 Z-4.75 I0.1985 J-0.3438
G2 X599.8765 Y9.1812 Z-4.8333 I-0.397 J0.0
G2 Y9.8688 Z-4.9167 I0.1985 J0.3438
G2 X600.472 Y9.525 Z-5.0 I0.1985 J-0.3438
G2 X599.8765 Y9.1812 Z-5.0833 I-0.397 J0.0
G2 Y9.8688 Z-5.1667 I0.1985 J0.3438
G2 X600.472 Y9.525 Z-5.25 I0.1985 J-0.3438
G2 X599.8765 Y9.1812 Z-5.3333 I-0.397 J0.0
G2 Y9.8688 Z-5.4167 I0.1985 J0.3438
G2 X600.472 Y9.525 Z-5.5 I0.1985 J-0.3438
G2 X599.8765 Y9.1812 Z-5.5833 I-0.397 J0.0
G2 Y9.8688 Z-5.6667 I0.1985 J0.3438
G2 X600.472 Y9.525 Z-5.75 I0.1985 J-0.3438
G2 X599.8765 Y9.1812 Z-5.8333 I-0.397 J0.0
G2 Y9.8688 Z-5.9167 I0.1985 J0.3438
G2 X600.472 Y9.525 Z-6.0 I0.1985 J-0.3438
G2 X599.8765 Y9.1812 Z-6.0833 I-0.397 J0.0
G2 Y9.8688 Z-6.1667 I0.1985 J0.3438
G2 X600.472 Y9.525 Z-6.25 I0.1985 J-0.3438
G2 X599.8765 Y9.1812 Z-6.3333 I-0.397 J0.0
G2 Y9.8688 Z-6.4167 I0.1985 J0.3438
G2 X600.472 Y9.525 Z-6.5 I0.1985 J-0.3438
G2 X599.8765 Y9.1812 Z-6.5833 I-0.397 J0.0
G2 Y9.8688 Z-6.6667 I0.1985 J0.3438
G2 X600.472 Y9.525 Z-6.75 I0.1985 J-0.3438
G2 X599.8765 Y9.1812 Z-6.8333 I-0.397 J0.0
G2 Y9.8688 Z-6.9167 I0.1985 J0.3438
G2 X600.472 Y9.525 Z-7.0 I0.1985 J-0.3438
G2 X599.8765 Y9.1812 Z-7.0833 I-0.397 J0.0
G2 Y9.8688 Z-7.1667 I0.1985 J0.3438
G2 X600.472 Y9.525 Z-7.25 I0.1985 J-0.3438
G2 X599.8765 Y9.1812 Z-7.3333 I-0.397 J0.0
G2 Y9.8688 Z-7.4167 I0.1985 J0.3438
G2 X600.472 Y9.525 Z-7.5 I0.1985 J-0.3438
G2 X599.8765 Y9.1812 Z-7.5833 I-0.397 J0.0
G2 Y9.8688 Z-7.6667 I0.1985 J0.3438
G2 X600.472 Y9.525 Z-7.75 I0.1985 J-0.3438
G2 X599.8765 Y9.1812 Z-7.8333 I-0.397 J0.0
G2 Y9.8688 Z-7.9167 I0.1985 J0.3438
G2 X600.472 Y9.525 Z-8.0 I0.1985 J-0.3438
G2 X599.8765 Y9.1812 Z-8.0833 I-0.397 J0.0
G2 Y9.8688 Z-8.1667 I0.1985 J0.3438
G2 X600.472 Y9.525 Z-8.25 I0.1985 J-0.3438
G2 X599.8765 Y9.1812 Z-8.3333 I-0.397 J0.0
G2 Y9.8688 Z-8.4167 I0.1985 J0.3438
G2 X600.472 Y9.525 Z-8.5 I0.1985 J-0.3438
G2 X599.8765 Y9.1812 Z-8.5833 I-0.397 J0.0
G2 Y9.8688 Z-8.6667 I0.1985 J0.3438
G2 X600.472 Y9.525 Z-8.75 I0.1985 J-0.3438
G2 X599.8765 Y9.1812 Z-8.8333 I-0.397 J0.0
G2 Y9.8688 Z-8.9167 I0.1985 J0.3438
G2 X600.472 Y9.525 Z-9.0 I0.1985 J-0.3438
G2 X599.8765 Y9.1812 Z-9.0833 I-0.397 J0.0
G2 Y9.8688 Z-9.1667 I0.1985 J0.3438
G2 X600.472 Y9.525 Z-9.25 I0.1985 J-0.3438
G2 X599.8765 Y9.1812 Z-9.3333 I-0.397 J0.0
G2 Y9.8688 Z-9.4167 I0.1985 J0.3438
G2 X600.472 Y9.525 Z-9.5 I0.1985 J-0.3438
G2 X599.8765 Y9.1812 Z-9.5833 I-0.397 J0.0
G2 Y9.8688 Z-9.6667 I0.1985 J0.3438
G2 X600.472 Y9.525 Z-9.75 I0.1985 J-0.3438
G2 X599.8765 Y9.1812 Z-9.8333 I-0.397 J0.0
G2 Y9.8688 Z-9.9167 I0.1985 J0.3438
G2 X600.472 Y9.525 Z-10.0 I0.1985 J-0.3438
G2 X599.8765 Y9.1812 Z-10.0833 I-0.397 J0.0
G2 Y9.8688 Z-10.1667 I0.1985 J0.3438
G2 X600.472 Y9.525 Z-10.25 I0.1985 J-0.3438
G2 X599.8765 Y9.1812 Z-10.3333 I-0.397 J0.0
G2 Y9.8688 Z-10.4167 I0.1985 J0.3438
G2 X600.472 Y9.525 Z-10.5 I0.1985 J-0.3438
G2 X599.8765 Y9.1812 Z-10.5833 I-0.397 J0.0
G2 Y9.8688 Z-10.6667 I0.1985 J0.3438
G2 X600.472 Y9.525 Z-10.75 I0.1985 J-0.3438
G2 X599.8765 Y9.1812 Z-10.8333 I-0.397 J0.0
G2 Y9.8688 Z-10.9167 I0.1985 J0.3438
G2 X600.472 Y9.525 Z-11.0 I0.1985 J-0.3438
G2 X599.8765 Y9.1812 Z-11.0833 I-0.397 J0.0
G2 Y9.8688 Z-11.1667 I0.1985 J0.3438
G2 X600.472 Y9.525 Z-11.25 I0.1985 J-0.3438
G2 X599.8765 Y9.1812 Z-11.3333 I-0.397 J0.0
G2 Y9.8688 Z-11.4167 I0.1985 J0.3438
G2 X600.472 Y9.525 Z-11.5 I0.1985 J-0.3438
G2 X599.8765 Y9.1812 Z-11.5833 I-0.397 J0.0
G2 Y9.8688 Z-11.6667 I0.1985 J0.3438
G2 X600.472 Y9.525 Z-11.75 I0.1985 J-0.3438
G2 X599.8765 Y9.1812 Z-11.8333 I-0.397 J0.0
G2 Y9.8688 Z-11.9167 I0.1985 J0.3438
G2 X600.472 Y9.525 Z-12.0 I0.1985 J-0.3438
G2 X599.8765 Y9.1812 Z-12.0833 I-0.397 J0.0
G2 Y9.8688 Z-12.1667 I0.1985 J0.3438
G2 X600.472 Y9.525 Z-12.25 I0.1985 J-0.3438
G2 X599.8765 Y9.1812 Z-12.3333 I-0.397 J0.0
G2 Y9.8688 Z-12.4167 I0.1985 J0.3438
G2 X600.472 Y9.525 Z-12.5 I0.1985 J-0.3438
G2 X599.8765 Y9.1812 Z-12.5833 I-0.397 J0.0
G2 Y9.8688 Z-12.6667 I0.1985 J0.3438
G2 X600.472 Y9.525 Z-12.75 I0.1985 J-0.3438
G2 X599.8765 Y9.1812 Z-12.8333 I-0.397 J0.0
G2 Y9.8688 Z-12.9167 I0.1985 J0.3438
G2 X600.472 Y9.525 Z-13.0 I0.1985 J-0.3438
G2 X599.8765 Y9.1812 Z-13.0833 I-0.397 J0.0
G2 Y9.8688 Z-13.1667 I0.1985 J0.3438
G2 X600.472 Y9.525 Z-13.25 I0.1985 J-0.3438
G2 X599.8765 Y9.1812 Z-13.3333 I-0.397 J0.0
G2 Y9.8688 Z-13.4167 I0.1985 J0.3438
G2 X600.472 Y9.525 Z-13.5 I0.1985 J-0.3438
G2 X599.8765 Y9.1812 Z-13.5833 I-0.397 J0.0
G2 Y9.8688 Z-13.6667 I0.1985 J0.3438
G2 X600.472 Y9.525 Z-13.75 I0.1985 J-0.3438
G2 X599.8765 Y9.1812 Z-13.8333 I-0.397 J0.0
G2 Y9.8688 Z-13.9167 I0.1985 J0.3438
G2 X600.472 Y9.525 Z-14.0 I0.1985 J-0.3438
G2 X599.8765 Y9.1812 Z-14.0833 I-0.397 J0.0
G2 Y9.8688 Z-14.1667 I0.1985 J0.3438
G2 X600.472 Y9.525 Z-14.25 I0.1985 J-0.3438
G2 X599.8765 Y9.1812 Z-14.3333 I-0.397 J0.0
G2 Y9.8688 Z-14.4167 I0.1985 J0.3438
G2 X600.472 Y9.525 Z-14.5 I0.1985 J-0.3438
G2 X599.8765 Y9.1812 Z-14.5833 I-0.397 J0.0
G2 Y9.8688 Z-14.6667 I0.1985 J0.3438
G2 X600.472 Y9.525 Z-14.75 I0.1985 J-0.3438
G2 X599.8765 Y9.1812 Z-14.8333 I-0.397 J0.0
G2 Y9.8688 Z-14.9167 I0.1985 J0.3438
G2 X600.472 Y9.525 Z-15.0 I0.1985 J-0.3438
G2 X599.8765 Y9.1812 Z-15.0833 I-0.397 J0.0
G2 Y9.8688 Z-15.1667 I0.1985 J0.3438
G2 X600.472 Y9.525 Z-15.25 I0.1985 J-0.3438
G2 X599.8765 Y9.1812 Z-15.3333 I-0.397 J0.0
G2 Y9.8688 Z-15.4167 I0.1985 J0.3438
G2 X600.472 Y9.525 Z-15.5 I0.1985 J-0.3438
G2 X599.8765 Y9.1812 Z-15.5833 I-0.397 J0.0
G2 Y9.8688 Z-15.6667 I0.1985 J0.3438
G2 X600.472 Y9.525 Z-15.75 I0.1985 J-0.3438
G2 X599.8765 Y9.1812 Z-15.8333 I-0.397 J0.0
G2 Y9.8688 Z-15.9167 I0.1985 J0.3438
G2 X600.472 Y9.525 Z-16.0 I0.1985 J-0.3438
G2 X599.8765 Y9.1812 Z-16.0833 I-0.397 J0.0
G2 Y9.8688 Z-16.1667 I0.1985 J0.3438
G2 X600.472 Y9.525 Z-16.25 I0.1985 J-0.3438
G2 X599.8765 Y9.1812 Z-16.3333 I-0.397 J0.0
G2 Y9.8688 Z-16.4167 I0.1985 J0.3438
G2 X600.472 Y9.525 Z-16.5 I0.1985 J-0.3438
G2 X599.8765 Y9.1812 Z-16.5833 I-0.397 J0.0
G2 Y9.8688 Z-16.6667 I0.1985 J0.3438
G2 X600.472 Y9.525 Z-16.75 I0.1985 J-0.3438
G2 X599.8765 Y9.1812 Z-16.8333 I-0.397 J0.0
G2 Y9.8688 Z-16.9167 I0.1985 J0.3438
G2 X600.472 Y9.525 Z-17.0 I0.1985 J-0.3438
G2 X599.8765 Y9.1812 Z-17.0833 I-0.397 J0.0
G2 Y9.8688 Z-17.1667 I0.1985 J0.3438
G2 X600.472 Y9.525 Z-17.25 I0.1985 J-0.3438
G2 X599.8765 Y9.1812 Z-17.3333 I-0.397 J0.0
G2 Y9.8688 Z-17.4167 I0.1985 J0.3438
G2 X600.472 Y9.525 Z-17.5 I0.1985 J-0.3438
G2 X599.8765 Y9.1812 Z-17.5833 I-0.397 J0.0
G2 Y9.8688 Z-17.6667 I0.1985 J0.3438
G2 X600.472 Y9.525 Z-17.75 I0.1985 J-0.3438
G2 X599.8765 Y9.1812 Z-17.8333 I-0.397 J0.0
G2 Y9.8688 Z-17.9167 I0.1985 J0.3438
G2 X600.472 Y9.525 Z-18.0 I0.1985 J-0.3438
G2 X599.8765 Y9.1812 Z-18.0833 I-0.397 J0.0
G2 Y9.8688 Z-18.1667 I0.1985 J0.3438
G2 X600.472 Y9.525 Z-18.25 I0.1985 J-0.3438
G2 X599.8765 Y9.1812 Z-18.3333 I-0.397 J0.0
G2 Y9.8688 Z-18.4167 I0.1985 J0.3438
G2 X600.472 Y9.525 Z-18.5 I0.1985 J-0.3438
G2 X599.8765 Y9.1812 Z-18.5833 I-0.397 J0.0
G2 Y9.8688 Z-18.6667 I0.1985 J0.3438
G2 X600.472 Y9.525 Z-18.75 I0.1985 J-0.3438
G2 X599.8765 Y9.1812 Z-18.8333 I-0.397 J0.0
G2 Y9.8688 Z-18.9167 I0.1985 J0.3438
G2 X600.472 Y9.525 Z-19.0 I0.1985 J-0.3438
G2 X599.8765 Y9.1812 Z-19.0833 I-0.397 J0.0
G2 Y9.8688 Z-19.1667 I0.1985 J0.3438
G2 X600.472 Y9.525 Z-19.25 I0.1985 J-0.3438
G2 X599.8765 Y9.1812 Z-19.3333 I-0.397 J0.0
G2 Y9.8688 Z-19.4167 I0.1985 J0.3438
G2 X600.472 Y9.525 Z-19.5 I0.1985 J-0.3438
G2 X599.8765 Y9.1812 Z-19.5833 I-0.397 J0.0
G2 Y9.8688 Z-19.6667 I0.1985 J0.3438
G2 X600.472 Y9.525 Z-19.75 I0.1985 J-0.3438
G2 X599.8765 Y9.1812 Z-19.8333 I-0.397 J0.0
G2 Y9.8688 Z-19.9167 I0.1985 J0.3438
G2 X600.472 Y9.525 Z-20.0 I0.1985 J-0.3438
G2 X599.8765 Y9.1812 Z-20.0833 I-0.397 J0.0
G2 Y9.8688 Z-20.1667 I0.1985 J0.3438
G2 X600.472 Y9.525 Z-20.25 I0.1985 J-0.3438
G2 X599.8765 Y9.1812 Z-20.3333 I-0.397 J0.0
G2 Y9.8688 Z-20.4167 I0.1985 J0.3438
G2 X600.472 Y9.525 Z-20.5 I0.1985 J-0.3438
G2 X599.8765 Y9.1812 Z-20.5833 I-0.397 J0.0
G2 Y9.8688 Z-20.6667 I0.1985 J0.3438
G2 X600.472 Y9.525 Z-20.75 I0.1985 J-0.3438
G2 X599.8765 Y9.1812 Z-20.8333 I-0.397 J0.0
G2 Y9.8688 Z-20.9167 I0.1985 J0.3438
G2 X600.472 Y9.525 Z-21.0 I0.1985 J-0.3438
G2 X599.8765 Y9.1812 I-0.397 J0.0
G2 Y9.8688 I0.1985 J0.3438
G2 X600.472 Y9.525 I0.1985 J-0.3438
G0 Z12.0
G0 Y249.555
G0 Z0.1
G1 F120.0 Z0.0
G2 F3000.0 X599.8765 Y249.2112 Z-0.0833 I-0.397 J0.0
G2 Y249.8988 Z-0.1667 I0.1985 J0.3438
G2 X600.472 Y249.555 Z-0.25 I0.1985 J-0.3438
G2 X599.8765 Y249.2112 Z-0.3333 I-0.397 J0.0
G2 Y249.8988 Z-0.4167 I0.1985 J0.3438
G2 X600.472 Y249.555 Z-0.5 I0.1985 J-0.3438
G2 X599.8765 Y249.2112 Z-0.5833 I-0.397 J0.0
G2 Y249.8988 Z-0.6667 I0.1985 J0.3438
G2 X600.472 Y249.555 Z-0.75 I0.1985 J-0.3438
G2 X599.8765 Y249.2112 Z-0.8333 I-0.397 J0.0
G2 Y249.8988 Z-0.9167 I0.1985 J0.3438
G2 X600.472 Y249.555 Z-1.0 I0.1985 J-0.3438
G2 X599.8765 Y249.2112 Z-1.0833 I-0.397 J0.0
G2 Y249.8988 Z-1.1667 I0.1985 J0.3438
G2 X600.472 Y249.555 Z-1.25 I0.1985 J-0.3438
G2 X599.8765 Y249.2112 Z-1.3333 I-0.397 J0.0
G2 Y249.8988 Z-1.4167 I0.1985 J0.3438
G2 X600.472 Y249.555 Z-1.5 I0.1985 J-0.3438
G2 X599.8765 Y249.2112 Z-1.5833 I-0.397 J0.0
G2 Y249.8988 Z-1.6667 I0.1985 J0.3438
G2 X600.472 Y249.555 Z-1.75 I0.1985 J-0.3438
G2 X599.8765 Y249.2112 Z-1.8333 I-0.397 J0.0
G2 Y249.8988 Z-1.9167 I0.1985 J0.3438
G2 X600.472 Y249.555 Z-2.0 I0.1985 J-0.3438
G2 X599.8765 Y249.2112 Z-2.0833 I-0.397 J0.0
G2 Y249.8988 Z-2.1667 I0.1985 J0.3438
G2 X600.472 Y249.555 Z-2.25 I0.1985 J-0.3438
G2 X599.8765 Y249.2112 Z-2.3333 I-0.397 J0.0
G2 Y249.8988 Z-2.4167 I0.1985 J0.3438
G2 X600.472 Y249.555 Z-2.5 I0.1985 J-0.3438
G2 X599.8765 Y249.2112 Z-2.5833 I-0.397 J0.0
G2 Y249.8988 Z-2.6667 I0.1985 J0.3438
G2 X600.472 Y249.555 Z-2.75 I0.1985 J-0.3438
G2 X599.8765 Y249.2112 Z-2.8333 I-0.397 J0.0
G2 Y249.8988 Z-2.9167 I0.1985 J0.3438
G2 X600.472 Y249.555 Z-3.0 I0.1985 J-0.3438
G2 X599.8765 Y249.2112 Z-3.0833 I-0.397 J0.0
G2 Y249.8988 Z-3.1667 I0.1985 J0.3438
G2 X600.472 Y249.555 Z-3.25 I0.1985 J-0.3438
G2 X599.8765 Y249.2112 Z-3.3333 I-0.397 J0.0
G2 Y249.8988 Z-3.4167 I0.1985 J0.3438
G2 X600.472 Y249.555 Z-3.5 I0.1985 J-0.3438
G2 X599.8765 Y249.2112 Z-3.5833 I-0.397 J0.0
G2 Y249.8988 Z-3.6667 I0.1985 J0.3438
G2 X600.472 Y249.555 Z-3.75 I0.1985 J-0.3438
G2 X599.8765 Y249.2112 Z-3.8333 I-0.397 J0.0
G2 Y249.8988 Z-3.9167 I0.1985 J0.3438
G2 X600.472 Y249.555 Z-4.0 I0.1985 J-0.3438
G2 X599.8765 Y249.2112 Z-4.0833 I-0.397 J0.0
G2 Y249.8988 Z-4.1667 I0.1985 J0.3438
G2 X600.472 Y249.555 Z-4.25 I0.1985 J-0.3438
G2 X599.8765 Y249.2112 Z-4.3333 I-0.397 J0.0
G2 Y249.8988 Z-4.4167 I0.1985 J0.3438
G2 X600.472 Y249.555 Z-4.5 I0.1985 J-0.3438
G2 X599.8765 Y249.2112 Z-4.5833 I-0.397 J0.0
G2 Y249.8988 Z-4.6667 I0.1985 J0.3438
G2 X600.472 Y249.555 Z-4.75 I0.1985 J-0.3438
G2 X599.8765 Y249.2112 Z-4.8333 I-0.397 J0.0
G2 Y249.8988 Z-4.9167 I0.1985 J0.3438
G2 X600.472 Y249.555 Z-5.0 I0.1985 J-0.3438
G2 X599.8765 Y249.2112 Z-5.0833 I-0.397 J0.0
G2 Y249.8988 Z-5.1667 I0.1985 J0.3438
G2 X600.472 Y249.555 Z-5.25 I0.1985 J-0.3438
G2 X599.8765 Y249.2112 Z-5.3333 I-0.397 J0.0
G2 Y249.8988 Z-5.4167 I0.1985 J0.3438
G2 X600.472 Y249.555 Z-5.5 I0.1985 J-0.3438
G2 X599.8765 Y249.2112 Z-5.5833 I-0.397 J0.0
G2 Y249.8988 Z-5.6667 I0.1985 J0.3438
G2 X600.472 Y249.555 Z-5.75 I0.1985 J-0.3438
G2 X599.8765 Y249.2112 Z-5.8333 I-0.397 J0.0
G2 Y249.8988 Z-5.9167 I0.1985 J0.3438
G2 X600.472 Y249.555 Z-6.0 I0.1985 J-0.3438
G2 X599.8765 Y249.2112 Z-6.0833 I-0.397 J0.0
G2 Y249.8988 Z-6.1667 I0.1985 J0.3438
G2 X600.472 Y249.555 Z-6.25 I0.1985 J-0.3438
G2 X599.8765 Y249.2112 Z-6.3333 I-0.397 J0.0
G2 Y249.8988 Z-6.4167 I0.1985 J0.3438
G2 X600.472 Y249.555 Z-6.5 I0.1985 J-0.3438
G2 X599.8765 Y249.2112 Z-6.5833 I-0.397 J0.0
G2 Y249.8988 Z-6.6667 I0.1985 J0.3438
G2 X600.472 Y249.555 Z-6.75 I0.1985 J-0.3438
G2 X599.8765 Y249.2112 Z-6.8333 I-0.397 J0.0
G2 Y249.8988 Z-6.9167 I0.1985 J0.3438
G2 X600.472 Y249.555 Z-7.0 I0.1985 J-0.3438
G2 X599.8765 Y249.2112 Z-7.0833 I-0.397 J0.0
G2 Y249.8988 Z-7.1667 I0.1985 J0.3438
G2 X600.472 Y249.555 Z-7.25 I0.1985 J-0.3438
G2 X599.8765 Y249.2112 Z-7.3333 I-0.397 J0.0
G2 Y249.8988 Z-7.4167 I0.1985 J0.3438
G2 X600.472 Y249.555 Z-7.5 I0.1985 J-0.3438
G2 X599.8765 Y249.2112 Z-7.5833 I-0.397 J0.0
G2 Y249.8988 Z-7.6667 I0.1985 J0.3438
G2 X600.472 Y249.555 Z-7.75 I0.1985 J-0.3438
G2 X599.8765 Y249.2112 Z-7.8333 I-0.397 J0.0
G2 Y249.8988 Z-7.9167 I0.1985 J0.3438
G2 X600.472 Y249.555 Z-8.0 I0.1985 J-0.3438
G2 X599.8765 Y249.2112 Z-8.0833 I-0.397 J0.0
G2 Y249.8988 Z-8.1667 I0.1985 J0.3438
G2 X600.472 Y249.555 Z-8.25 I0.1985 J-0.3438
G2 X599.8765 Y249.2112 Z-8.3333 I-0.397 J0.0
G2 Y249.8988 Z-8.4167 I0.1985 J0.3438
G2 X600.472 Y249.555 Z-8.5 I0.1985 J-0.3438
G2 X599.8765 Y249.2112 Z-8.5833 I-0.397 J0.0
G2 Y249.8988 Z-8.6667 I0.1985 J0.3438
G2 X600.472 Y249.555 Z-8.75 I0.1985 J-0.3438
G2 X599.8765 Y249.2112 Z-8.8333 I-0.397 J0.0
G2 Y249.8988 Z-8.9167 I0.1985 J0.3438
G2 X600.472 Y249.555 Z-9.0 I0.1985 J-0.3438
G2 X599.8765 Y249.2112 Z-9.0833 I-0.397 J0.0
G2 Y249.8988 Z-9.1667 I0.1985 J0.3438
G2 X600.472 Y249.555 Z-9.25 I0.1985 J-0.3438
G2 X599.8765 Y249.2112 Z-9.3333 I-0.397 J0.0
G2 Y249.8988 Z-9.4167 I0.1985 J0.3438
G2 X600.472 Y249.555 Z-9.5 I0.1985 J-0.3438
G2 X599.8765 Y249.2112 Z-9.5833 I-0.397 J0.0
G2 Y249.8988 Z-9.6667 I0.1985 J0.3438
G2 X600.472 Y249.555 Z-9.75 I0.1985 J-0.3438
G2 X599.8765 Y249.2112 Z-9.8333 I-0.397 J0.0
G2 Y249.8988 Z-9.9167 I0.1985 J0.3438
G2 X600.472 Y249.555 Z-10.0 I0.1985 J-0.3438
G2 X599.8765 Y249.2112 Z-10.0833 I-0.397 J0.0
G2 Y249.8988 Z-10.1667 I0.1985 J0.3438
G2 X600.472 Y249.555 Z-10.25 I0.1985 J-0.3438
G2 X599.8765 Y249.2112 Z-10.3333 I-0.397 J0.0
G2 Y249.8988 Z-10.4167 I0.1985 J0.3438
G2 X600.472 Y249.555 Z-10.5 I0.1985 J-0.3438
G2 X599.8765 Y249.2112 Z-10.5833 I-0.397 J0.0
G2 Y249.8988 Z-10.6667 I0.1985 J0.3438
G2 X600.472 Y249.555 Z-10.75 I0.1985 J-0.3438
G2 X599.8765 Y249.2112 Z-10.8333 I-0.397 J0.0
G2 Y249.8988 Z-10.9167 I0.1985 J0.3438
G2 X600.472 Y249.555 Z-11.0 I0.1985 J-0.3438
G2 X599.8765 Y249.2112 Z-11.0833 I-0.397 J0.0
G2 Y249.8988 Z-11.1667 I0.1985 J0.3438
G2 X600.472 Y249.555 Z-11.25 I0.1985 J-0.3438
G2 X599.8765 Y249.2112 Z-11.3333 I-0.397 J0.0
G2 Y249.8988 Z-11.4167 I0.1985 J0.3438
G2 X600.472 Y249.555 Z-11.5 I0.1985 J-0.3438
G2 X599.8765 Y249.2112 Z-11.5833 I-0.397 J0.0
G2 Y249.8988 Z-11.6667 I0.1985 J0.3438
G2 X600.472 Y249.555 Z-11.75 I0.1985 J-0.3438
G2 X599.8765 Y249.2112 Z-11.8333 I-0.397 J0.0
G2 Y249.8988 Z-11.9167 I0.1985 J0.3438
G2 X600.472 Y249.555 Z-12.0 I0.1985 J-0.3438
G2 X599.8765 Y249.2112 Z-12.0833 I-0.397 J0.0
G2 Y249.8988 Z-12.1667 I0.1985 J0.3438
G2 X600.472 Y249.555 Z-12.25 I0.1985 J-0.3438
G2 X599.8765 Y249.2112 Z-12.3333 I-0.397 J0.0
G2 Y249.8988 Z-12.4167 I0.1985 J0.3438
G2 X600.472 Y249.555 Z-12.5 I0.1985 J-0.3438
G2 X599.8765 Y249.2112 Z-12.5833 I-0.397 J0.0
G2 Y249.8988 Z-12.6667 I0.1985 J0.3438
G2 X600.472 Y249.555 Z-12.75 I0.1985 J-0.3438
G2 X599.8765 Y249.2112 Z-12.8333 I-0.397 J0.0
G2 Y249.8988 Z-12.9167 I0.1985 J0.3438
G2 X600.472 Y249.555 Z-13.0 I0.1985 J-0.3438
G2 X599.8765 Y249.2112 Z-13.0833 I-0.397 J0.0
G2 Y249.8988 Z-13.1667 I0.1985 J0.3438
G2 X600.472 Y249.555 Z-13.25 I0.1985 J-0.3438
G2 X599.8765 Y249.2112 Z-13.3333 I-0.397 J0.0
G2 Y249.8988 Z-13.4167 I0.1985 J0.3438
G2 X600.472 Y249.555 Z-13.5 I0.1985 J-0.3438
G2 X599.8765 Y249.2112 Z-13.5833 I-0.397 J0.0
G2 Y249.8988 Z-13.6667 I0.1985 J0.3438
G2 X600.472 Y249.555 Z-13.75 I0.1985 J-0.3438
G2 X599.8765 Y249.2112 Z-13.8333 I-0.397 J0.0
G2 Y249.8988 Z-13.9167 I0.1985 J0.3438
G2 X600.472 Y249.555 Z-14.0 I0.1985 J-0.3438
G2 X599.8765 Y249.2112 Z-14.0833 I-0.397 J0.0
G2 Y249.8988 Z-14.1667 I0.1985 J0.3438
G2 X600.472 Y249.555 Z-14.25 I0.1985 J-0.3438
G2 X599.8765 Y249.2112 Z-14.3333 I-0.397 J0.0
G2 Y249.8988 Z-14.4167 I0.1985 J0.3438
G2 X600.472 Y249.555 Z-14.5 I0.1985 J-0.3438
G2 X599.8765 Y249.2112 Z-14.5833 I-0.397 J0.0
G2 Y249.8988 Z-14.6667 I0.1985 J0.3438
G2 X600.472 Y249.555 Z-14.75 I0.1985 J-0.3438
G2 X599.8765 Y249.2112 Z-14.8333 I-0.397 J0.0
G2 Y249.8988 Z-14.9167 I0.1985 J0.3438
G2 X600.472 Y249.555 Z-15.0 I0.1985 J-0.3438
G2 X599.8765 Y249.2112 Z-15.0833 I-0.397 J0.0
G2 Y249.8988 Z-15.1667 I0.1985 J0.3438
G2 X600.472 Y249.555 Z-15.25 I0.1985 J-0.3438
G2 X599.8765 Y249.2112 Z-15.3333 I-0.397 J0.0
G2 Y249.8988 Z-15.4167 I0.1985 J0.3438
G2 X600.472 Y249.555 Z-15.5 I0.1985 J-0.3438
G2 X599.8765 Y249.2112 Z-15.5833 I-0.397 J0.0
G2 Y249.8988 Z-15.6667 I0.1985 J0.3438
G2 X600.472 Y249.555 Z-15.75 I0.1985 J-0.3438
G2 X599.8765 Y249.2112 Z-15.8333 I-0.397 J0.0
G2 Y249.8988 Z-15.9167 I0.1985 J0.3438
G2 X600.472 Y249.555 Z-16.0 I0.1985 J-0.3438
G2 X599.8765 Y249.2112 Z-16.0833 I-0.397 J0.0
G2 Y249.8988 Z-16.1667 I0.1985 J0.3438
G2 X600.472 Y249.555 Z-16.25 I0.1985 J-0.3438
G2 X599.8765 Y249.2112 Z-16.3333 I-0.397 J0.0
G2 Y249.8988 Z-16.4167 I0.1985 J0.3438
G2 X600.472 Y249.555 Z-16.5 I0.1985 J-0.3438
G2 X599.8765 Y249.2112 Z-16.5833 I-0.397 J0.0
G2 Y249.8988 Z-16.6667 I0.1985 J0.3438
G2 X600.472 Y249.555 Z-16.75 I0.1985 J-0.3438
G2 X599.8765 Y249.2112 Z-16.8333 I-0.397 J0.0
G2 Y249.8988 Z-16.9167 I0.1985 J0.3438
G2 X600.472 Y249.555 Z-17.0 I0.1985 J-0.3438
G2 X599.8765 Y249.2112 Z-17.0833 I-0.397 J0.0
G2 Y249.8988 Z-17.1667 I0.1985 J0.3438
G2 X600.472 Y249.555 Z-17.25 I0.1985 J-0.3438
G2 X599.8765 Y249.2112 Z-17.3333 I-0.397 J0.0
G2 Y249.8988 Z-17.4167 I0.1985 J0.3438
G2 X600.472 Y249.555 Z-17.5 I0.1985 J-0.3438
G2 X599.8765 Y249.2112 Z-17.5833 I-0.397 J0.0
G2 Y249.8988 Z-17.6667 I0.1985 J0.3438
G2 X600.472 Y249.555 Z-17.75 I0.1985 J-0.3438
G2 X599.8765 Y249.2112 Z-17.8333 I-0.397 J0.0
G2 Y249.8988 Z-17.9167 I0.1985 J0.3438
G2 X600.472 Y249.555 Z-18.0 I0.1985 J-0.3438
G2 X599.8765 Y249.2112 Z-18.0833 I-0.397 J0.0
G2 Y249.8988 Z-18.1667 I0.1985 J0.3438
G2 X600.472 Y249.555 Z-18.25 I0.1985 J-0.3438
G2 X599.8765 Y249.2112 Z-18.3333 I-0.397 J0.0
G2 Y249.8988 Z-18.4167 I0.1985 J0.3438
G2 X600.472 Y249.555 Z-18.5 I0.1985 J-0.3438
G2 X599.8765 Y249.2112 Z-18.5833 I-0.397 J0.0
G2 Y249.8988 Z-18.6667 I0.1985 J0.3438
G2 X600.472 Y249.555 Z-18.75 I0.1985 J-0.3438
G2 X599.8765 Y249.2112 Z-18.8333 I-0.397 J0.0
G2 Y249.8988 Z-18.9167 I0.1985 J0.3438
G2 X600.472 Y249.555 Z-19.0 I0.1985 J-0.3438
G2 X599.8765 Y249.2112 Z-19.0833 I-0.397 J0.0
G2 Y249.8988 Z-19.1667 I0.1985 J0.3438
G2 X600.472 Y249.555 Z-19.25 I0.1985 J-0.3438
G2 X599.8765 Y249.2112 Z-19.3333 I-0.397 J0.0
G2 Y249.8988 Z-19.4167 I0.1985 J0.3438
G2 X600.472 Y249.555 Z-19.5 I0.1985 J-0.3438
G2 X599.8765 Y249.2112 Z-19.5833 I-0.397 J0.0
G2 Y249.8988 Z-19.6667 I0.1985 J0.3438
G2 X600.472 Y249.555 Z-19.75 I0.1985 J-0.3438
G2 X599.8765 Y249.2112 Z-19.8333 I-0.397 J0.0
G2 Y249.8988 Z-19.9167 I0.1985 J0.3438
G2 X600.472 Y249.555 Z-20.0 I0.1985 J-0.3438
G2 X599.8765 Y249.2112 Z-20.0833 I-0.397 J0.0
G2 Y249.8988 Z-20.1667 I0.1985 J0.3438
G2 X600.472 Y249.555 Z-20.25 I0.1985 J-0.3438
G2 X599.8765 Y249.2112 Z-20.3333 I-0.397 J0.0
G2 Y249.8988 Z-20.4167 I0.1985 J0.3438
G2 X600.472 Y249.555 Z-20.5 I0.1985 J-0.3438
G2 X599.8765 Y249.2112 Z-20.5833 I-0.397 J0.0
G2 Y249.8988 Z-20.6667 I0.1985 J0.3438
G2 X600.472 Y249.555 Z-20.75 I0.1985 J-0.3438
G2 X599.8765 Y249.2112 Z-20.8333 I-0.397 J0.0
G2 Y249.8988 Z-20.9167 I0.1985 J0.3438
G2 X600.472 Y249.555 Z-21.0 I0.1985 J-0.3438
G2 X599.8765 Y249.2112 I-0.397 J0.0
G2 Y249.8988 I0.1985 J0.3438
G2 X600.472 Y249.555 I0.1985 J-0.3438
G0 Z12.0
G0 Y609.6
G0 Z0.1
G1 F120.0 Z0.0
G2 F3000.0 X599.8765 Y609.2562 Z-0.0833 I-0.397 J0.0
G2 Y609.9438 Z-0.1667 I0.1985 J0.3438
G2 X600.472 Y609.6 Z-0.25 I0.1985 J-0.3438
G2 X599.8765 Y609.2562 Z-0.3333 I-0.397 J0.0
G2 Y609.9438 Z-0.4167 I0.1985 J0.3438
G2 X600.472 Y609.6 Z-0.5 I0.1985 J-0.3438
G2 X599.8765 Y609.2562 Z-0.5833 I-0.397 J0.0
G2 Y609.9438 Z-0.6667 I0.1985 J0.3438
G2 X600.472 Y609.6 Z-0.75 I0.1985 J-0.3438
G2 X599.8765 Y609.2562 Z-0.8333 I-0.397 J0.0
G2 Y609.9438 Z-0.9167 I0.1985 J0.3438
G2 X600.472 Y609.6 Z-1.0 I0.1985 J-0.3438
G2 X599.8765 Y609.2562 Z-1.0833 I-0.397 J0.0
G2 Y609.9438 Z-1.1667 I0.1985 J0.3438
G2 X600.472 Y609.6 Z-1.25 I0.1985 J-0.3438
G2 X599.8765 Y609.2562 Z-1.3333 I-0.397 J0.0
G2 Y609.9438 Z-1.4167 I0.1985 J0.3438
G2 X600.472 Y609.6 Z-1.5 I0.1985 J-0.3438
G2 X599.8765 Y609.2562 Z-1.5833 I-0.397 J0.0
G2 Y609.9438 Z-1.6667 I0.1985 J0.3438
G2 X600.472 Y609.6 Z-1.75 I0.1985 J-0.3438
G2 X599.8765 Y609.2562 Z-1.8333 I-0.397 J0.0
G2 Y609.9438 Z-1.9167 I0.1985 J0.3438
G2 X600.472 Y609.6 Z-2.0 I0.1985 J-0.3438
G2 X599.8765 Y609.2562 Z-2.0833 I-0.397 J0.0
G2 Y609.9438 Z-2.1667 I0.1985 J0.3438
G2 X600.472 Y609.6 Z-2.25 I0.1985 J-0.3438
G2 X599.8765 Y609.2562 Z-2.3333 I-0.397 J0.0
G2 Y609.9438 Z-2.4167 I0.1985 J0.3438
G2 X600.472 Y609.6 Z-2.5 I0.1985 J-0.3438
G2 X599.8765 Y609.2562 Z-2.5833 I-0.397 J0.0
G2 Y609.9438 Z-2.6667 I0.1985 J0.3438
G2 X600.472 Y609.6 Z-2.75 I0.1985 J-0.3438
G2 X599.8765 Y609.2562 Z-2.8333 I-0.397 J0.0
G2 Y609.9438 Z-2.9167 I0.1985 J0.3438
G2 X600.472 Y609.6 Z-3.0 I0.1985 J-0.3438
G2 X599.8765 Y609.2562 Z-3.0833 I-0.397 J0.0
G2 Y609.9438 Z-3.1667 I0.1985 J0.3438
G2 X600.472 Y609.6 Z-3.25 I0.1985 J-0.3438
G2 X599.8765 Y609.2562 Z-3.3333 I-0.397 J0.0
G2 Y609.9438 Z-3.4167 I0.1985 J0.3438
G2 X600.472 Y609.6 Z-3.5 I0.1985 J-0.3438
G2 X599.8765 Y609.2562 Z-3.5833 I-0.397 J0.0
G2 Y609.9438 Z-3.6667 I0.1985 J0.3438
G2 X600.472 Y609.6 Z-3.75 I0.1985 J-0.3438
G2 X599.8765 Y609.2562 Z-3.8333 I-0.397 J0.0
G2 Y609.9438 Z-3.9167 I0.1985 J0.3438
G2 X600.472 Y609.6 Z-4.0 I0.1985 J-0.3438
G2 X599.8765 Y609.2562 Z-4.0833 I-0.397 J0.0
G2 Y609.9438 Z-4.1667 I0.1985 J0.3438
G2 X600.472 Y609.6 Z-4.25 I0.1985 J-0.3438
G2 X599.8765 Y609.2562 Z-4.3333 I-0.397 J0.0
G2 Y609.9438 Z-4.4167 I0.1985 J0.3438
G2 X600.472 Y609.6 Z-4.5 I0.1985 J-0.3438
G2 X599.8765 Y609.2562 Z-4.5833 I-0.397 J0.0
G2 Y609.9438 Z-4.6667 I0.1985 J0.3438
G2 X600.472 Y609.6 Z-4.75 I0.1985 J-0.3438
G2 X599.8765 Y609.2562 Z-4.8333 I-0.397 J0.0
G2 Y609.9438 Z-4.9167 I0.1985 J0.3438
G2 X600.472 Y609.6 Z-5.0 I0.1985 J-0.3438
G2 X599.8765 Y609.2562 Z-5.0833 I-0.397 J0.0
G2 Y609.9438 Z-5.1667 I0.1985 J0.3438
G2 X600.472 Y609.6 Z-5.25 I0.1985 J-0.3438
G2 X599.8765 Y609.2562 Z-5.3333 I-0.397 J0.0
G2 Y609.9438 Z-5.4167 I0.1985 J0.3438
G2 X600.472 Y609.6 Z-5.5 I0.1985 J-0.3438
G2 X599.8765 Y609.2562 Z-5.5833 I-0.397 J0.0
G2 Y609.9438 Z-5.6667 I0.1985 J0.3438
G2 X600.472 Y609.6 Z-5.75 I0.1985 J-0.3438
G2 X599.8765 Y609.2562 Z-5.8333 I-0.397 J0.0
G2 Y609.9438 Z-5.9167 I0.1985 J0.3438
G2 X600.472 Y609.6 Z-6.0 I0.1985 J-0.3438
G2 X599.8765 Y609.2562 Z-6.0833 I-0.397 J0.0
G2 Y609.9438 Z-6.1667 I0.1985 J0.3438
G2 X600.472 Y609.6 Z-6.25 I0.1985 J-0.3438
G2 X599.8765 Y609.2562 Z-6.3333 I-0.397 J0.0
G2 Y609.9438 Z-6.4167 I0.1985 J0.3438
G2 X600.472 Y609.6 Z-6.5 I0.1985 J-0.3438
G2 X599.8765 Y609.2562 Z-6.5833 I-0.397 J0.0
G2 Y609.9438 Z-6.6667 I0.1985 J0.3438
G2 X600.472 Y609.6 Z-6.75 I0.1985 J-0.3438
G2 X599.8765 Y609.2562 Z-6.8333 I-0.397 J0.0
G2 Y609.9438 Z-6.9167 I0.1985 J0.3438
G2 X600.472 Y609.6 Z-7.0 I0.1985 J-0.3438
G2 X599.8765 Y609.2562 Z-7.0833 I-0.397 J0.0
G2 Y609.9438 Z-7.1667 I0.1985 J0.3438
G2 X600.472 Y609.6 Z-7.25 I0.1985 J-0.3438
G2 X599.8765 Y609.2562 Z-7.3333 I-0.397 J0.0
G2 Y609.9438 Z-7.4167 I0.1985 J0.3438
G2 X600.472 Y609.6 Z-7.5 I0.1985 J-0.3438
G2 X599.8765 Y609.2562 Z-7.5833 I-0.397 J0.0
G2 Y609.9438 Z-7.6667 I0.1985 J0.3438
G2 X600.472 Y609.6 Z-7.75 I0.1985 J-0.3438
G2 X599.8765 Y609.2562 Z-7.8333 I-0.397 J0.0
G2 Y609.9438 Z-7.9167 I0.1985 J0.3438
G2 X600.472 Y609.6 Z-8.0 I0.1985 J-0.3438
G2 X599.8765 Y609.2562 Z-8.0833 I-0.397 J0.0
G2 Y609.9438 Z-8.1667 I0.1985 J0.3438
G2 X600.472 Y609.6 Z-8.25 I0.1985 J-0.3438
G2 X599.8765 Y609.2562 Z-8.3333 I-0.397 J0.0
G2 Y609.9438 Z-8.4167 I0.1985 J0.3438
G2 X600.472 Y609.6 Z-8.5 I0.1985 J-0.3438
G2 X599.8765 Y609.2562 Z-8.5833 I-0.397 J0.0
G2 Y609.9438 Z-8.6667 I0.1985 J0.3438
G2 X600.472 Y609.6 Z-8.75 I0.1985 J-0.3438
G2 X599.8765 Y609.2562 Z-8.8333 I-0.397 J0.0
G2 Y609.9438 Z-8.9167 I0.1985 J0.3438
G2 X600.472 Y609.6 Z-9.0 I0.1985 J-0.3438
G2 X599.8765 Y609.2562 Z-9.0833 I-0.397 J0.0
G2 Y609.9438 Z-9.1667 I0.1985 J0.3438
G2 X600.472 Y609.6 Z-9.25 I0.1985 J-0.3438
G2 X599.8765 Y609.2562 Z-9.3333 I-0.397 J0.0
G2 Y609.9438 Z-9.4167 I0.1985 J0.3438
G2 X600.472 Y609.6 Z-9.5 I0.1985 J-0.3438
G2 X599.8765 Y609.2562 Z-9.5833 I-0.397 J0.0
G2 Y609.9438 Z-9.6667 I0.1985 J0.3438
G2 X600.472 Y609.6 Z-9.75 I0.1985 J-0.3438
G2 X599.8765 Y609.2562 Z-9.8333 I-0.397 J0.0
G2 Y609.9438 Z-9.9167 I0.1985 J0.3438
G2 X600.472 Y609.6 Z-10.0 I0.1985 J-0.3438
G2 X599.8765 Y609.2562 Z-10.0833 I-0.397 J0.0
G2 Y609.9438 Z-10.1667 I0.1985 J0.3438
G2 X600.472 Y609.6 Z-10.25 I0.1985 J-0.3438
G2 X599.8765 Y609.2562 Z-10.3333 I-0.397 J0.0
G2 Y609.9438 Z-10.4167 I0.1985 J0.3438
G2 X600.472 Y609.6 Z-10.5 I0.1985 J-0.3438
G2 X599.8765 Y609.2562 Z-10.5833 I-0.397 J0.0
G2 Y609.9438 Z-10.6667 I0.1985 J0.3438
G2 X600.472 Y609.6 Z-10.75 I0.1985 J-0.3438
G2 X599.8765 Y609.2562 Z-10.8333 I-0.397 J0.0
G2 Y609.9438 Z-10.9167 I0.1985 J0.3438
G2 X600.472 Y609.6 Z-11.0 I0.1985 J-0.3438
G2 X599.8765 Y609.2562 Z-11.0833 I-0.397 J0.0
G2 Y609.9438 Z-11.1667 I0.1985 J0.3438
G2 X600.472 Y609.6 Z-11.25 I0.1985 J-0.3438
G2 X599.8765 Y609.2562 Z-11.3333 I-0.397 J0.0
G2 Y609.9438 Z-11.4167 I0.1985 J0.3438
G2 X600.472 Y609.6 Z-11.5 I0.1985 J-0.3438
G2 X599.8765 Y609.2562 Z-11.5833 I-0.397 J0.0
G2 Y609.9438 Z-11.6667 I0.1985 J0.3438
G2 X600.472 Y609.6 Z-11.75 I0.1985 J-0.3438
G2 X599.8765 Y609.2562 Z-11.8333 I-0.397 J0.0
G2 Y609.9438 Z-11.9167 I0.1985 J0.3438
G2 X600.472 Y609.6 Z-12.0 I0.1985 J-0.3438
G2 X599.8765 Y609.2562 Z-12.0833 I-0.397 J0.0
G2 Y609.9438 Z-12.1667 I0.1985 J0.3438
G2 X600.472 Y609.6 Z-12.25 I0.1985 J-0.3438
G2 X599.8765 Y609.2562 Z-12.3333 I-0.397 J0.0
G2 Y609.9438 Z-12.4167 I0.1985 J0.3438
G2 X600.472 Y609.6 Z-12.5 I0.1985 J-0.3438
G2 X599.8765 Y609.2562 Z-12.5833 I-0.397 J0.0
G2 Y609.9438 Z-12.6667 I0.1985 J0.3438
G2 X600.472 Y609.6 Z-12.75 I0.1985 J-0.3438
G2 X599.8765 Y609.2562 Z-12.8333 I-0.397 J0.0
G2 Y609.9438 Z-12.9167 I0.1985 J0.3438
G2 X600.472 Y609.6 Z-13.0 I0.1985 J-0.3438
G2 X599.8765 Y609.2562 Z-13.0833 I-0.397 J0.0
G2 Y609.9438 Z-13.1667 I0.1985 J0.3438
G2 X600.472 Y609.6 Z-13.25 I0.1985 J-0.3438
G2 X599.8765 Y609.2562 Z-13.3333 I-0.397 J0.0
G2 Y609.9438 Z-13.4167 I0.1985 J0.3438
G2 X600.472 Y609.6 Z-13.5 I0.1985 J-0.3438
G2 X599.8765 Y609.2562 Z-13.5833 I-0.397 J0.0
G2 Y609.9438 Z-13.6667 I0.1985 J0.3438
G2 X600.472 Y609.6 Z-13.75 I0.1985 J-0.3438
G2 X599.8765 Y609.2562 Z-13.8333 I-0.397 J0.0
G2 Y609.9438 Z-13.9167 I0.1985 J0.3438
G2 X600.472 Y609.6 Z-14.0 I0.1985 J-0.3438
G2 X599.8765 Y609.2562 Z-14.0833 I-0.397 J0.0
G2 Y609.9438 Z-14.1667 I0.1985 J0.3438
G2 X600.472 Y609.6 Z-14.25 I0.1985 J-0.3438
G2 X599.8765 Y609.2562 Z-14.3333 I-0.397 J0.0
G2 Y609.9438 Z-14.4167 I0.1985 J0.3438
G2 X600.472 Y609.6 Z-14.5 I0.1985 J-0.3438
G2 X599.8765 Y609.2562 Z-14.5833 I-0.397 J0.0
G2 Y609.9438 Z-14.6667 I0.1985 J0.3438
G2 X600.472 Y609.6 Z-14.75 I0.1985 J-0.3438
G2 X599.8765 Y609.2562 Z-14.8333 I-0.397 J0.0
G2 Y609.9438 Z-14.9167 I0.1985 J0.3438
G2 X600.472 Y609.6 Z-15.0 I0.1985 J-0.3438
G2 X599.8765 Y609.2562 Z-15.0833 I-0.397 J0.0
G2 Y609.9438 Z-15.1667 I0.1985 J0.3438
G2 X600.472 Y609.6 Z-15.25 I0.1985 J-0.3438
G2 X599.8765 Y609.2562 Z-15.3333 I-0.397 J0.0
G2 Y609.9438 Z-15.4167 I0.1985 J0.3438
G2 X600.472 Y609.6 Z-15.5 I0.1985 J-0.3438
G2 X599.8765 Y609.2562 Z-15.5833 I-0.397 J0.0
G2 Y609.9438 Z-15.6667 I0.1985 J0.3438
G2 X600.472 Y609.6 Z-15.75 I0.1985 J-0.3438
G2 X599.8765 Y609.2562 Z-15.8333 I-0.397 J0.0
G2 Y609.9438 Z-15.9167 I0.1985 J0.3438
G2 X600.472 Y609.6 Z-16.0 I0.1985 J-0.3438
G2 X599.8765 Y609.2562 Z-16.0833 I-0.397 J0.0
G2 Y609.9438 Z-16.1667 I0.1985 J0.3438
G2 X600.472 Y609.6 Z-16.25 I0.1985 J-0.3438
G2 X599.8765 Y609.2562 Z-16.3333 I-0.397 J0.0
G2 Y609.9438 Z-16.4167 I0.1985 J0.3438
G2 X600.472 Y609.6 Z-16.5 I0.1985 J-0.3438
G2 X599.8765 Y609.2562 Z-16.5833 I-0.397 J0.0
G2 Y609.9438 Z-16.6667 I0.1985 J0.3438
G2 X600.472 Y609.6 Z-16.75 I0.1985 J-0.3438
G2 X599.8765 Y609.2562 Z-16.8333 I-0.397 J0.0
G2 Y609.9438 Z-16.9167 I0.1985 J0.3438
G2 X600.472 Y609.6 Z-17.0 I0.1985 J-0.3438
G2 X599.8765 Y609.2562 Z-17.0833 I-0.397 J0.0
G2 Y609.9438 Z-17.1667 I0.1985 J0.3438
G2 X600.472 Y609.6 Z-17.25 I0.1985 J-0.3438
G2 X599.8765 Y609.2562 Z-17.3333 I-0.397 J0.0
G2 Y609.9438 Z-17.4167 I0.1985 J0.3438
G2 X600.472 Y609.6 Z-17.5 I0.1985 J-0.3438
G2 X599.8765 Y609.2562 Z-17.5833 I-0.397 J0.0
G2 Y609.9438 Z-17.6667 I0.1985 J0.3438
G2 X600.472 Y609.6 Z-17.75 I0.1985 J-0.3438
G2 X599.8765 Y609.2562 Z-17.8333 I-0.397 J0.0
G2 Y609.9438 Z-17.9167 I0.1985 J0.3438
G2 X600.472 Y609.6 Z-18.0 I0.1985 J-0.3438
G2 X599.8765 Y609.2562 Z-18.0833 I-0.397 J0.0
G2 Y609.9438 Z-18.1667 I0.1985 J0.3438
G2 X600.472 Y609.6 Z-18.25 I0.1985 J-0.3438
G2 X599.8765 Y609.2562 Z-18.3333 I-0.397 J0.0
G2 Y609.9438 Z-18.4167 I0.1985 J0.3438
G2 X600.472 Y609.6 Z-18.5 I0.1985 J-0.3438
G2 X599.8765 Y609.2562 Z-18.5833 I-0.397 J0.0
G2 Y609.9438 Z-18.6667 I0.1985 J0.3438
G2 X600.472 Y609.6 Z-18.75 I0.1985 J-0.3438
G2 X599.8765 Y609.2562 Z-18.8333 I-0.397 J0.0
G2 Y609.9438 Z-18.9167 I0.1985 J0.3438
G2 X600.472 Y609.6 Z-19.0 I0.1985 J-0.3438
G2 X599.8765 Y609.2562 Z-19.0833 I-0.397 J0.0
G2 Y609.9438 Z-19.1667 I0.1985 J0.3438
G2 X600.472 Y609.6 Z-19.25 I0.1985 J-0.3438
G2 X599.8765 Y609.2562 Z-19.3333 I-0.397 J0.0
G2 Y609.9438 Z-19.4167 I0.1985 J0.3438
G2 X600.472 Y609.6 Z-19.5 I0.1985 J-0.3438
G2 X599.8765 Y609.2562 Z-19.5833 I-0.397 J0.0
G2 Y609.9438 Z-19.6667 I0.1985 J0.3438
G2 X600.472 Y609.6 Z-19.75 I0.1985 J-0.3438
G2 X599.8765 Y609.2562 Z-19.8333 I-0.397 J0.0
G2 Y609.9438 Z-19.9167 I0.1985 J0.3438
G2 X600.472 Y609.6 Z-20.0 I0.1985 J-0.3438
G2 X599.8765 Y609.2562 Z-20.0833 I-0.397 J0.0
G2 Y609.9438 Z-20.1667 I0.1985 J0.3438
G2 X600.472 Y609.6 Z-20.25 I0.1985 J-0.3438
G2 X599.8765 Y609.2562 Z-20.3333 I-0.397 J0.0
G2 Y609.9438 Z-20.4167 I0.1985 J0.3438
G2 X600.472 Y609.6 Z-20.5 I0.1985 J-0.3438
G2 X599.8765 Y609.2562 Z-20.5833 I-0.397 J0.0
G2 Y609.9438 Z-20.6667 I0.1985 J0.3438
G2 X600.472 Y609.6 Z-20.75 I0.1985 J-0.3438
G2 X599.8765 Y609.2562 Z-20.8333 I-0.397 J0.0
G2 Y609.9438 Z-20.9167 I0.1985 J0.3438
G2 X600.472 Y609.6 Z-21.0 I0.1985 J-0.3438
G2 X599.8765 Y609.2562 I-0.397 J0.0
G2 Y609.9438 I0.1985 J0.3438
G2 X600.472 Y609.6 I0.1985 J-0.3438
G0 Z12.0
G0 Y969.645
G0 Z0.1
G1 F120.0 Z0.0
G2 F3000.0 X599.8765 Y969.3012 Z-0.0833 I-0.397 J0.0
G2 Y969.9888 Z-0.1667 I0.1985 J0.3438
G2 X600.472 Y969.645 Z-0.25 I0.1985 J-0.3438
G2 X599.8765 Y969.3012 Z-0.3333 I-0.397 J0.0
G2 Y969.9888 Z-0.4167 I0.1985 J0.3438
G2 X600.472 Y969.645 Z-0.5 I0.1985 J-0.3438
G2 X599.8765 Y969.3012 Z-0.5833 I-0.397 J0.0
G2 Y969.9888 Z-0.6667 I0.1985 J0.3438
G2 X600.472 Y969.645 Z-0.75 I0.1985 J-0.3438
G2 X599.8765 Y969.3012 Z-0.8333 I-0.397 J0.0
G2 Y969.9888 Z-0.9167 I0.1985 J0.3438
G2 X600.472 Y969.645 Z-1.0 I0.1985 J-0.3438
G2 X599.8765 Y969.3012 Z-1.0833 I-0.397 J0.0
G2 Y969.9888 Z-1.1667 I0.1985 J0.3438
G2 X600.472 Y969.645 Z-1.25 I0.1985 J-0.3438
G2 X599.8765 Y969.3012 Z-1.3333 I-0.397 J0.0
G2 Y969.9888 Z-1.4167 I0.1985 J0.3438
G2 X600.472 Y969.645 Z-1.5 I0.1985 J-0.3438
G2 X599.8765 Y969.3012 Z-1.5833 I-0.397 J0.0
G2 Y969.9888 Z-1.6667 I0.1985 J0.3438
G2 X600.472 Y969.645 Z-1.75 I0.1985 J-0.3438
G2 X599.8765 Y969.3012 Z-1.8333 I-0.397 J0.0
G2 Y969.9888 Z-1.9167 I0.1985 J0.3438
G2 X600.472 Y969.645 Z-2.0 I0.1985 J-0.3438
G2 X599.8765 Y969.3012 Z-2.0833 I-0.397 J0.0
G2 Y969.9888 Z-2.1667 I0.1985 J0.3438
G2 X600.472 Y969.645 Z-2.25 I0.1985 J-0.3438
G2 X599.8765 Y969.3012 Z-2.3333 I-0.397 J0.0
G2 Y969.9888 Z-2.4167 I0.1985 J0.3438
G2 X600.472 Y969.645 Z-2.5 I0.1985 J-0.3438
G2 X599.8765 Y969.3012 Z-2.5833 I-0.397 J0.0
G2 Y969.9888 Z-2.6667 I0.1985 J0.3438
G2 X600.472 Y969.645 Z-2.75 I0.1985 J-0.3438
G2 X599.8765 Y969.3012 Z-2.8333 I-0.397 J0.0
G2 Y969.9888 Z-2.9167 I0.1985 J0.3438
G2 X600.472 Y969.645 Z-3.0 I0.1985 J-0.3438
G2 X599.8765 Y969.3012 Z-3.0833 I-0.397 J0.0
G2 Y969.9888 Z-3.1667 I0.1985 J0.3438
G2 X600.472 Y969.645 Z-3.25 I0.1985 J-0.3438
G2 X599.8765 Y969.3012 Z-3.3333 I-0.397 J0.0
G2 Y969.9888 Z-3.4167 I0.1985 J0.3438
G2 X600.472 Y969.645 Z-3.5 I0.1985 J-0.3438
G2 X599.8765 Y969.3012 Z-3.5833 I-0.397 J0.0
G2 Y969.9888 Z-3.6667 I0.1985 J0.3438
G2 X600.472 Y969.645 Z-3.75 I0.1985 J-0.3438
G2 X599.8765 Y969.3012 Z-3.8333 I-0.397 J0.0
G2 Y969.9888 Z-3.9167 I0.1985 J0.3438
G2 X600.472 Y969.645 Z-4.0 I0.1985 J-0.3438
G2 X599.8765 Y969.3012 Z-4.0833 I-0.397 J0.0
G2 Y969.9888 Z-4.1667 I0.1985 J0.3438
G2 X600.472 Y969.645 Z-4.25 I0.1985 J-0.3438
G2 X599.8765 Y969.3012 Z-4.3333 I-0.397 J0.0
G2 Y969.9888 Z-4.4167 I0.1985 J0.3438
G2 X600.472 Y969.645 Z-4.5 I0.1985 J-0.3438
G2 X599.8765 Y969.3012 Z-4.5833 I-0.397 J0.0
G2 Y969.9888 Z-4.6667 I0.1985 J0.3438
G2 X600.472 Y969.645 Z-4.75 I0.1985 J-0.3438
G2 X599.8765 Y969.3012 Z-4.8333 I-0.397 J0.0
G2 Y969.9888 Z-4.9167 I0.1985 J0.3438
G2 X600.472 Y969.645 Z-5.0 I0.1985 J-0.3438
G2 X599.8765 Y969.3012 Z-5.0833 I-0.397 J0.0
G2 Y969.9888 Z-5.1667 I0.1985 J0.3438
G2 X600.472 Y969.645 Z-5.25 I0.1985 J-0.3438
G2 X599.8765 Y969.3012 Z-5.3333 I-0.397 J0.0
G2 Y969.9888 Z-5.4167 I0.1985 J0.3438
G2 X600.472 Y969.645 Z-5.5 I0.1985 J-0.3438
G2 X599.8765 Y969.3012 Z-5.5833 I-0.397 J0.0
G2 Y969.9888 Z-5.6667 I0.1985 J0.3438
G2 X600.472 Y969.645 Z-5.75 I0.1985 J-0.3438
G2 X599.8765 Y969.3012 Z-5.8333 I-0.397 J0.0
G2 Y969.9888 Z-5.9167 I0.1985 J0.3438
G2 X600.472 Y969.645 Z-6.0 I0.1985 J-0.3438
G2 X599.8765 Y969.3012 Z-6.0833 I-0.397 J0.0
G2 Y969.9888 Z-6.1667 I0.1985 J0.3438
G2 X600.472 Y969.645 Z-6.25 I0.1985 J-0.3438
G2 X599.8765 Y969.3012 Z-6.3333 I-0.397 J0.0
G2 Y969.9888 Z-6.4167 I0.1985 J0.3438
G2 X600.472 Y969.645 Z-6.5 I0.1985 J-0.3438
G2 X599.8765 Y969.3012 Z-6.5833 I-0.397 J0.0
G2 Y969.9888 Z-6.6667 I0.1985 J0.3438
G2 X600.472 Y969.645 Z-6.75 I0.1985 J-0.3438
G2 X599.8765 Y969.3012 Z-6.8333 I-0.397 J0.0
G2 Y969.9888 Z-6.9167 I0.1985 J0.3438
G2 X600.472 Y969.645 Z-7.0 I0.1985 J-0.3438
G2 X599.8765 Y969.3012 Z-7.0833 I-0.397 J0.0
G2 Y969.9888 Z-7.1667 I0.1985 J0.3438
G2 X600.472 Y969.645 Z-7.25 I0.1985 J-0.3438
G2 X599.8765 Y969.3012 Z-7.3333 I-0.397 J0.0
G2 Y969.9888 Z-7.4167 I0.1985 J0.3438
G2 X600.472 Y969.645 Z-7.5 I0.1985 J-0.3438
G2 X599.8765 Y969.3012 Z-7.5833 I-0.397 J0.0
G2 Y969.9888 Z-7.6667 I0.1985 J0.3438
G2 X600.472 Y969.645 Z-7.75 I0.1985 J-0.3438
G2 X599.8765 Y969.3012 Z-7.8333 I-0.397 J0.0
G2 Y969.9888 Z-7.9167 I0.1985 J0.3438
G2 X600.472 Y969.645 Z-8.0 I0.1985 J-0.3438
G2 X599.8765 Y969.3012 Z-8.0833 I-0.397 J0.0
G2 Y969.9888 Z-8.1667 I0.1985 J0.3438
G2 X600.472 Y969.645 Z-8.25 I0.1985 J-0.3438
G2 X599.8765 Y969.3012 Z-8.3333 I-0.397 J0.0
G2 Y969.9888 Z-8.4167 I0.1985 J0.3438
G2 X600.472 Y969.645 Z-8.5 I0.1985 J-0.3438
G2 X599.8765 Y969.3012 Z-8.5833 I-0.397 J0.0
G2 Y969.9888 Z-8.6667 I0.1985 J0.3438
G2 X600.472 Y969.645 Z-8.75 I0.1985 J-0.3438
G2 X599.8765 Y969.3012 Z-8.8333 I-0.397 J0.0
G2 Y969.9888 Z-8.9167 I0.1985 J0.3438
G2 X600.472 Y969.645 Z-9.0 I0.1985 J-0.3438
G2 X599.8765 Y969.3012 Z-9.0833 I-0.397 J0.0
G2 Y969.9888 Z-9.1667 I0.1985 J0.3438
G2 X600.472 Y969.645 Z-9.25 I0.1985 J-0.3438
G2 X599.8765 Y969.3012 Z-9.3333 I-0.397 J0.0
G2 Y969.9888 Z-9.4167 I0.1985 J0.3438
G2 X600.472 Y969.645 Z-9.5 I0.1985 J-0.3438
G2 X599.8765 Y969.3012 Z-9.5833 I-0.397 J0.0
G2 Y969.9888 Z-9.6667 I0.1985 J0.3438
G2 X600.472 Y969.645 Z-9.75 I0.1985 J-0.3438
G2 X599.8765 Y969.3012 Z-9.8333 I-0.397 J0.0
G2 Y969.9888 Z-9.9167 I0.1985 J0.3438
G2 X600.472 Y969.645 Z-10.0 I0.1985 J-0.3438
G2 X599.8765 Y969.3012 Z-10.0833 I-0.397 J0.0
G2 Y969.9888 Z-10.1667 I0.1985 J0.3438
G2 X600.472 Y969.645 Z-10.25 I0.1985 J-0.3438
G2 X599.8765 Y969.3012 Z-10.3333 I-0.397 J0.0
G2 Y969.9888 Z-10.4167 I0.1985 J0.3438
G2 X600.472 Y969.645 Z-10.5 I0.1985 J-0.3438
G2 X599.8765 Y969.3012 Z-10.5833 I-0.397 J0.0
G2 Y969.9888 Z-10.6667 I0.1985 J0.3438
G2 X600.472 Y969.645 Z-10.75 I0.1985 J-0.3438
G2 X599.8765 Y969.3012 Z-10.8333 I-0.397 J0.0
G2 Y969.9888 Z-10.9167 I0.1985 J0.3438
G2 X600.472 Y969.645 Z-11.0 I0.1985 J-0.3438
G2 X599.8765 Y969.3012 Z-11.0833 I-0.397 J0.0
G2 Y969.9888 Z-11.1667 I0.1985 J0.3438
G2 X600.472 Y969.645 Z-11.25 I0.1985 J-0.3438
G2 X599.8765 Y969.3012 Z-11.3333 I-0.397 J0.0
G2 Y969.9888 Z-11.4167 I0.1985 J0.3438
G2 X600.472 Y969.645 Z-11.5 I0.1985 J-0.3438
G2 X599.8765 Y969.3012 Z-11.5833 I-0.397 J0.0
G2 Y969.9888 Z-11.6667 I0.1985 J0.3438
G2 X600.472 Y969.645 Z-11.75 I0.1985 J-0.3438
G2 X599.8765 Y969.3012 Z-11.8333 I-0.397 J0.0
G2 Y969.9888 Z-11.9167 I0.1985 J0.3438
G2 X600.472 Y969.645 Z-12.0 I0.1985 J-0.3438
G2 X599.8765 Y969.3012 Z-12.0833 I-0.397 J0.0
G2 Y969.9888 Z-12.1667 I0.1985 J0.3438
G2 X600.472 Y969.645 Z-12.25 I0.1985 J-0.3438
G2 X599.8765 Y969.3012 Z-12.3333 I-0.397 J0.0
G2 Y969.9888 Z-12.4167 I0.1985 J0.3438
G2 X600.472 Y969.645 Z-12.5 I0.1985 J-0.3438
G2 X599.8765 Y969.3012 Z-12.5833 I-0.397 J0.0
G2 Y969.9888 Z-12.6667 I0.1985 J0.3438
G2 X600.472 Y969.645 Z-12.75 I0.1985 J-0.3438
G2 X599.8765 Y969.3012 Z-12.8333 I-0.397 J0.0
G2 Y969.9888 Z-12.9167 I0.1985 J0.3438
G2 X600.472 Y969.645 Z-13.0 I0.1985 J-0.3438
G2 X599.8765 Y969.3012 Z-13.0833 I-0.397 J0.0
G2 Y969.9888 Z-13.1667 I0.1985 J0.3438
G2 X600.472 Y969.645 Z-13.25 I0.1985 J-0.3438
G2 X599.8765 Y969.3012 Z-13.3333 I-0.397 J0.0
G2 Y969.9888 Z-13.4167 I0.1985 J0.3438
G2 X600.472 Y969.645 Z-13.5 I0.1985 J-0.3438
G2 X599.8765 Y969.3012 Z-13.5833 I-0.397 J0.0
G2 Y969.9888 Z-13.6667 I0.1985 J0.3438
G2 X600.472 Y969.645 Z-13.75 I0.1985 J-0.3438
G2 X599.8765 Y969.3012 Z-13.8333 I-0.397 J0.0
G2 Y969.9888 Z-13.9167 I0.1985 J0.3438
G2 X600.472 Y969.645 Z-14.0 I0.1985 J-0.3438
G2 X599.8765 Y969.3012 Z-14.0833 I-0.397 J0.0
G2 Y969.9888 Z-14.1667 I0.1985 J0.3438
G2 X600.472 Y969.645 Z-14.25 I0.1985 J-0.3438
G2 X599.8765 Y969.3012 Z-14.3333 I-0.397 J0.0
G2 Y969.9888 Z-14.4167 I0.1985 J0.3438
G2 X600.472 Y969.645 Z-14.5 I0.1985 J-0.3438
G2 X599.8765 Y969.3012 Z-14.5833 I-0.397 J0.0
G2 Y969.9888 Z-14.6667 I0.1985 J0.3438
G2 X600.472 Y969.645 Z-14.75 I0.1985 J-0.3438
G2 X599.8765 Y969.3012 Z-14.8333 I-0.397 J0.0
G2 Y969.9888 Z-14.9167 I0.1985 J0.3438
G2 X600.472 Y969.645 Z-15.0 I0.1985 J-0.3438
G2 X599.8765 Y969.3012 Z-15.0833 I-0.397 J0.0
G2 Y969.9888 Z-15.1667 I0.1985 J0.3438
G2 X600.472 Y969.645 Z-15.25 I0.1985 J-0.3438
G2 X599.8765 Y969.3012 Z-15.3333 I-0.397 J0.0
G2 Y969.9888 Z-15.4167 I0.1985 J0.3438
G2 X600.472 Y969.645 Z-15.5 I0.1985 J-0.3438
G2 X599.8765 Y969.3012 Z-15.5833 I-0.397 J0.0
G2 Y969.9888 Z-15.6667 I0.1985 J0.3438
G2 X600.472 Y969.645 Z-15.75 I0.1985 J-0.3438
G2 X599.8765 Y969.3012 Z-15.8333 I-0.397 J0.0
G2 Y969.9888 Z-15.9167 I0.1985 J0.3438
G2 X600.472 Y969.645 Z-16.0 I0.1985 J-0.3438
G2 X599.8765 Y969.3012 Z-16.0833 I-0.397 J0.0
G2 Y969.9888 Z-16.1667 I0.1985 J0.3438
G2 X600.472 Y969.645 Z-16.25 I0.1985 J-0.3438
G2 X599.8765 Y969.3012 Z-16.3333 I-0.397 J0.0
G2 Y969.9888 Z-16.4167 I0.1985 J0.3438
G2 X600.472 Y969.645 Z-16.5 I0.1985 J-0.3438
G2 X599.8765 Y969.3012 Z-16.5833 I-0.397 J0.0
G2 Y969.9888 Z-16.6667 I0.1985 J0.3438
G2 X600.472 Y969.645 Z-16.75 I0.1985 J-0.3438
G2 X599.8765 Y969.3012 Z-16.8333 I-0.397 J0.0
G2 Y969.9888 Z-16.9167 I0.1985 J0.3438
G2 X600.472 Y969.645 Z-17.0 I0.1985 J-0.3438
G2 X599.8765 Y969.3012 Z-17.0833 I-0.397 J0.0
G2 Y969.9888 Z-17.1667 I0.1985 J0.3438
G2 X600.472 Y969.645 Z-17.25 I0.1985 J-0.3438
G2 X599.8765 Y969.3012 Z-17.3333 I-0.397 J0.0
G2 Y969.9888 Z-17.4167 I0.1985 J0.3438
G2 X600.472 Y969.645 Z-17.5 I0.1985 J-0.3438
G2 X599.8765 Y969.3012 Z-17.5833 I-0.397 J0.0
G2 Y969.9888 Z-17.6667 I0.1985 J0.3438
G2 X600.472 Y969.645 Z-17.75 I0.1985 J-0.3438
G2 X599.8765 Y969.3012 Z-17.8333 I-0.397 J0.0
G2 Y969.9888 Z-17.9167 I0.1985 J0.3438
G2 X600.472 Y969.645 Z-18.0 I0.1985 J-0.3438
G2 X599.8765 Y969.3012 Z-18.0833 I-0.397 J0.0
G2 Y969.9888 Z-18.1667 I0.1985 J0.3438
G2 X600.472 Y969.645 Z-18.25 I0.1985 J-0.3438
G2 X599.8765 Y969.3012 Z-18.3333 I-0.397 J0.0
G2 Y969.9888 Z-18.4167 I0.1985 J0.3438
G2 X600.472 Y969.645 Z-18.5 I0.1985 J-0.3438
G2 X599.8765 Y969.3012 Z-18.5833 I-0.397 J0.0
G2 Y969.9888 Z-18.6667 I0.1985 J0.3438
G2 X600.472 Y969.645 Z-18.75 I0.1985 J-0.3438
G2 X599.8765 Y969.3012 Z-18.8333 I-0.397 J0.0
G2 Y969.9888 Z-18.9167 I0.1985 J0.3438
G2 X600.472 Y969.645 Z-19.0 I0.1985 J-0.3438
G2 X599.8765 Y969.3012 Z-19.0833 I-0.397 J0.0
G2 Y969.9888 Z-19.1667 I0.1985 J0.3438
G2 X600.472 Y969.645 Z-19.25 I0.1985 J-0.3438
G2 X599.8765 Y969.3012 Z-19.3333 I-0.397 J0.0
G2 Y969.9888 Z-19.4167 I0.1985 J0.3438
G2 X600.472 Y969.645 Z-19.5 I0.1985 J-0.3438
G2 X599.8765 Y969.3012 Z-19.5833 I-0.397 J0.0
G2 Y969.9888 Z-19.6667 I0.1985 J0.3438
G2 X600.472 Y969.645 Z-19.75 I0.1985 J-0.3438
G2 X599.8765 Y969.3012 Z-19.8333 I-0.397 J0.0
G2 Y969.9888 Z-19.9167 I0.1985 J0.3438
G2 X600.472 Y969.645 Z-20.0 I0.1985 J-0.3438
G2 X599.8765 Y969.3012 Z-20.0833 I-0.397 J0.0
G2 Y969.9888 Z-20.1667 I0.1985 J0.3438
G2 X600.472 Y969.645 Z-20.25 I0.1985 J-0.3438
G2 X599.8765 Y969.3012 Z-20.3333 I-0.397 J0.0
G2 Y969.9888 Z-20.4167 I0.1985 J0.3438
G2 X600.472 Y969.645 Z-20.5 I0.1985 J-0.3438
G2 X599.8765 Y969.3012 Z-20.5833 I-0.397 J0.0
G2 Y969.9888 Z-20.6667 I0.1985 J0.3438
G2 X600.472 Y969.645 Z-20.75 I0.1985 J-0.3438
G2 X599.8765 Y969.3012 Z-20.8333 I-0.397 J0.0
G2 Y969.9888 Z-20.9167 I0.1985 J0.3438
G2 X600.472 Y969.645 Z-21.0 I0.1985 J-0.3438
G2 X599.8765 Y969.3012 I-0.397 J0.0
G2 Y969.9888 I0.1985 J0.3438
G2 X600.472 Y969.645 I0.1985 J-0.3438
G0 Z12.0
G0 Y1209.675
G0 Z0.1
G1 F120.0 Z0.0
G2 F3000.0 X599.8765 Y1209.3312 Z-0.0833 I-0.397 J0.0
G2 Y1210.0188 Z-0.1667 I0.1985 J0.3438
G2 X600.472 Y1209.675 Z-0.25 I0.1985 J-0.3438
G2 X599.8765 Y1209.3312 Z-0.3333 I-0.397 J0.0
G2 Y1210.0188 Z-0.4167 I0.1985 J0.3438
G2 X600.472 Y1209.675 Z-0.5 I0.1985 J-0.3438
G2 X599.8765 Y1209.3312 Z-0.5833 I-0.397 J0.0
G2 Y1210.0188 Z-0.6667 I0.1985 J0.3438
G2 X600.472 Y1209.675 Z-0.75 I0.1985 J-0.3438
G2 X599.8765 Y1209.3312 Z-0.8333 I-0.397 J0.0
G2 Y1210.0188 Z-0.9167 I0.1985 J0.3438
G2 X600.472 Y1209.675 Z-1.0 I0.1985 J-0.3438
G2 X599.8765 Y1209.3312 Z-1.0833 I-0.397 J0.0
G2 Y1210.0188 Z-1.1667 I0.1985 J0.3438
G2 X600.472 Y1209.675 Z-1.25 I0.1985 J-0.3438
G2 X599.8765 Y1209.3312 Z-1.3333 I-0.397 J0.0
G2 Y1210.0188 Z-1.4167 I0.1985 J0.3438
G2 X600.472 Y1209.675 Z-1.5 I0.1985 J-0.3438
G2 X599.8765 Y1209.3312 Z-1.5833 I-0.397 J0.0
G2 Y1210.0188 Z-1.6667 I0.1985 J0.3438
G2 X600.472 Y1209.675 Z-1.75 I0.1985 J-0.3438
G2 X599.8765 Y1209.3312 Z-1.8333 I-0.397 J0.0
G2 Y1210.0188 Z-1.9167 I0.1985 J0.3438
G2 X600.472 Y1209.675 Z-2.0 I0.1985 J-0.3438
G2 X599.8765 Y1209.3312 Z-2.0833 I-0.397 J0.0
G2 Y1210.0188 Z-2.1667 I0.1985 J0.3438
G2 X600.472 Y1209.675 Z-2.25 I0.1985 J-0.3438
G2 X599.8765 Y1209.3312 Z-2.3333 I-0.397 J0.0
G2 Y1210.0188 Z-2.4167 I0.1985 J0.3438
G2 X600.472 Y1209.675 Z-2.5 I0.1985 J-0.3438
G2 X599.8765 Y1209.3312 Z-2.5833 I-0.397 J0.0
G2 Y1210.0188 Z-2.6667 I0.1985 J0.3438
G2 X600.472 Y1209.675 Z-2.75 I0.1985 J-0.3438
G2 X599.8765 Y1209.3312 Z-2.8333 I-0.397 J0.0
G2 Y1210.0188 Z-2.9167 I0.1985 J0.3438
G2 X600.472 Y1209.675 Z-3.0 I0.1985 J-0.3438
G2 X599.8765 Y1209.3312 Z-3.0833 I-0.397 J0.0
G2 Y1210.0188 Z-3.1667 I0.1985 J0.3438
G2 X600.472 Y1209.675 Z-3.25 I0.1985 J-0.3438
G2 X599.8765 Y1209.3312 Z-3.3333 I-0.397 J0.0
G2 Y1210.0188 Z-3.4167 I0.1985 J0.3438
G2 X600.472 Y1209.675 Z-3.5 I0.1985 J-0.3438
G2 X599.8765 Y1209.3312 Z-3.5833 I-0.397 J0.0
G2 Y1210.0188 Z-3.6667 I0.1985 J0.3438
G2 X600.472 Y1209.675 Z-3.75 I0.1985 J-0.3438
G2 X599.8765 Y1209.3312 Z-3.8333 I-0.397 J0.0
G2 Y1210.0188 Z-3.9167 I0.1985 J0.3438
G2 X600.472 Y1209.675 Z-4.0 I0.1985 J-0.3438
G2 X599.8765 Y1209.3312 Z-4.0833 I-0.397 J0.0
G2 Y1210.0188 Z-4.1667 I0.1985 J0.3438
G2 X600.472 Y1209.675 Z-4.25 I0.1985 J-0.3438
G2 X599.8765 Y1209.3312 Z-4.3333 I-0.397 J0.0
G2 Y1210.0188 Z-4.4167 I0.1985 J0.3438
G2 X600.472 Y1209.675 Z-4.5 I0.1985 J-0.3438
G2 X599.8765 Y1209.3312 Z-4.5833 I-0.397 J0.0
G2 Y1210.0188 Z-4.6667 I0.1985 J0.3438
G2 X600.472 Y1209.675 Z-4.75 I0.1985 J-0.3438
G2 X599.8765 Y1209.3312 Z-4.8333 I-0.397 J0.0
G2 Y1210.0188 Z-4.9167 I0.1985 J0.3438
G2 X600.472 Y1209.675 Z-5.0 I0.1985 J-0.3438
G2 X599.8765 Y1209.3312 Z-5.0833 I-0.397 J0.0
G2 Y1210.0188 Z-5.1667 I0.1985 J0.3438
G2 X600.472 Y1209.675 Z-5.25 I0.1985 J-0.3438
G2 X599.8765 Y1209.3312 Z-5.3333 I-0.397 J0.0
G2 Y1210.0188 Z-5.4167 I0.1985 J0.3438
G2 X600.472 Y1209.675 Z-5.5 I0.1985 J-0.3438
G2 X599.8765 Y1209.3312 Z-5.5833 I-0.397 J0.0
G2 Y1210.0188 Z-5.6667 I0.1985 J0.3438
G2 X600.472 Y1209.675 Z-5.75 I0.1985 J-0.3438
G2 X599.8765 Y1209.3312 Z-5.8333 I-0.397 J0.0
G2 Y1210.0188 Z-5.9167 I0.1985 J0.3438
G2 X600.472 Y1209.675 Z-6.0 I0.1985 J-0.3438
G2 X599.8765 Y1209.3312 Z-6.0833 I-0.397 J0.0
G2 Y1210.0188 Z-6.1667 I0.1985 J0.3438
G2 X600.472 Y1209.675 Z-6.25 I0.1985 J-0.3438
G2 X599.8765 Y1209.3312 Z-6.3333 I-0.397 J0.0
G2 Y1210.0188 Z-6.4167 I0.1985 J0.3438
G2 X600.472 Y1209.675 Z-6.5 I0.1985 J-0.3438
G2 X599.8765 Y1209.3312 Z-6.5833 I-0.397 J0.0
G2 Y1210.0188 Z-6.6667 I0.1985 J0.3438
G2 X600.472 Y1209.675 Z-6.75 I0.1985 J-0.3438
G2 X599.8765 Y1209.3312 Z-6.8333 I-0.397 J0.0
G2 Y1210.0188 Z-6.9167 I0.1985 J0.3438
G2 X600.472 Y1209.675 Z-7.0 I0.1985 J-0.3438
G2 X599.8765 Y1209.3312 Z-7.0833 I-0.397 J0.0
G2 Y1210.0188 Z-7.1667 I0.1985 J0.3438
G2 X600.472 Y1209.675 Z-7.25 I0.1985 J-0.3438
G2 X599.8765 Y1209.3312 Z-7.3333 I-0.397 J0.0
G2 Y1210.0188 Z-7.4167 I0.1985 J0.3438
G2 X600.472 Y1209.675 Z-7.5 I0.1985 J-0.3438
G2 X599.8765 Y1209.3312 Z-7.5833 I-0.397 J0.0
G2 Y1210.0188 Z-7.6667 I0.1985 J0.3438
G2 X600.472 Y1209.675 Z-7.75 I0.1985 J-0.3438
G2 X599.8765 Y1209.3312 Z-7.8333 I-0.397 J0.0
G2 Y1210.0188 Z-7.9167 I0.1985 J0.3438
G2 X600.472 Y1209.675 Z-8.0 I0.1985 J-0.3438
G2 X599.8765 Y1209.3312 Z-8.0833 I-0.397 J0.0
G2 Y1210.0188 Z-8.1667 I0.1985 J0.3438
G2 X600.472 Y1209.675 Z-8.25 I0.1985 J-0.3438
G2 X599.8765 Y1209.3312 Z-8.3333 I-0.397 J0.0
G2 Y1210.0188 Z-8.4167 I0.1985 J0.3438
G2 X600.472 Y1209.675 Z-8.5 I0.1985 J-0.3438
G2 X599.8765 Y1209.3312 Z-8.5833 I-0.397 J0.0
G2 Y1210.0188 Z-8.6667 I0.1985 J0.3438
G2 X600.472 Y1209.675 Z-8.75 I0.1985 J-0.3438
G2 X599.8765 Y1209.3312 Z-8.8333 I-0.397 J0.0
G2 Y1210.0188 Z-8.9167 I0.1985 J0.3438
G2 X600.472 Y1209.675 Z-9.0 I0.1985 J-0.3438
G2 X599.8765 Y1209.3312 Z-9.0833 I-0.397 J0.0
G2 Y1210.0188 Z-9.1667 I0.1985 J0.3438
G2 X600.472 Y1209.675 Z-9.25 I0.1985 J-0.3438
G2 X599.8765 Y1209.3312 Z-9.3333 I-0.397 J0.0
G2 Y1210.0188 Z-9.4167 I0.1985 J0.3438
G2 X600.472 Y1209.675 Z-9.5 I0.1985 J-0.3438
G2 X599.8765 Y1209.3312 Z-9.5833 I-0.397 J0.0
G2 Y1210.0188 Z-9.6667 I0.1985 J0.3438
G2 X600.472 Y1209.675 Z-9.75 I0.1985 J-0.3438
G2 X599.8765 Y1209.3312 Z-9.8333 I-0.397 J0.0
G2 Y1210.0188 Z-9.9167 I0.1985 J0.3438
G2 X600.472 Y1209.675 Z-10.0 I0.1985 J-0.3438
G2 X599.8765 Y1209.3312 Z-10.0833 I-0.397 J0.0
G2 Y1210.0188 Z-10.1667 I0.1985 J0.3438
G2 X600.472 Y1209.675 Z-10.25 I0.1985 J-0.3438
G2 X599.8765 Y1209.3312 Z-10.3333 I-0.397 J0.0
G2 Y1210.0188 Z-10.4167 I0.1985 J0.3438
G2 X600.472 Y1209.675 Z-10.5 I0.1985 J-0.3438
G2 X599.8765 Y1209.3312 Z-10.5833 I-0.397 J0.0
G2 Y1210.0188 Z-10.6667 I0.1985 J0.3438
G2 X600.472 Y1209.675 Z-10.75 I0.1985 J-0.3438
G2 X599.8765 Y1209.3312 Z-10.8333 I-0.397 J0.0
G2 Y1210.0188 Z-10.9167 I0.1985 J0.3438
G2 X600.472 Y1209.675 Z-11.0 I0.1985 J-0.3438
G2 X599.8765 Y1209.3312 Z-11.0833 I-0.397 J0.0
G2 Y1210.0188 Z-11.1667 I0.1985 J0.3438
G2 X600.472 Y1209.675 Z-11.25 I0.1985 J-0.3438
G2 X599.8765 Y1209.3312 Z-11.3333 I-0.397 J0.0
G2 Y1210.0188 Z-11.4167 I0.1985 J0.3438
G2 X600.472 Y1209.675 Z-11.5 I0.1985 J-0.3438
G2 X599.8765 Y1209.3312 Z-11.5833 I-0.397 J0.0
G2 Y1210.0188 Z-11.6667 I0.1985 J0.3438
G2 X600.472 Y1209.675 Z-11.75 I0.1985 J-0.3438
G2 X599.8765 Y1209.3312 Z-11.8333 I-0.397 J0.0
G2 Y1210.0188 Z-11.9167 I0.1985 J0.3438
G2 X600.472 Y1209.675 Z-12.0 I0.1985 J-0.3438
G2 X599.8765 Y1209.3312 Z-12.0833 I-0.397 J0.0
G2 Y1210.0188 Z-12.1667 I0.1985 J0.3438
G2 X600.472 Y1209.675 Z-12.25 I0.1985 J-0.3438
G2 X599.8765 Y1209.3312 Z-12.3333 I-0.397 J0.0
G2 Y1210.0188 Z-12.4167 I0.1985 J0.3438
G2 X600.472 Y1209.675 Z-12.5 I0.1985 J-0.3438
G2 X599.8765 Y1209.3312 Z-12.5833 I-0.397 J0.0
G2 Y1210.0188 Z-12.6667 I0.1985 J0.3438
G2 X600.472 Y1209.675 Z-12.75 I0.1985 J-0.3438
G2 X599.8765 Y1209.3312 Z-12.8333 I-0.397 J0.0
G2 Y1210.0188 Z-12.9167 I0.1985 J0.3438
G2 X600.472 Y1209.675 Z-13.0 I0.1985 J-0.3438
G2 X599.8765 Y1209.3312 Z-13.0833 I-0.397 J0.0
G2 Y1210.0188 Z-13.1667 I0.1985 J0.3438
G2 X600.472 Y1209.675 Z-13.25 I0.1985 J-0.3438
G2 X599.8765 Y1209.3312 Z-13.3333 I-0.397 J0.0
G2 Y1210.0188 Z-13.4167 I0.1985 J0.3438
G2 X600.472 Y1209.675 Z-13.5 I0.1985 J-0.3438
G2 X599.8765 Y1209.3312 Z-13.5833 I-0.397 J0.0
G2 Y1210.0188 Z-13.6667 I0.1985 J0.3438
G2 X600.472 Y1209.675 Z-13.75 I0.1985 J-0.3438
G2 X599.8765 Y1209.3312 Z-13.8333 I-0.397 J0.0
G2 Y1210.0188 Z-13.9167 I0.1985 J0.3438
G2 X600.472 Y1209.675 Z-14.0 I0.1985 J-0.3438
G2 X599.8765 Y1209.3312 Z-14.0833 I-0.397 J0.0
G2 Y1210.0188 Z-14.1667 I0.1985 J0.3438
G2 X600.472 Y1209.675 Z-14.25 I0.1985 J-0.3438
G2 X599.8765 Y1209.3312 Z-14.3333 I-0.397 J0.0
G2 Y1210.0188 Z-14.4167 I0.1985 J0.3438
G2 X600.472 Y1209.675 Z-14.5 I0.1985 J-0.3438
G2 X599.8765 Y1209.3312 Z-14.5833 I-0.397 J0.0
G2 Y1210.0188 Z-14.6667 I0.1985 J0.3438
G2 X600.472 Y1209.675 Z-14.75 I0.1985 J-0.3438
G2 X599.8765 Y1209.3312 Z-14.8333 I-0.397 J0.0
G2 Y1210.0188 Z-14.9167 I0.1985 J0.3438
G2 X600.472 Y1209.675 Z-15.0 I0.1985 J-0.3438
G2 X599.8765 Y1209.3312 Z-15.0833 I-0.397 J0.0
G2 Y1210.0188 Z-15.1667 I0.1985 J0.3438
G2 X600.472 Y1209.675 Z-15.25 I0.1985 J-0.3438
G2 X599.8765 Y1209.3312 Z-15.3333 I-0.397 J0.0
G2 Y1210.0188 Z-15.4167 I0.1985 J0.3438
G2 X600.472 Y1209.675 Z-15.5 I0.1985 J-0.3438
G2 X599.8765 Y1209.3312 Z-15.5833 I-0.397 J0.0
G2 Y1210.0188 Z-15.6667 I0.1985 J0.3438
G2 X600.472 Y1209.675 Z-15.75 I0.1985 J-0.3438
G2 X599.8765 Y1209.3312 Z-15.8333 I-0.397 J0.0
G2 Y1210.0188 Z-15.9167 I0.1985 J0.3438
G2 X600.472 Y1209.675 Z-16.0 I0.1985 J-0.3438
G2 X599.8765 Y1209.3312 Z-16.0833 I-0.397 J0.0
G2 Y1210.0188 Z-16.1667 I0.1985 J0.3438
G2 X600.472 Y1209.675 Z-16.25 I0.1985 J-0.3438
G2 X599.8765 Y1209.3312 Z-16.3333 I-0.397 J0.0
G2 Y1210.0188 Z-16.4167 I0.1985 J0.3438
G2 X600.472 Y1209.675 Z-16.5 I0.1985 J-0.3438
G2 X599.8765 Y1209.3312 Z-16.5833 I-0.397 J0.0
G2 Y1210.0188 Z-16.6667 I0.1985 J0.3438
G2 X600.472 Y1209.675 Z-16.75 I0.1985 J-0.3438
G2 X599.8765 Y1209.3312 Z-16.8333 I-0.397 J0.0
G2 Y1210.0188 Z-16.9167 I0.1985 J0.3438
G2 X600.472 Y1209.675 Z-17.0 I0.1985 J-0.3438
G2 X599.8765 Y1209.3312 Z-17.0833 I-0.397 J0.0
G2 Y1210.0188 Z-17.1667 I0.1985 J0.3438
G2 X600.472 Y1209.675 Z-17.25 I0.1985 J-0.3438
G2 X599.8765 Y1209.3312 Z-17.3333 I-0.397 J0.0
G2 Y1210.0188 Z-17.4167 I0.1985 J0.3438
G2 X600.472 Y1209.675 Z-17.5 I0.1985 J-0.3438
G2 X599.8765 Y1209.3312 Z-17.5833 I-0.397 J0.0
G2 Y1210.0188 Z-17.6667 I0.1985 J0.3438
G2 X600.472 Y1209.675 Z-17.75 I0.1985 J-0.3438
G2 X599.8765 Y1209.3312 Z-17.8333 I-0.397 J0.0
G2 Y1210.0188 Z-17.9167 I0.1985 J0.3438
G2 X600.472 Y1209.675 Z-18.0 I0.1985 J-0.3438
G2 X599.8765 Y1209.3312 Z-18.0833 I-0.397 J0.0
G2 Y1210.0188 Z-18.1667 I0.1985 J0.3438
G2 X600.472 Y1209.675 Z-18.25 I0.1985 J-0.3438
G2 X599.8765 Y1209.3312 Z-18.3333 I-0.397 J0.0
G2 Y1210.0188 Z-18.4167 I0.1985 J0.3438
G2 X600.472 Y1209.675 Z-18.5 I0.1985 J-0.3438
G2 X599.8765 Y1209.3312 Z-18.5833 I-0.397 J0.0
G2 Y1210.0188 Z-18.6667 I0.1985 J0.3438
G2 X600.472 Y1209.675 Z-18.75 I0.1985 J-0.3438
G2 X599.8765 Y1209.3312 Z-18.8333 I-0.397 J0.0
G2 Y1210.0188 Z-18.9167 I0.1985 J0.3438
G2 X600.472 Y1209.675 Z-19.0 I0.1985 J-0.3438
G2 X599.8765 Y1209.3312 Z-19.0833 I-0.397 J0.0
G2 Y1210.0188 Z-19.1667 I0.1985 J0.3438
G2 X600.472 Y1209.675 Z-19.25 I0.1985 J-0.3438
G2 X599.8765 Y1209.3312 Z-19.3333 I-0.397 J0.0
G2 Y1210.0188 Z-19.4167 I0.1985 J0.3438
G2 X600.472 Y1209.675 Z-19.5 I0.1985 J-0.3438
G2 X599.8765 Y1209.3312 Z-19.5833 I-0.397 J0.0
G2 Y1210.0188 Z-19.6667 I0.1985 J0.3438
G2 X600.472 Y1209.675 Z-19.75 I0.1985 J-0.3438
G2 X599.8765 Y1209.3312 Z-19.8333 I-0.397 J0.0
G2 Y1210.0188 Z-19.9167 I0.1985 J0.3438
G2 X600.472 Y1209.675 Z-20.0 I0.1985 J-0.3438
G2 X599.8765 Y1209.3312 Z-20.0833 I-0.397 J0.0
G2 Y1210.0188 Z-20.1667 I0.1985 J0.3438
G2 X600.472 Y1209.675 Z-20.25 I0.1985 J-0.3438
G2 X599.8765 Y1209.3312 Z-20.3333 I-0.397 J0.0
G2 Y1210.0188 Z-20.4167 I0.1985 J0.3438
G2 X600.472 Y1209.675 Z-20.5 I0.1985 J-0.3438
G2 X599.8765 Y1209.3312 Z-20.5833 I-0.397 J0.0
G2 Y1210.0188 Z-20.6667 I0.1985 J0.3438
G2 X600.472 Y1209.675 Z-20.75 I0.1985 J-0.3438
G2 X599.8765 Y1209.3312 Z-20.8333 I-0.397 J0.0
G2 Y1210.0188 Z-20.9167 I0.1985 J0.3438
G2 X600.472 Y1209.675 Z-21.0 I0.1985 J-0.3438
G2 X599.8765 Y1209.3312 I-0.397 J0.0
G2 Y1210.0188 I0.1985 J0.3438
G2 X600.472 Y1209.675 I0.1985 J-0.3438
G0 Z12.0
G0 X406.797
G0 Z0.1
G1 F120.0 Z0.0
G2 F3000.0 X406.2015 Y1209.3312 Z-0.0833 I-0.397 J0.0
G2 Y1210.0188 Z-0.1667 I0.1985 J0.3438
G2 X406.797 Y1209.675 Z-0.25 I0.1985 J-0.3438
G2 X406.2015 Y1209.3312 Z-0.3333 I-0.397 J0.0
G2 Y1210.0188 Z-0.4167 I0.1985 J0.3438
G2 X406.797 Y1209.675 Z-0.5 I0.1985 J-0.3438
G2 X406.2015 Y1209.3312 Z-0.5833 I-0.397 J0.0
G2 Y1210.0188 Z-0.6667 I0.1985 J0.3438
G2 X406.797 Y1209.675 Z-0.75 I0.1985 J-0.3438
G2 X406.2015 Y1209.3312 Z-0.8333 I-0.397 J0.0
G2 Y1210.0188 Z-0.9167 I0.1985 J0.3438
G2 X406.797 Y1209.675 Z-1.0 I0.1985 J-0.3438
G2 X406.2015 Y1209.3312 Z-1.0833 I-0.397 J0.0
G2 Y1210.0188 Z-1.1667 I0.1985 J0.3438
G2 X406.797 Y1209.675 Z-1.25 I0.1985 J-0.3438
G2 X406.2015 Y1209.3312 Z-1.3333 I-0.397 J0.0
G2 Y1210.0188 Z-1.4167 I0.1985 J0.3438
G2 X406.797 Y1209.675 Z-1.5 I0.1985 J-0.3438
G2 X406.2015 Y1209.3312 Z-1.5833 I-0.397 J0.0
G2 Y1210.0188 Z-1.6667 I0.1985 J0.3438
G2 X406.797 Y1209.675 Z-1.75 I0.1985 J-0.3438
G2 X406.2015 Y1209.3312 Z-1.8333 I-0.397 J0.0
G2 Y1210.0188 Z-1.9167 I0.1985 J0.3438
G2 X406.797 Y1209.675 Z-2.0 I0.1985 J-0.3438
G2 X406.2015 Y1209.3312 Z-2.0833 I-0.397 J0.0
G2 Y1210.0188 Z-2.1667 I0.1985 J0.3438
G2 X406.797 Y1209.675 Z-2.25 I0.1985 J-0.3438
G2 X406.2015 Y1209.3312 Z-2.3333 I-0.397 J0.0
G2 Y1210.0188 Z-2.4167 I0.1985 J0.3438
G2 X406.797 Y1209.675 Z-2.5 I0.1985 J-0.3438
G2 X406.2015 Y1209.3312 Z-2.5833 I-0.397 J0.0
G2 Y1210.0188 Z-2.6667 I0.1985 J0.3438
G2 X406.797 Y1209.675 Z-2.75 I0.1985 J-0.3438
G2 X406.2015 Y1209.3312 Z-2.8333 I-0.397 J0.0
G2 Y1210.0188 Z-2.9167 I0.1985 J0.3438
G2 X406.797 Y1209.675 Z-3.0 I0.1985 J-0.3438
G2 X406.2015 Y1209.3312 Z-3.0833 I-0.397 J0.0
G2 Y1210.0188 Z-3.1667 I0.1985 J0.3438
G2 X406.797 Y1209.675 Z-3.25 I0.1985 J-0.3438
G2 X406.2015 Y1209.3312 Z-3.3333 I-0.397 J0.0
G2 Y1210.0188 Z-3.4167 I0.1985 J0.3438
G2 X406.797 Y1209.675 Z-3.5 I0.1985 J-0.3438
G2 X406.2015 Y1209.3312 Z-3.5833 I-0.397 J0.0
G2 Y1210.0188 Z-3.6667 I0.1985 J0.3438
G2 X406.797 Y1209.675 Z-3.75 I0.1985 J-0.3438
G2 X406.2015 Y1209.3312 Z-3.8333 I-0.397 J0.0
G2 Y1210.0188 Z-3.9167 I0.1985 J0.3438
G2 X406.797 Y1209.675 Z-4.0 I0.1985 J-0.3438
G2 X406.2015 Y1209.3312 Z-4.0833 I-0.397 J0.0
G2 Y1210.0188 Z-4.1667 I0.1985 J0.3438
G2 X406.797 Y1209.675 Z-4.25 I0.1985 J-0.3438
G2 X406.2015 Y1209.3312 Z-4.3333 I-0.397 J0.0
G2 Y1210.0188 Z-4.4167 I0.1985 J0.3438
G2 X406.797 Y1209.675 Z-4.5 I0.1985 J-0.3438
G2 X406.2015 Y1209.3312 Z-4.5833 I-0.397 J0.0
G2 Y1210.0188 Z-4.6667 I0.1985 J0.3438
G2 X406.797 Y1209.675 Z-4.75 I0.1985 J-0.3438
G2 X406.2015 Y1209.3312 Z-4.8333 I-0.397 J0.0
G2 Y1210.0188 Z-4.9167 I0.1985 J0.3438
G2 X406.797 Y1209.675 Z-5.0 I0.1985 J-0.3438
G2 X406.2015 Y1209.3312 Z-5.0833 I-0.397 J0.0
G2 Y1210.0188 Z-5.1667 I0.1985 J0.3438
G2 X406.797 Y1209.675 Z-5.25 I0.1985 J-0.3438
G2 X406.2015 Y1209.3312 Z-5.3333 I-0.397 J0.0
G2 Y1210.0188 Z-5.4167 I0.1985 J0.3438
G2 X406.797 Y1209.675 Z-5.5 I0.1985 J-0.3438
G2 X406.2015 Y1209.3312 Z-5.5833 I-0.397 J0.0
G2 Y1210.0188 Z-5.6667 I0.1985 J0.3438
G2 X406.797 Y1209.675 Z-5.75 I0.1985 J-0.3438
G2 X406.2015 Y1209.3312 Z-5.8333 I-0.397 J0.0
G2 Y1210.0188 Z-5.9167 I0.1985 J0.3438
G2 X406.797 Y1209.675 Z-6.0 I0.1985 J-0.3438
G2 X406.2015 Y1209.3312 Z-6.0833 I-0.397 J0.0
G2 Y1210.0188 Z-6.1667 I0.1985 J0.3438
G2 X406.797 Y1209.675 Z-6.25 I0.1985 J-0.3438
G2 X406.2015 Y1209.3312 Z-6.3333 I-0.397 J0.0
G2 Y1210.0188 Z-6.4167 I0.1985 J0.3438
G2 X406.797 Y1209.675 Z-6.5 I0.1985 J-0.3438
G2 X406.2015 Y1209.3312 Z-6.5833 I-0.397 J0.0
G2 Y1210.0188 Z-6.6667 I0.1985 J0.3438
G2 X406.797 Y1209.675 Z-6.75 I0.1985 J-0.3438
G2 X406.2015 Y1209.3312 Z-6.8333 I-0.397 J0.0
G2 Y1210.0188 Z-6.9167 I0.1985 J0.3438
G2 X406.797 Y1209.675 Z-7.0 I0.1985 J-0.3438
G2 X406.2015 Y1209.3312 Z-7.0833 I-0.397 J0.0
G2 Y1210.0188 Z-7.1667 I0.1985 J0.3438
G2 X406.797 Y1209.675 Z-7.25 I0.1985 J-0.3438
G2 X406.2015 Y1209.3312 Z-7.3333 I-0.397 J0.0
G2 Y1210.0188 Z-7.4167 I0.1985 J0.3438
G2 X406.797 Y1209.675 Z-7.5 I0.1985 J-0.3438
G2 X406.2015 Y1209.3312 Z-7.5833 I-0.397 J0.0
G2 Y1210.0188 Z-7.6667 I0.1985 J0.3438
G2 X406.797 Y1209.675 Z-7.75 I0.1985 J-0.3438
G2 X406.2015 Y1209.3312 Z-7.8333 I-0.397 J0.0
G2 Y1210.0188 Z-7.9167 I0.1985 J0.3438
G2 X406.797 Y1209.675 Z-8.0 I0.1985 J-0.3438
G2 X406.2015 Y1209.3312 Z-8.0833 I-0.397 J0.0
G2 Y1210.0188 Z-8.1667 I0.1985 J0.3438
G2 X406.797 Y1209.675 Z-8.25 I0.1985 J-0.3438
G2 X406.2015 Y1209.3312 Z-8.3333 I-0.397 J0.0
G2 Y1210.0188 Z-8.4167 I0.1985 J0.3438
G2 X406.797 Y1209.675 Z-8.5 I0.1985 J-0.3438
G2 X406.2015 Y1209.3312 Z-8.5833 I-0.397 J0.0
G2 Y1210.0188 Z-8.6667 I0.1985 J0.3438
G2 X406.797 Y1209.675 Z-8.75 I0.1985 J-0.3438
G2 X406.2015 Y1209.3312 Z-8.8333 I-0.397 J0.0
G2 Y1210.0188 Z-8.9167 I0.1985 J0.3438
G2 X406.797 Y1209.675 Z-9.0 I0.1985 J-0.3438
G2 X406.2015 Y1209.3312 Z-9.0833 I-0.397 J0.0
G2 Y1210.0188 Z-9.1667 I0.1985 J0.3438
G2 X406.797 Y1209.675 Z-9.25 I0.1985 J-0.3438
G2 X406.2015 Y1209.3312 Z-9.3333 I-0.397 J0.0
G2 Y1210.0188 Z-9.4167 I0.1985 J0.3438
G2 X406.797 Y1209.675 Z-9.5 I0.1985 J-0.3438
G2 X406.2015 Y1209.3312 Z-9.5833 I-0.397 J0.0
G2 Y1210.0188 Z-9.6667 I0.1985 J0.3438
G2 X406.797 Y1209.675 Z-9.75 I0.1985 J-0.3438
G2 X406.2015 Y1209.3312 Z-9.8333 I-0.397 J0.0
G2 Y1210.0188 Z-9.9167 I0.1985 J0.3438
G2 X406.797 Y1209.675 Z-10.0 I0.1985 J-0.3438
G2 X406.2015 Y1209.3312 Z-10.0833 I-0.397 J0.0
G2 Y1210.0188 Z-10.1667 I0.1985 J0.3438
G2 X406.797 Y1209.675 Z-10.25 I0.1985 J-0.3438
G2 X406.2015 Y1209.3312 Z-10.3333 I-0.397 J0.0
G2 Y1210.0188 Z-10.4167 I0.1985 J0.3438
G2 X406.797 Y1209.675 Z-10.5 I0.1985 J-0.3438
G2 X406.2015 Y1209.3312 Z-10.5833 I-0.397 J0.0
G2 Y1210.0188 Z-10.6667 I0.1985 J0.3438
G2 X406.797 Y1209.675 Z-10.75 I0.1985 J-0.3438
G2 X406.2015 Y1209.3312 Z-10.8333 I-0.397 J0.0
G2 Y1210.0188 Z-10.9167 I0.1985 J0.3438
G2 X406.797 Y1209.675 Z-11.0 I0.1985 J-0.3438
G2 X406.2015 Y1209.3312 Z-11.0833 I-0.397 J0.0
G2 Y1210.0188 Z-11.1667 I0.1985 J0.3438
G2 X406.797 Y1209.675 Z-11.25 I0.1985 J-0.3438
G2 X406.2015 Y1209.3312 Z-11.3333 I-0.397 J0.0
G2 Y1210.0188 Z-11.4167 I0.1985 J0.3438
G2 X406.797 Y1209.675 Z-11.5 I0.1985 J-0.3438
G2 X406.2015 Y1209.3312 Z-11.5833 I-0.397 J0.0
G2 Y1210.0188 Z-11.6667 I0.1985 J0.3438
G2 X406.797 Y1209.675 Z-11.75 I0.1985 J-0.3438
G2 X406.2015 Y1209.3312 Z-11.8333 I-0.397 J0.0
G2 Y1210.0188 Z-11.9167 I0.1985 J0.3438
G2 X406.797 Y1209.675 Z-12.0 I0.1985 J-0.3438
G2 X406.2015 Y1209.3312 Z-12.0833 I-0.397 J0.0
G2 Y1210.0188 Z-12.1667 I0.1985 J0.3438
G2 X406.797 Y1209.675 Z-12.25 I0.1985 J-0.3438
G2 X406.2015 Y1209.3312 Z-12.3333 I-0.397 J0.0
G2 Y1210.0188 Z-12.4167 I0.1985 J0.3438
G2 X406.797 Y1209.675 Z-12.5 I0.1985 J-0.3438
G2 X406.2015 Y1209.3312 Z-12.5833 I-0.397 J0.0
G2 Y1210.0188 Z-12.6667 I0.1985 J0.3438
G2 X406.797 Y1209.675 Z-12.75 I0.1985 J-0.3438
G2 X406.2015 Y1209.3312 Z-12.8333 I-0.397 J0.0
G2 Y1210.0188 Z-12.9167 I0.1985 J0.3438
G2 X406.797 Y1209.675 Z-13.0 I0.1985 J-0.3438
G2 X406.2015 Y1209.3312 Z-13.0833 I-0.397 J0.0
G2 Y1210.0188 Z-13.1667 I0.1985 J0.3438
G2 X406.797 Y1209.675 Z-13.25 I0.1985 J-0.3438
G2 X406.2015 Y1209.3312 Z-13.3333 I-0.397 J0.0
G2 Y1210.0188 Z-13.4167 I0.1985 J0.3438
G2 X406.797 Y1209.675 Z-13.5 I0.1985 J-0.3438
G2 X406.2015 Y1209.3312 Z-13.5833 I-0.397 J0.0
G2 Y1210.0188 Z-13.6667 I0.1985 J0.3438
G2 X406.797 Y1209.675 Z-13.75 I0.1985 J-0.3438
G2 X406.2015 Y1209.3312 Z-13.8333 I-0.397 J0.0
G2 Y1210.0188 Z-13.9167 I0.1985 J0.3438
G2 X406.797 Y1209.675 Z-14.0 I0.1985 J-0.3438
G2 X406.2015 Y1209.3312 Z-14.0833 I-0.397 J0.0
G2 Y1210.0188 Z-14.1667 I0.1985 J0.3438
G2 X406.797 Y1209.675 Z-14.25 I0.1985 J-0.3438
G2 X406.2015 Y1209.3312 Z-14.3333 I-0.397 J0.0
G2 Y1210.0188 Z-14.4167 I0.1985 J0.3438
G2 X406.797 Y1209.675 Z-14.5 I0.1985 J-0.3438
G2 X406.2015 Y1209.3312 Z-14.5833 I-0.397 J0.0
G2 Y1210.0188 Z-14.6667 I0.1985 J0.3438
G2 X406.797 Y1209.675 Z-14.75 I0.1985 J-0.3438
G2 X406.2015 Y1209.3312 Z-14.8333 I-0.397 J0.0
G2 Y1210.0188 Z-14.9167 I0.1985 J0.3438
G2 X406.797 Y1209.675 Z-15.0 I0.1985 J-0.3438
G2 X406.2015 Y1209.3312 Z-15.0833 I-0.397 J0.0
G2 Y1210.0188 Z-15.1667 I0.1985 J0.3438
G2 X406.797 Y1209.675 Z-15.25 I0.1985 J-0.3438
G2 X406.2015 Y1209.3312 Z-15.3333 I-0.397 J0.0
G2 Y1210.0188 Z-15.4167 I0.1985 J0.3438
G2 X406.797 Y1209.675 Z-15.5 I0.1985 J-0.3438
G2 X406.2015 Y1209.3312 Z-15.5833 I-0.397 J0.0
G2 Y1210.0188 Z-15.6667 I0.1985 J0.3438
G2 X406.797 Y1209.675 Z-15.75 I0.1985 J-0.3438
G2 X406.2015 Y1209.3312 Z-15.8333 I-0.397 J0.0
G2 Y1210.0188 Z-15.9167 I0.1985 J0.3438
G2 X406.797 Y1209.675 Z-16.0 I0.1985 J-0.3438
G2 X406.2015 Y1209.3312 Z-16.0833 I-0.397 J0.0
G2 Y1210.0188 Z-16.1667 I0.1985 J0.3438
G2 X406.797 Y1209.675 Z-16.25 I0.1985 J-0.3438
G2 X406.2015 Y1209.3312 Z-16.3333 I-0.397 J0.0
G2 Y1210.0188 Z-16.4167 I0.1985 J0.3438
G2 X406.797 Y1209.675 Z-16.5 I0.1985 J-0.3438
G2 X406.2015 Y1209.3312 Z-16.5833 I-0.397 J0.0
G2 Y1210.0188 Z-16.6667 I0.1985 J0.3438
G2 X406.797 Y1209.675 Z-16.75 I0.1985 J-0.3438
G2 X406.2015 Y1209.3312 Z-16.8333 I-0.397 J0.0
G2 Y1210.0188 Z-16.9167 I0.1985 J0.3438
G2 X406.797 Y1209.675 Z-17.0 I0.1985 J-0.3438
G2 X406.2015 Y1209.3312 Z-17.0833 I-0.397 J0.0
G2 Y1210.0188 Z-17.1667 I0.1985 J0.3438
G2 X406.797 Y1209.675 Z-17.25 I0.1985 J-0.3438
G2 X406.2015 Y1209.3312 Z-17.3333 I-0.397 J0.0
G2 Y1210.0188 Z-17.4167 I0.1985 J0.3438
G2 X406.797 Y1209.675 Z-17.5 I0.1985 J-0.3438
G2 X406.2015 Y1209.3312 Z-17.5833 I-0.397 J0.0
G2 Y1210.0188 Z-17.6667 I0.1985 J0.3438
G2 X406.797 Y1209.675 Z-17.75 I0.1985 J-0.3438
G2 X406.2015 Y1209.3312 Z-17.8333 I-0.397 J0.0
G2 Y1210.0188 Z-17.9167 I0.1985 J0.3438
G2 X406.797 Y1209.675 Z-18.0 I0.1985 J-0.3438
G2 X406.2015 Y1209.3312 Z-18.0833 I-0.397 J0.0
G2 Y1210.0188 Z-18.1667 I0.1985 J0.3438
G2 X406.797 Y1209.675 Z-18.25 I0.1985 J-0.3438
G2 X406.2015 Y1209.3312 Z-18.3333 I-0.397 J0.0
G2 Y1210.0188 Z-18.4167 I0.1985 J0.3438
G2 X406.797 Y1209.675 Z-18.5 I0.1985 J-0.3438
G2 X406.2015 Y1209.3312 Z-18.5833 I-0.397 J0.0
G2 Y1210.0188 Z-18.6667 I0.1985 J0.3438
G2 X406.797 Y1209.675 Z-18.75 I0.1985 J-0.3438
G2 X406.2015 Y1209.3312 Z-18.8333 I-0.397 J0.0
G2 Y1210.0188 Z-18.9167 I0.1985 J0.3438
G2 X406.797 Y1209.675 Z-19.0 I0.1985 J-0.3438
G2 X406.2015 Y1209.3312 Z-19.0833 I-0.397 J0.0
G2 Y1210.0188 Z-19.1667 I0.1985 J0.3438
G2 X406.797 Y1209.675 Z-19.25 I0.1985 J-0.3438
G2 X406.2015 Y1209.3312 Z-19.3333 I-0.397 J0.0
G2 Y1210.0188 Z-19.4167 I0.1985 J0.3438
G2 X406.797 Y1209.675 Z-19.5 I0.1985 J-0.3438
G2 X406.2015 Y1209.3312 Z-19.5833 I-0.397 J0.0
G2 Y1210.0188 Z-19.6667 I0.1985 J0.3438
G2 X406.797 Y1209.675 Z-19.75 I0.1985 J-0.3438
G2 X406.2015 Y1209.3312 Z-19.8333 I-0.397 J0.0
G2 Y1210.0188 Z-19.9167 I0.1985 J0.3438
G2 X406.797 Y1209.675 Z-20.0 I0.1985 J-0.3438
G2 X406.2015 Y1209.3312 Z-20.0833 I-0.397 J0.0
G2 Y1210.0188 Z-20.1667 I0.1985 J0.3438
G2 X406.797 Y1209.675 Z-20.25 I0.1985 J-0.3438
G2 X406.2015 Y1209.3312 Z-20.3333 I-0.397 J0.0
G2 Y1210.0188 Z-20.4167 I0.1985 J0.3438
G2 X406.797 Y1209.675 Z-20.5 I0.1985 J-0.3438
G2 X406.2015 Y1209.3312 Z-20.5833 I-0.397 J0.0
G2 Y1210.0188 Z-20.6667 I0.1985 J0.3438
G2 X406.797 Y1209.675 Z-20.75 I0.1985 J-0.3438
G2 X406.2015 Y1209.3312 Z-20.8333 I-0.397 J0.0
G2 Y1210.0188 Z-20.9167 I0.1985 J0.3438
G2 X406.797 Y1209.675 Z-21.0 I0.1985 J-0.3438
G2 X406.2015 Y1209.3312 I-0.397 J0.0
G2 Y1210.0188 I0.1985 J0.3438
G2 X406.797 Y1209.675 I0.1985 J-0.3438
G0 Z12.0
G0 X213.122
G0 Z0.1
G1 F120.0 Z0.0
G2 F3000.0 X212.5265 Y1209.3312 Z-0.0833 I-0.397 J0.0
G2 Y1210.0188 Z-0.1667 I0.1985 J0.3438
G2 X213.122 Y1209.675 Z-0.25 I0.1985 J-0.3438
G2 X212.5265 Y1209.3312 Z-0.3333 I-0.397 J0.0
G2 Y1210.0188 Z-0.4167 I0.1985 J0.3438
G2 X213.122 Y1209.675 Z-0.5 I0.1985 J-0.3438
G2 X212.5265 Y1209.3312 Z-0.5833 I-0.397 J0.0
G2 Y1210.0188 Z-0.6667 I0.1985 J0.3438
G2 X213.122 Y1209.675 Z-0.75 I0.1985 J-0.3438
G2 X212.5265 Y1209.3312 Z-0.8333 I-0.397 J0.0
G2 Y1210.0188 Z-0.9167 I0.1985 J0.3438
G2 X213.122 Y1209.675 Z-1.0 I0.1985 J-0.3438
G2 X212.5265 Y1209.3312 Z-1.0833 I-0.397 J0.0
G2 Y1210.0188 Z-1.1667 I0.1985 J0.3438
G2 X213.122 Y1209.675 Z-1.25 I0.1985 J-0.3438
G2 X212.5265 Y1209.3312 Z-1.3333 I-0.397 J0.0
G2 Y1210.0188 Z-1.4167 I0.1985 J0.3438
G2 X213.122 Y1209.675 Z-1.5 I0.1985 J-0.3438
G2 X212.5265 Y1209.3312 Z-1.5833 I-0.397 J0.0
G2 Y1210.0188 Z-1.6667 I0.1985 J0.3438
G2 X213.122 Y1209.675 Z-1.75 I0.1985 J-0.3438
G2 X212.5265 Y1209.3312 Z-1.8333 I-0.397 J0.0
G2 Y1210.0188 Z-1.9167 I0.1985 J0.3438
G2 X213.122 Y1209.675 Z-2.0 I0.1985 J-0.3438
G2 X212.5265 Y1209.3312 Z-2.0833 I-0.397 J0.0
G2 Y1210.0188 Z-2.1667 I0.1985 J0.3438
G2 X213.122 Y1209.675 Z-2.25 I0.1985 J-0.3438
G2 X212.5265 Y1209.3312 Z-2.3333 I-0.397 J0.0
G2 Y1210.0188 Z-2.4167 I0.1985 J0.3438
G2 X213.122 Y1209.675 Z-2.5 I0.1985 J-0.3438
G2 X212.5265 Y1209.3312 Z-2.5833 I-0.397 J0.0
G2 Y1210.0188 Z-2.6667 I0.1985 J0.3438
G2 X213.122 Y1209.675 Z-2.75 I0.1985 J-0.3438
G2 X212.5265 Y1209.3312 Z-2.8333 I-0.397 J0.0
G2 Y1210.0188 Z-2.9167 I0.1985 J0.3438
G2 X213.122 Y1209.675 Z-3.0 I0.1985 J-0.3438
G2 X212.5265 Y1209.3312 Z-3.0833 I-0.397 J0.0
G2 Y1210.0188 Z-3.1667 I0.1985 J0.3438
G2 X213.122 Y1209.675 Z-3.25 I0.1985 J-0.3438
G2 X212.5265 Y1209.3312 Z-3.3333 I-0.397 J0.0
G2 Y1210.0188 Z-3.4167 I0.1985 J0.3438
G2 X213.122 Y1209.675 Z-3.5 I0.1985 J-0.3438
G2 X212.5265 Y1209.3312 Z-3.5833 I-0.397 J0.0
G2 Y1210.0188 Z-3.6667 I0.1985 J0.3438
G2 X213.122 Y1209.675 Z-3.75 I0.1985 J-0.3438
G2 X212.5265 Y1209.3312 Z-3.8333 I-0.397 J0.0
G2 Y1210.0188 Z-3.9167 I0.1985 J0.3438
G2 X213.122 Y1209.675 Z-4.0 I0.1985 J-0.3438
G2 X212.5265 Y1209.3312 Z-4.0833 I-0.397 J0.0
G2 Y1210.0188 Z-4.1667 I0.1985 J0.3438
G2 X213.122 Y1209.675 Z-4.25 I0.1985 J-0.3438
G2 X212.5265 Y1209.3312 Z-4.3333 I-0.397 J0.0
G2 Y1210.0188 Z-4.4167 I0.1985 J0.3438
G2 X213.122 Y1209.675 Z-4.5 I0.1985 J-0.3438
G2 X212.5265 Y1209.3312 Z-4.5833 I-0.397 J0.0
G2 Y1210.0188 Z-4.6667 I0.1985 J0.3438
G2 X213.122 Y1209.675 Z-4.75 I0.1985 J-0.3438
G2 X212.5265 Y1209.3312 Z-4.8333 I-0.397 J0.0
G2 Y1210.0188 Z-4.9167 I0.1985 J0.3438
G2 X213.122 Y1209.675 Z-5.0 I0.1985 J-0.3438
