( Made using CamBam - http://www.cambam.co.uk )
( mdf 0.25in to 0.2in 1/17/2020 6:26:39 PM )
( T14 : 25.4 )
G21 G90 G91.1 G64 G40
G0 Z6.0
( T14 : 25.4 )
T14 M6
( Pocket1 )
G17
M3 S14000
G0 X129.54 Y129.54
G0 Z0.33
G1 F50.0 Z-1.27
G1 F3000.0 Y150.46
G1 X428.46
G1 Y129.54
G1 X129.54
G0 Z6.0
G0 X106.172
G0 Z0.33
G1 F50.0 Z-1.27
G1 F3000.0 Y173.828
G1 X451.828
G1 Y106.172
G1 X106.172
G1 Y129.54
G0 Z6.0
G0 X82.804
G0 Z0.33
G1 F50.0 Z-1.27
G1 F3000.0 Y197.196
G1 X475.196
G1 Y82.804
G1 X82.804
G1 Y129.54
G0 Z6.0
G0 X59.436
G0 Z0.33
G1 F50.0 Z-1.27
G1 F3000.0 Y220.564
G1 X498.564
G1 Y59.436
G1 X59.436
G1 Y129.54
G0 Z6.0
G0 X36.068
G0 Z0.33
G1 F50.0 Z-1.27
G1 F3000.0 Y243.932
G1 X521.932
G1 Y36.068
G1 X36.068
G1 Y129.54
G0 Z6.0
G0 X12.7
G0 Z0.33
G1 F50.0 Z-1.27
G1 F3000.0 Y267.3
G1 X545.3
G1 Y12.7
G1 X12.7
G1 Y129.54
G0 Z6.0
M5
M30
