( Made using CamBam - http://www.cambam.co.uk )
( Handle_ToFab 1/12/2020 3:16:33 PM )
( T16 : 6.35 )
( T18 : 3.175 )
G21 G90 G91.1 G64 G40
G0 Z3.0
( T16 : 6.35 )
T16 M6
( Drill1 )
G17
M3 S12000
G0 X63.5 Y139.7
G98
G83 X63.5 Y139.7 Z-34.0 Q1.0 R12.0 F120.0
G83 Y469.9 Z-34.0
G80
( 3DSurface Low Y )
S12000
G0 Z3.0
G0 X3.175 Y50.7317
G0 Z0.1
G1 F120.0 Z-1.0
G1 F3000.0 X3.4056 Y51.0477
G3 X3.8013 Y51.6919 I-3.8472 J2.8073
G1 X4.0071 Y52.0956
G3 X4.3026 Y52.8149 I-4.2429 J2.1631
G1 X4.3947 Y53.1044
G3 X4.5633 Y53.8235 I-4.5384 J1.4438
G1 X4.6644 Y54.4797
G3 X4.7178 Y55.0678 I-4.7071 J0.7246
G1 X4.7605 Y56.5565
G3 X4.7625 Y56.693 I-4.7605 J0.1365
G1 Y222.707
G3 X4.7605 Y222.8435 I-4.7625 J0.0
G1 X4.7178 Y224.3322
G3 X4.6644 Y224.9203 I-4.7605 J-0.1365
G1 X4.5633 Y225.5765
G3 X4.3947 Y226.2956 I-4.7071 J-0.7246
G1 X4.3026 Y226.5851
G3 X4.0071 Y227.3044 I-4.5384 J-1.4438
G1 X3.8013 Y227.7081
G3 X3.4055 Y228.3524 I-4.2429 J-2.1631
G1 X3.175 Y228.6683
G1 F120.0 Y229.5962
G3 F3000.0 X3.741 Y229.0973 I90.0557 J101.5838
G3 X4.3489 Y228.6446 I3.1374 J3.5788
G1 X5.5151 Y227.9129
G3 X6.5276 Y227.3692 I3.2622 J4.8605
G3 X8.4002 Y226.6088 I6.5885 J13.538
G2 X9.0332 Y226.2999 I-43.439 J-89.8196
G3 X9.2136 Y226.1733 I11.6315 J16.3823
G3 X9.2366 Y225.7603 I142.3861 J7.7249
G1 X9.2388 Y53.6499
G3 X9.2163 Y53.2668 I86.8377 J-5.2978
G1 X8.4127 Y52.7935
G3 X7.6702 Y52.5278 I110.6984 J-310.5412
G3 X7.4349 Y52.4362 I1.6088 J-4.4792
G3 X6.2261 Y51.8946 I10.9947 J-26.1592
G3 X5.7209 Y51.6151 I2.0468 J-4.2967
G2 X4.3757 Y50.7721 I-69.4482 J109.3212
G3 X3.691 Y50.2583 I2.5026 J-4.0482
G2 X3.175 Y49.7962 I-65.9191 J73.0982
G0 Z3.0
G0 Y47.6164
G0 Z0.1
G1 F120.0 Z-1.0
G3 F3000.0 X3.1873 Y47.6318 I-65.4984 J52.4475
G2 X3.5771 Y48.0388 I2.4788 J-1.984
G3 X4.752 Y49.0817 I-65.8052 J75.3177
G2 X5.2088 Y49.4245 I2.1263 J-2.3579
G3 X6.5704 Y50.2778 I-68.9361 J111.5118
G2 X6.9075 Y50.4642 I1.7025 J-2.68
G2 X8.0488 Y50.9756 I11.5222 J-24.1872
G2 X8.2058 Y51.0367 I1.2302 J-2.927
G2 X9.0866 Y51.3517 I110.9054 J-308.7844
G1 X10.3105 Y52.0727
G3 X10.5947 Y52.3362 I-12.0866 J13.32
G2 X10.7522 Y52.5563 I10.8407 J-7.5879
G2 X10.7538 Y52.5598 I63.5528 J-28.7242
G3 X10.7682 Y52.6174 I-301.5402 J75.6861
G2 X10.8231 Y53.6012 I85.3082 J-4.2653
G1 X10.8209 Y225.8059
G2 X10.7681 Y226.7836 I140.7788 J8.0922
G3 X10.7549 Y226.8365 I-363.7402 J-91.2395
G2 X10.7226 Y226.9082 I29.0989 J13.1124
G3 X10.3238 Y227.3335 I-2.1785 J-1.6438
G2 X9.8496 Y227.6638 I10.3409 J15.3487
G3 X8.9928 Y228.082 I-44.8884 J-90.8746
G2 X7.1772 Y228.8152 I4.1233 J12.8253
G2 X6.3794 Y229.241 I1.6002 J3.9582
G1 X5.1909 Y229.9867
G2 X4.7853 Y230.2887 I1.6874 J2.6895
G2 X3.5438 Y231.3907 I88.4453 J100.8914
G2 X3.2198 Y231.7283 I2.1223 J2.3614
G2 X3.175 Y231.7824 I89.4622 J74.0126
G0 Z3.0
G0 X6.1354 Y225.7983
G0 Z0.1
G1 F120.0 Z-1.0
G1 F3000.0 X6.2334 Y225.1618
G2 X6.3047 Y224.3777 I-6.2761 J-0.9662
G1 X6.3474 Y222.889
G2 X6.35 Y222.707 I-6.3474 J-0.182
G1 Y56.693
G2 X6.3474 Y56.511 I-6.35 J0.0
G1 X6.3047 Y55.0223
G2 X6.2334 Y54.2381 I-6.3474 J0.182
G1 X6.1354 Y53.6019
G2 X6.8198 Y53.8997 I12.2942 J-27.3249
G2 X7.1336 Y54.0219 I2.4592 J-5.851
G2 X7.6514 Y54.2073 I111.9775 J-311.7695
G1 X7.6493 Y225.1871
G2 X6.1354 Y225.7983 I5.4669 J15.7202
G0 Z3.0
G0 X3.175 Y222.71
G0 Z0.1
G1 F120.0 Z-1.0
G2 F3000.0 Y222.707 I-3.175 J-0.0031
G1 Y56.693
G2 Y56.69 I-3.175 J0.0
G0 Z3.0
G0 X59.635 Y74.9383
G0 Z0.1
G1 F120.0 Z-1.0
G1 F3000.0 X59.4848 Y75.5612
G1 X59.3278 Y77.5468
G1 Y102.6314
G3 X60.0497 Y102.5572 I4.1727 J37.0684
G1 X60.0498 Y76.4195
G3 X60.0303 Y74.1047 I286.9699 J-3.5734
G1 X59.8812 Y74.3468
G1 X59.635 Y74.9383
G1 F120.0 X58.9022 Y74.6333
G1 F3000.0 X58.8781 Y74.6913
G1 X58.6984 Y75.4362
G1 X58.5341 Y77.5155
G1 Y103.5304
G3 X60.8434 Y103.2878 I4.9665 J36.1693
G1 X60.8435 Y76.4145
G3 X60.8215 Y73.1871 I286.1762 J-3.5685
G3 X60.7927 Y72.1734 I107.0536 J-3.5484
G1 X60.6583 Y72.255
G1 X60.0738 Y72.7504
G1 X59.5744 Y73.3315
G1 X59.1725 Y73.9838
G1 X58.9022 Y74.6333
G0 Z3.0
G0 X57.4365 Y74.0233
G0 Z0.1
G1 F120.0 Z-1.0
G1 F3000.0 X57.3642 Y74.1971
G1 X57.1257 Y75.186
G1 X56.9466 Y77.4529
G1 Y105.3991
G3 X62.4309 Y104.7949 I6.554 J34.3007
G1 X62.431 Y76.4046
G3 X62.409 Y73.1598 I284.5887 J-3.5585
G3 X62.3507 Y69.9662 I105.4662 J-3.5211
G1 X62.3468 Y69.8617
G1 X61.5389 Y70.0507
G1 X60.5971 Y70.4352
G1 X59.7275 Y70.9628
G1 X58.9516 Y71.6205
G1 X58.2886 Y72.392
G1 X57.7551 Y73.258
G1 X57.4365 Y74.0233
G1 F120.0 X55.9709 Y73.4133
G1 F3000.0 X55.8504 Y73.703
G1 X55.5531 Y74.9358
G1 X55.3591 Y77.3902
G1 Y107.3756
G3 X64.0183 Y106.37 I8.1415 J32.3242
G1 X64.0185 Y76.3947
G3 X63.9964 Y73.1324 I283.0012 J-3.5486
G3 X63.9381 Y69.9343 I103.8787 J-3.4937
G1 X63.8729 Y68.1806
G1 X63.5548 Y68.1533
G1 X62.29 Y68.2446
G1 X61.0551 Y68.5336
G1 X59.8809 Y69.0129
G1 X58.7968 Y69.6707
G1 X57.8294 Y70.4907
G1 X57.0028 Y71.4525
G1 X56.3377 Y72.5321
G1 X55.9709 Y73.4133
G1 F120.0 X54.5053 Y72.8033
G1 F3000.0 X54.3365 Y73.2088
G1 X53.9804 Y74.6856
G1 X53.7716 Y77.3276
G1 Y109.4811
G3 X65.6058 Y108.0234 I9.729 J30.2187
G1 X65.606 Y76.3847
G3 X65.5839 Y73.1048 I281.4137 J-3.5386
G3 X65.5256 Y69.9026 I102.2912 J-3.4661
G1 X65.443 Y67.684
G3 X65.4245 Y66.8882 I28.5553 J-1.0622
G1 X65.4185 Y66.7752
G1 X65.0791 Y66.6909
G1 X63.5657 Y66.5609
G1 X62.0505 Y66.6703
G1 X60.5712 Y67.0164
G1 X59.1647 Y67.5906
G1 X57.866 Y68.3786
G1 X56.7072 Y69.3608
G1 X55.7171 Y70.513
G1 X54.9203 Y71.8063
G1 X54.5053 Y72.8033
G1 F120.0 X53.0397 Y72.1933
G1 F3000.0 X52.8227 Y72.7147
G1 X52.4077 Y74.4354
G1 X52.1841 Y77.2649
G1 Y111.7447
G3 X67.1932 Y109.7679 I11.3165 J27.9551
G1 X67.1935 Y76.3747
G3 X67.1714 Y73.0771 I279.8262 J-3.5286
G3 X67.113 Y69.8712 I100.7037 J-3.4384
G1 X67.0294 Y67.625
G3 X67.0117 Y66.8393 I26.9688 J-1.0031
G1 X66.9468 Y65.6142
G3 X66.9418 Y65.5178 I26.9497 J-1.4277
G1 X65.3399 Y65.12
G1 X63.5765 Y64.9685
G1 X61.811 Y65.096
G1 X60.0874 Y65.4992
G1 X58.4485 Y66.1683
G1 X56.9353 Y67.0864
G1 X55.585 Y68.231
G1 X54.4313 Y69.5734
G1 X53.5029 Y71.0804
G1 X53.0397 Y72.1933
G0 Z3.0
G0 X51.574 Y71.5833
G0 Z0.1
G1 F120.0 Z-1.0
G1 F3000.0 X51.3089 Y72.2205
G1 X50.835 Y74.1852
G1 X50.5966 Y77.2023
G1 Y114.2085
G3 X68.7806 Y111.6207 I12.904 J25.4912
G1 X68.781 Y76.3646
G3 X68.7589 Y73.0493 I278.2387 J-3.5186
G3 X68.7004 Y69.84 I99.1163 J-3.4106
G1 X68.6158 Y67.566
G3 X68.5988 Y66.7914 I25.3824 J-0.9441
G1 X68.532 Y65.5302
G3 X68.5076 Y64.9396 I25.3644 J-1.3437
G1 X68.4698 Y64.4212
G1 X67.5623 Y64.0362
G1 X65.6008 Y63.549
G1 X63.5873 Y63.3761
G1 X61.5715 Y63.5216
G1 X59.6035 Y63.9821
G1 X57.7323 Y64.746
G1 X56.0045 Y65.7943
G1 X54.4628 Y67.1011
G1 X53.1455 Y68.6339
G1 X52.0855 Y70.3546
G1 X51.574 Y71.5833
G1 F120.0 X50.1084 Y70.9733
G1 F3000.0 X49.795 Y71.7264
G1 X49.2624 Y73.935
G1 X49.0091 Y77.1397
G1 Y116.9375
G3 X70.3681 Y113.6046 I14.4915 J22.7622
G1 X70.3685 Y76.3546
G3 X70.3464 Y73.0214 I276.6512 J-3.5085
G3 X70.2879 Y69.8089 I97.5288 J-3.3827
G1 X70.2022 Y67.5069
G3 X70.1861 Y66.7447 I23.796 J-0.8851
G1 X70.1173 Y65.4462
G3 X70.0935 Y64.8588 I23.7792 J-1.2597
G1 X69.9826 Y63.3384
G1 X68.0668 Y62.5258
G1 X65.8617 Y61.9781
G1 X63.5981 Y61.7837
G1 X61.332 Y61.9473
G1 X59.1197 Y62.4649
G1 X57.0162 Y63.3237
G1 X55.0738 Y64.5022
G1 X53.3406 Y65.9712
G1 X51.8598 Y67.6944
G1 X50.668 Y69.6287
G1 X50.1084 Y70.9733
G1 F120.0 X48.6428 Y70.3633
G1 F3000.0 X48.2812 Y71.2322
G1 X47.6897 Y73.6849
G1 X47.4216 Y77.077
G1 Y120.0418
G3 X71.9555 Y115.7523 I16.079 J19.6579
G1 X71.956 Y76.3445
G3 X71.9338 Y72.9933 I275.0637 J-3.4984
G3 X71.8753 Y69.7782 I95.9413 J-3.3546
G1 X71.7886 Y67.4479
G3 X71.7734 Y66.6992 I22.2096 J-0.8261
G1 X71.7026 Y65.3622
G3 X71.6794 Y64.7793 I22.1939 J-1.1757
G1 X71.5106 Y62.4647
G3 X71.5047 Y62.3827 I22.1661 J-1.6168
G1 X70.8938 Y62.0006
G1 X68.5712 Y61.0153
G1 X66.1226 Y60.4071
G1 X63.609 Y60.1912
G1 X61.0925 Y60.3729
G1 X58.6359 Y60.9477
G1 X56.3 Y61.9014
G1 X54.143 Y63.21
G1 X52.2184 Y64.8414
G1 X50.574 Y66.7549
G1 X49.2506 Y68.9029
G1 X48.6428 Y70.3633
G1 F120.0 X47.1772 Y69.7533
G1 F3000.0 X46.7673 Y70.738
G1 X46.117 Y73.4347
G1 X45.8341 Y77.0144
G1 Y123.7388
G3 X73.5429 Y118.1126 I17.6665 J15.9609
G1 X73.5435 Y76.3344
G3 X73.5213 Y72.965 I273.4762 J-3.4883
G3 X73.4628 Y69.7476 I94.3538 J-3.3263
G1 X73.375 Y67.3889
G3 X73.3608 Y66.6551 I20.6232 J-0.7671
G1 X73.2879 Y65.2783
G3 X73.2654 Y64.701 I20.6086 J-1.0918
G1 X73.0938 Y62.3492
G3 X73.061 Y61.7967 I20.5828 J-1.5013
G1 X73.0255 Y61.4615
G1 X71.6293 Y60.5882
G1 X69.0757 Y59.5049
G1 X66.3835 Y58.8362
G1 X63.6198 Y58.5988
G1 X60.8531 Y58.7986
G1 X58.152 Y59.4306
G1 X55.5838 Y60.479
G1 X53.2123 Y61.9179
G1 X51.0962 Y63.7115
G1 X49.2882 Y65.8154
G1 X47.8332 Y68.177
G1 X47.1772 Y69.7533
G0 Z3.0
G0 X45.7115 Y69.1433
G0 Z0.1
G1 F120.0 Z-1.0
G1 F3000.0 X45.2535 Y70.2439
G1 X44.5443 Y73.1845
G1 X44.2466 Y76.9517
G1 Y128.6062
G3 X75.1302 Y120.7648 I19.254 J11.0936
G1 X75.131 Y76.3242
G3 X75.1088 Y72.9366 I271.8887 J-3.4781
G3 X75.0502 Y69.7173 I92.7663 J-3.2979
G1 X74.9614 Y67.3299
G3 X74.9483 Y66.6218 I19.0368 J-0.7081
G1 Y66.6126
G1 X74.8731 Y65.1943
G3 X74.8515 Y64.6242 I19.0233 J-1.0078
G1 X74.6771 Y62.2337
G3 X74.6447 Y61.6775 I18.9995 J-1.3858
G1 X74.5228 Y60.5256
G1 X72.3648 Y59.1757
G1 X69.5801 Y57.9944
G1 X66.6444 Y57.2653
G1 X63.6306 Y57.0064
G1 X60.6136 Y57.2243
G1 X57.6682 Y57.9134
G1 X54.8676 Y59.0567
G1 X52.2815 Y60.6258
G1 X49.974 Y62.5817
G1 X48.0025 Y64.8758
G1 X46.4158 Y67.4512
G1 X45.7115 Y69.1433
G0 Z3.0
G0 X59.3278 Y176.7681
G0 Z0.1
G1 F120.0 Z-1.0
G1 F3000.0 Y201.8532
G1 X59.4848 Y203.8387
G1 X59.635 Y204.4616
G1 X59.8812 Y205.0532
G1 X60.0322 Y205.2982
G2 X60.0398 Y203.2014 I-286.7005 J-2.0848
G3 Y203.1941 I34.1312 J-0.0014
G1 X60.0438 Y176.8417
G3 X59.3278 Y176.7681 I3.4567 J-37.142
G1 F120.0 X59.4166 Y175.9793
G3 F3000.0 X58.5341 Y175.8691 I4.0839 J-36.2796
G1 Y201.8845
G1 X58.6984 Y203.9638
G1 X58.8781 Y204.7087
G1 X59.1725 Y205.4161
G1 X59.5744 Y206.0684
G1 X60.0738 Y206.6496
G1 X60.6583 Y207.145
G1 X60.8002 Y207.2311
G1 X60.8148 Y206.4949
G2 X60.8335 Y203.2014 I-287.4831 J-3.2814
G3 Y203.1942 I33.3375 J-0.0014
G1 X60.8376 Y176.1112
G3 X59.4166 Y175.9793 I2.6629 J-36.4115
G1 F120.0 X59.5942 Y174.4018
G3 F3000.0 X56.9466 Y174.0005 I3.9063 J-34.7021
G1 Y201.9471
G1 X57.1258 Y204.214
G1 X57.3642 Y205.2029
G1 X57.7551 Y206.142
G1 X58.2886 Y207.008
G1 X58.9516 Y207.7794
G1 X59.7276 Y208.4372
G1 X60.5972 Y208.9648
G1 X61.5389 Y209.3492
G1 X62.3426 Y209.5373
G3 X62.3451 Y209.3943 I31.7463 J0.4859
G1 X62.4021 Y206.5197
G2 X62.421 Y203.2013 I-289.0705 J-3.3062
G3 Y203.1945 I31.75 J-0.0013
G1 X62.4253 Y174.6044
G3 X59.5942 Y174.4018 I1.0752 J-34.9047
G1 F120.0 X59.7718 Y172.8243
G3 F3000.0 X55.3591 Y172.024 I3.7288 J-33.1245
G1 Y202.0098
G1 X55.5531 Y204.4642
G1 X55.8504 Y205.697
G1 X56.3377 Y206.8678
G1 X57.0029 Y207.9475
G1 X57.8294 Y208.9093
G1 X58.7968 Y209.7293
G1 X59.881 Y210.3871
G1 X61.0551 Y210.8664
G1 X62.2899 Y211.1553
G1 X63.5548 Y211.2467
G1 X63.8748 Y211.2192
G1 X63.9289 Y209.6337
G3 X63.9323 Y209.4257 I30.16 J0.3894
G1 X63.9894 Y206.5445
G2 X64.0085 Y203.2013 I-290.6578 J-3.331
G3 Y203.1948 I30.1625 J-0.0013
G1 X64.013 Y173.0295
G3 X59.7718 Y172.8243 I-0.5125 J-33.3298
G0 Z3.0
G0 X59.9494 Y171.2467
G0 Z0.1
G1 F120.0 Z-1.0
G3 F3000.0 X53.7716 Y169.9185 I3.5512 J-31.547
G1 Y202.0724
G1 X53.9804 Y204.7144
G1 X54.3366 Y206.1912
G1 X54.9203 Y207.5937
G1 X55.7171 Y208.887
G1 X56.7072 Y210.0392
G1 X57.8661 Y211.0214
G1 X59.1648 Y211.8094
G1 X60.5712 Y212.3836
G1 X62.0504 Y212.7297
G1 X63.5656 Y212.8391
G1 X65.0791 Y212.7091
G1 X65.413 Y212.6261
G1 X65.4212 Y212.4579
G3 X65.4258 Y212.3123 I28.5629 J0.8303
G1 X65.5161 Y209.6709
G3 X65.5195 Y209.4572 I28.5728 J0.3523
G1 X65.5767 Y206.5693
G2 X65.596 Y203.2012 I-292.2451 J-3.3559
G3 Y203.1951 I28.575 J-0.0012
G1 X65.6008 Y171.3764
G3 X59.9494 Y171.2467 I-2.1002 J-31.6767
G1 F120.0 X60.1269 Y169.6692
G3 F3000.0 X52.1841 Y167.6548 I3.3736 J-29.9694
G1 Y202.1351
G1 X52.4077 Y204.9646
G1 X52.8227 Y206.6853
G1 X53.5029 Y208.3195
G1 X54.4313 Y209.8265
G1 X55.585 Y211.169
G1 X56.9353 Y212.3136
G1 X58.4486 Y213.2317
G1 X60.0874 Y213.9007
G1 X61.8109 Y214.304
G1 X63.5764 Y214.4315
G1 X65.34 Y214.28
G1 X66.9408 Y213.8824
G1 X67.0076 Y212.5196
G3 X67.0124 Y212.3665 I26.9766 J0.7686
G1 X67.1033 Y209.7075
G3 X67.1067 Y209.4886 I26.9857 J0.3157
G1 X67.1641 Y206.5942
G2 X67.1835 Y203.2011 I-293.8324 J-3.3807
G3 Y203.1953 I26.9875 J-0.0011
G1 X67.1885 Y169.6321
G3 X60.1269 Y169.6692 I-3.6879 J-29.9324
G0 Z3.0
G0 X60.3045 Y168.0917
G0 Z0.1
G1 F120.0 Z-1.0
G3 F3000.0 X50.5966 Y165.191 I3.196 J-28.3919
G1 Y202.1977
G1 X50.8351 Y205.2148
G1 X51.3089 Y207.1795
G1 X52.0855 Y209.0454
G1 X53.1456 Y210.7661
G1 X54.4628 Y212.2989
G1 X56.0046 Y213.6057
G1 X57.7324 Y214.654
G1 X59.6036 Y215.4179
G1 X61.5715 Y215.8784
G1 X63.5873 Y216.0239
G1 X65.6009 Y215.8509
G1 X67.5623 Y215.3638
G1 X68.4649 Y214.9809
G1 X68.5045 Y214.4144
G3 X68.5102 Y214.2902 I25.3753 J1.1192
G1 X68.594 Y212.5808
G3 X68.599 Y212.4207 I25.3901 J0.7074
G1 X68.6905 Y209.7437
G3 X68.6939 Y209.5201 I25.3985 J0.2795
G1 X68.7514 Y206.619
G2 X68.771 Y203.2011 I-295.4197 J-3.4056
G3 Y203.1956 I25.4 J-0.0011
G1 X68.7762 Y167.7797
G3 X60.3045 Y168.0917 I-5.2757 J-28.0799
G0 Z3.0
G0 X60.4821 Y166.5141
G0 Z0.1
G1 F120.0 Z-1.0
G3 F3000.0 X49.0091 Y162.462 I3.0184 J-26.8144
G1 Y202.2604
G1 X49.2624 Y205.4649
G1 X49.795 Y207.6737
G1 X50.6681 Y209.7712
G1 X51.8598 Y211.7056
G1 X53.3406 Y213.4287
G1 X55.0738 Y214.8978
G1 X57.0162 Y216.0763
G1 X59.1197 Y216.9351
G1 X61.332 Y217.4527
G1 X63.5981 Y217.6163
G1 X65.8618 Y217.4219
G1 X68.0668 Y216.8742
G1 X69.9807 Y216.0623
G1 X70.0895 Y214.5043
G3 X70.0958 Y214.368 I23.7902 J1.0292
G1 X70.1804 Y212.6415
G3 X70.1855 Y212.4749 I23.8037 J0.6467
G1 X70.2777 Y209.7792
G3 X70.2811 Y209.5515 I23.8113 J0.244
G1 X70.3387 Y206.6439
G2 X70.3585 Y203.201 I-297.0071 J-3.4305
G3 Y203.1959 I23.8125 J-0.001
G1 X70.3639 Y165.796
G3 X60.4821 Y166.5141 I-6.8634 J-26.0963
G1 F120.0 X60.6597 Y164.9366
G3 F3000.0 X47.4216 Y159.3577 I2.8409 J-25.2368
G1 Y202.323
G1 X47.6897 Y205.7151
G1 X48.2812 Y208.1678
G1 X49.2507 Y210.4971
G1 X50.574 Y212.6451
G1 X52.2184 Y214.5586
G1 X54.143 Y216.1899
G1 X56.3 Y217.4986
G1 X58.6359 Y218.4522
G1 X61.0925 Y219.027
G1 X63.6089 Y219.2087
G1 X66.1226 Y218.9928
G1 X68.5712 Y218.3847
G1 X70.8938 Y217.3994
G1 X71.5133 Y217.0119
G1 X71.5163 Y216.9775
G3 X71.5168 Y216.9711 I22.1424 J1.9138
G3 X71.5508 Y216.3663 I22.2049 J0.9443
G1 X71.6747 Y214.5936
G3 X71.6814 Y214.4457 I22.2051 J0.9399
G1 X71.7669 Y212.7016
G3 X71.7721 Y212.5291 I22.2173 J0.5866
G1 X71.8649 Y209.8141
G3 X71.8683 Y209.5829 I22.224 J0.2091
G1 X71.926 Y206.6688
G2 X71.946 Y203.2009 I-298.5944 J-3.4554
G3 Y203.1962 I22.225 J-0.0009
G1 X71.9517 Y163.6486
G3 X60.6597 Y164.9366 I-8.4511 J-23.9488
G0 Z3.0
G0 X60.8373 Y163.3591
G0 Z0.1
G1 F120.0 Z-1.0
G3 F3000.0 X45.8341 Y155.6607 I2.6633 J-23.6593
G1 Y202.3856
G1 X46.117 Y205.9653
G1 X46.7674 Y208.662
G1 X47.8332 Y211.2229
G1 X49.2882 Y213.5846
G1 X51.0962 Y215.6884
G1 X53.2123 Y217.4821
G1 X55.5838 Y218.921
G1 X58.152 Y219.9694
G1 X60.853 Y220.6014
G1 X63.6198 Y220.8011
G1 X66.3835 Y220.5638
G1 X69.0757 Y219.8951
G1 X71.6293 Y218.8118
G1 X73.0267 Y217.9377
G1 X73.0979 Y217.1142
G3 X73.1014 Y217.0735 I20.5608 J1.7771
G3 X73.1344 Y216.4769 I20.6203 J0.842
G1 X73.2599 Y214.6821
G3 X73.267 Y214.5234 I20.6199 J0.8514
G1 X73.3534 Y212.7611
G3 X73.3587 Y212.5834 I20.6308 J0.5271
G1 X73.4522 Y209.8483
G3 X73.4555 Y209.6144 I20.6368 J0.1748
G1 X73.5133 Y206.6937
G2 X73.5335 Y203.2009 I-300.1817 J-3.4803
G3 Y203.1964 I20.6375 J-0.0009
G1 X73.5395 Y161.2885
G3 X60.8373 Y163.3591 I-10.0389 J-21.5888
G0 Z3.0
G0 X61.0148 Y161.7815
G0 Z0.1
G1 F120.0 Z-1.0
G3 F3000.0 X44.2466 Y150.7933 I2.4857 J-22.0818
G1 Y202.4483
G1 X44.5444 Y206.2155
G1 X45.2535 Y209.1561
G1 X46.4158 Y211.9488
G1 X48.0025 Y214.5241
G1 X49.974 Y216.8183
G1 X52.2815 Y218.7742
G1 X54.8676 Y220.3433
G1 X57.6682 Y221.4866
G1 X60.6135 Y222.1757
G1 X63.6306 Y222.3936
G1 X66.6444 Y222.1347
G1 X69.5801 Y221.4055
G1 X72.3648 Y220.2242
G1 X74.5401 Y218.8636
G1 X74.6795 Y217.2509
G3 X74.6861 Y217.1758 I18.9792 J1.6404
G3 X74.7181 Y216.5876 I19.0356 J0.7396
G1 X74.8451 Y214.7698
G3 X74.8526 Y214.6011 I19.0347 J0.7637
G1 X74.9399 Y212.8199
G3 X74.9453 Y212.6376 I19.0442 J0.4683
G1 X75.0394 Y209.8818
G3 X75.0427 Y209.6458 I19.0495 J0.1414
G1 X75.1006 Y206.7187
G2 X75.121 Y203.2008 I-301.769 J-3.5052
G3 Y203.1967 I19.05 J-0.0008
G1 X75.1272 Y158.6366
G3 X61.0148 Y161.7815 I-11.6267 J-18.9368
G1 F120.0 X61.1924 Y160.204
G3 F3000.0 X76.7176 Y123.8549 I2.3081 J-20.5042
G1 X76.7185 Y76.314
G3 X76.6963 Y72.9081 I270.3012 J-3.468
G3 X76.6377 Y69.6872 I91.1788 J-3.2694
G1 X76.5478 Y67.2709
G3 X76.5358 Y66.6218 I17.4504 J-0.6491
G1 Y66.5706
G1 X76.4584 Y65.1103
G3 X76.4377 Y64.549 I17.438 J-0.9238
G1 X76.2604 Y62.1183
G3 X76.2287 Y61.5603 I17.4162 J-1.2703
G1 X76.0242 Y59.6283
G1 X75.8776 Y59.5005
G1 X73.1003 Y57.7633
G1 X70.0846 Y56.484
G1 X66.9052 Y55.6943
G1 X63.6415 Y55.414
G1 X60.3741 Y55.6499
G1 X57.1843 Y56.3962
G1 X54.1514 Y57.6344
G1 X51.3508 Y59.3337
G1 X48.8518 Y61.4518
G1 X46.7167 Y63.9363
G1 X44.9984 Y66.7253
G1 X43.7396 Y69.7497
G1 X42.9717 Y72.9343
G1 X42.6591 Y76.8891
G1 Y202.5109
G1 X42.9717 Y206.4657
G1 X43.7397 Y209.6503
G1 X44.9984 Y212.6746
G1 X46.7167 Y215.4637
G1 X48.8519 Y217.9482
G1 X51.3508 Y220.0663
G1 X54.1514 Y221.7656
G1 X57.1843 Y223.0037
G1 X60.3741 Y223.7501
G1 X63.6414 Y223.986
G1 X66.9053 Y223.7056
G1 X70.0845 Y222.916
G1 X73.1003 Y221.6367
G1 X75.6168 Y220.0626
G3 X76.0654 Y219.6514 I81.5263 J88.5021
G1 X76.2611 Y217.3876
G3 X76.2709 Y217.2782 I17.3976 J1.5037
G3 X76.3017 Y216.6982 I17.4509 J0.6372
G1 X76.4304 Y214.8564
G3 X76.4382 Y214.6788 I17.4494 J0.6771
G1 X76.5265 Y212.8778
G3 X76.5318 Y212.6918 I17.4577 J0.4104
G1 X76.6268 Y209.9143
G3 X76.6298 Y209.6773 I17.4622 J0.1089
G1 X76.688 Y206.7436
G2 X76.7085 Y203.2007 I-303.3563 J-3.5302
G3 Y203.197 I17.4625 J-0.0007
G1 X76.7151 Y155.5468
G3 X61.1924 Y160.204 I-13.2145 J-15.847
G0 Z3.0
G0 X61.37 Y158.6264
G0 Z0.1
G1 F120.0 Z-1.0
G3 F3000.0 X78.3048 Y127.7168 I2.1305 J-18.9267
G1 X78.306 Y76.3038
G3 X78.2838 Y72.8794 I268.7137 J-3.4578
G3 X78.2252 Y69.6574 I89.5913 J-3.2407
G1 X78.1342 Y67.2119
G3 X78.1233 Y66.6218 I15.864 J-0.5901
G1 Y66.5286
G1 X78.0437 Y65.0263
G3 X78.0241 Y64.4757 I15.8528 J-0.8398
G1 X77.8437 Y62.0028
G3 X77.8129 Y61.4455 I15.8329 J-1.1548
G1 X77.5854 Y59.2961
G3 X77.5844 Y59.2889 I15.7186 J-2.2231
G1 X77.519 Y58.8252
G1 X76.8258 Y58.2212
G1 X73.8358 Y56.3508
G1 X70.589 Y54.9736
G1 X67.1661 Y54.1234
G1 X63.6523 Y53.8216
G1 X60.1346 Y54.0756
G1 X56.7005 Y54.8791
G1 X53.4352 Y56.2121
G1 X50.42 Y58.0415
G1 X47.7296 Y60.322
G1 X45.4309 Y62.9968
G1 X43.581 Y65.9995
G1 X42.2258 Y69.2556
G1 X41.399 Y72.6841
G1 X41.0716 Y76.8264
G1 Y202.5736
G1 X41.399 Y206.7159
G1 X42.2258 Y210.1444
G1 X43.581 Y213.4005
G1 X45.4309 Y216.4032
G1 X47.7297 Y219.078
G1 X50.42 Y221.3585
G1 X53.4352 Y223.1879
G1 X56.7005 Y224.5209
G1 X60.1346 Y225.3244
G1 X63.6523 Y225.5784
G1 X67.1661 Y225.2766
G1 X70.589 Y224.4264
G1 X73.8358 Y223.0491
G1 X76.5842 Y221.3299
G3 X77.5706 Y220.4293 I80.5589 J87.2348
G1 X77.6013 Y220.1692
G3 X77.6406 Y219.8622 I15.7654 J1.8623
G1 X77.8427 Y217.5243
G3 X77.8558 Y217.3806 I15.816 J1.367
G3 X77.8854 Y216.8089 I15.866 J0.5349
G1 X78.0158 Y214.942
G3 X78.0238 Y214.7565 I15.864 J0.5915
G1 X78.1131 Y212.9349
G3 X78.1184 Y212.746 I15.8711 J0.3534
G1 X78.2141 Y209.9459
G3 X78.217 Y209.7087 I15.8748 J0.0773
G1 X78.2753 Y206.7686
G2 X78.296 Y203.2007 I-304.9437 J-3.5551
G3 Y203.1973 I15.875 J-0.0007
G1 X78.3029 Y151.6851
G3 X61.37 Y158.6264 I-14.8024 J-11.9853
G1 F120.0 X61.5476 Y157.0489
G3 F3000.0 X77.6246 Y129.4373 I1.953 J-17.3492
G3 X78.2479 Y130.37 I-11.556 J8.3965
G1 X78.5082 Y130.7948
G3 X79.0563 Y131.7735 I-12.1792 J7.4638
G3 X79.892 Y133.689 I-15.5558 J7.9263
G1 X79.8935 Y76.2936
G3 X79.8713 Y72.8505 I267.1262 J-3.4475
G3 X79.8127 Y69.6279 I88.0038 J-3.2118
G1 X79.7207 Y67.1529
G3 X79.7108 Y66.6218 I14.2776 J-0.5311
G1 Y66.4866
G1 X79.629 Y64.9423
G3 X79.6106 Y64.4046 I14.2675 J-0.7558
G1 X79.427 Y61.8873
G3 X79.3974 Y61.3333 I14.2496 J-1.0393
G1 X79.1611 Y59.1006
G3 X79.1564 Y59.0673 I14.1429 J-2.0276
G1 X79.0083 Y58.0172
G1 X77.7741 Y56.9418
G1 X74.5712 Y54.9384
G1 X71.0934 Y53.4631
G1 X67.427 Y52.5525
G1 X63.6631 Y52.2292
G1 X59.8951 Y52.5012
G1 X56.2166 Y53.3619
G1 X52.719 Y54.7898
G1 X49.4892 Y56.7494
G1 X46.6074 Y59.1921
G1 X44.1452 Y62.0573
G1 X42.1636 Y65.2736
G1 X40.712 Y68.7614
G1 X39.8263 Y72.4339
G1 X39.4841 Y76.7638
G1 Y202.6362
G1 X39.8263 Y206.9661
G1 X40.712 Y210.6386
G1 X42.1636 Y214.1263
G1 X44.1452 Y217.3427
G1 X46.6075 Y220.2079
G1 X49.4893 Y222.6506
G1 X52.7191 Y224.6102
G1 X56.2166 Y226.0381
G1 X59.8951 Y226.8987
G1 X63.6631 Y227.1708
G1 X67.427 Y226.8475
G1 X71.0934 Y225.9369
G1 X74.5712 Y224.4616
G1 X77.5525 Y222.5968
G3 X79.0769 Y221.2101 I79.5906 J85.9679
G1 X79.1779 Y220.3554
G3 X79.2186 Y220.0402 I14.1888 J1.6761
G1 X79.4243 Y217.661
G3 X79.4408 Y217.483 I14.2344 J1.2303
G3 X79.469 Y216.9195 I14.281 J0.4325
G1 X79.6013 Y215.0262
G3 X79.6094 Y214.8342 I14.2785 J0.5073
G1 X79.6997 Y212.9908
G3 X79.705 Y212.8002 I14.2844 J0.2974
G1 X79.8015 Y209.9762
G3 X79.8042 Y209.7402 I14.2874 J0.047
G1 X79.8626 Y206.7936
G2 X79.8835 Y203.2006 I-306.531 J-3.5801
G3 Y203.1975 I14.2875 J-0.0006
G1 X79.891 Y145.7131
G3 X61.5476 Y157.0489 I-16.3905 J-6.0133
G0 Z3.0
G0 X62.6131 Y147.5837
G0 Z0.1
G1 F120.0 Z-1.0
G3 F3000.0 X69.9189 Y135.0362 I0.8875 J-7.8839
G3 X70.1266 Y135.347 I-3.8503 J2.7976
G1 X70.3869 Y135.7717
G3 X70.5695 Y136.0978 I-4.0579 J2.4868
G3 X62.6131 Y147.5837 I-7.069 J3.6019
G1 F120.0 X62.7903 Y146.0093
G3 F3000.0 X68.6372 Y135.9675 I0.7103 J-6.3096
G3 X68.7757 Y136.1748 I-2.5686 J1.8663
G1 X69.036 Y136.5996
G3 X69.1579 Y136.8171 I-2.7071 J1.659
G3 X62.7903 Y146.0093 I-5.6573 J2.8826
G0 Z3.0
G0 X62.4355 Y149.1612
G0 Z0.1
G1 F120.0 Z-1.0
G2 F3000.0 X71.984 Y135.3771 I1.0651 J-9.4615
G2 X71.7404 Y134.9422 I-5.655 J2.8815
G1 X71.4801 Y134.5175
G2 X71.2032 Y134.1031 I-5.4115 J3.3163
G2 X62.4355 Y149.1612 I-7.7026 J5.5967
G0 Z3.0
G0 X62.2579 Y150.7388
G0 Z0.1
G1 F120.0 Z-1.0
G2 F3000.0 X73.3984 Y134.6564 I1.2426 J-11.039
G2 X73.094 Y134.1128 I-7.0695 J3.6022
G1 X72.8337 Y133.688
G2 X72.4875 Y133.1699 I-6.765 J4.1458
G2 X62.2579 Y150.7388 I-8.9869 J6.5298
G1 F120.0 X62.0803 Y152.3163
G2 F3000.0 X74.8129 Y133.9357 I1.4202 J-12.6165
G2 X74.4475 Y133.2833 I-8.484 J4.3229
G1 X74.1872 Y132.8585
G2 X73.7718 Y132.2368 I-8.1186 J4.9753
G2 X62.0803 Y152.3163 I-10.2712 J7.463
G1 F120.0 X61.9027 Y153.8938
G2 F3000.0 X76.2274 Y133.2149 I1.5978 J-14.1941
G2 X75.8011 Y132.4538 I-9.8984 J5.0436
G1 X75.5408 Y132.029
G2 X75.056 Y131.3036 I-9.4721 J5.8048
G2 X61.9027 Y153.8938 I-11.5555 J8.3962
G0 Z3.0
G0 X61.7252 Y155.4714
G0 Z0.1
G1 F120.0 Z-1.0
G2 F3000.0 X77.6418 Y132.4942 I1.7754 J-15.7716
G2 X77.1546 Y131.6243 I-11.3129 J5.7644
G1 X76.8943 Y131.1995
G2 X76.3403 Y130.3704 I-10.8257 J6.6343
G2 X61.7252 Y155.4714 I-12.8398 J9.3293
G0 Z3.0
G0 X81.4776 Y155.4734
G0 Z0.1
G1 F120.0 Z-1.0
G1 F3000.0 X81.481 Y76.2833
G3 X81.4588 Y72.8214 I265.5387 J-3.4372
G3 X81.4002 Y69.5986 I86.4163 J-3.1827
G1 X81.3071 Y67.0939
G3 X81.2983 Y66.6218 I12.6912 J-0.4721
G1 Y66.4445
G1 X81.2142 Y64.8584
G3 X81.1973 Y64.336 I12.6822 J-0.6718
G1 X81.0103 Y61.7718
G3 X80.9822 Y61.2244 I12.6664 J-0.9239
G1 X80.7366 Y58.9035
G3 X80.7283 Y58.8457 I12.5674 J-1.8305
G1 X80.4976 Y57.2093
G1 X78.7223 Y55.6625
G1 X75.3067 Y53.526
G1 X71.5979 Y51.9527
G1 X67.6879 Y50.9815
G1 X63.6739 Y50.6368
G1 X59.6556 Y50.9269
G1 X55.7328 Y51.8447
G1 X52.0028 Y53.3675
G1 X48.5585 Y55.4573
G1 X45.4852 Y58.0623
G1 X42.8594 Y61.1177
G1 X40.7462 Y64.5478
G1 X39.1981 Y68.2673
G1 X38.2536 Y72.1838
G1 X37.8966 Y76.7012
G1 Y202.6989
G1 X38.2537 Y207.2162
G1 X39.1981 Y211.1327
G1 X40.7462 Y214.8522
G1 X42.8594 Y218.2822
G1 X45.4853 Y221.3377
G1 X48.5585 Y223.9427
G1 X52.0029 Y226.0325
G1 X55.7328 Y227.5552
G1 X59.6556 Y228.4731
G1 X63.6739 Y228.7632
G1 X67.6879 Y228.4184
G1 X71.5979 Y227.4473
G1 X75.3067 Y225.874
G1 X78.5216 Y223.863
G3 X80.5826 Y221.9956 I78.6214 J84.7017
G1 X80.7544 Y220.5416
G3 X80.7965 Y220.2206 I12.6123 J1.4899
G1 X81.0059 Y217.7977
G3 X81.026 Y217.5854 I12.6528 J1.0936
G3 X81.0526 Y217.0302 I12.6957 J0.3301
G1 X81.1869 Y215.109
G3 X81.195 Y214.9119 I12.6929 J0.4246
G1 X81.2865 Y213.0456
G3 X81.2916 Y212.8545 I12.6977 J0.2427
G1 X81.3889 Y210.0052
G3 X81.3914 Y209.7716 I12.7 J0.018
G1 X81.4499 Y206.8186
G2 X81.471 Y203.2005 I-308.1183 J-3.6051
G3 Y203.1978 I12.7 J-0.0005
G1 X81.4776 Y155.4734
G1 F120.0 X83.0651 Y155.4736
G1 F3000.0 X83.0685 Y76.273
G3 X83.0463 Y72.7922 I263.9512 J-3.4269
G3 X82.9877 Y69.5696 I84.8288 J-3.1535
G1 X82.8935 Y67.0349
G3 X82.8858 Y66.6218 I11.1048 J-0.4131
G1 Y66.4025
G1 X82.7995 Y64.7744
G3 X82.7843 Y64.2705 I11.0969 J-0.5879
G1 X82.5936 Y61.6563
G3 X82.5675 Y61.1191 I11.0831 J-0.8084
G1 X82.3119 Y58.7044
G3 X82.3003 Y58.6241 I10.9921 J-1.6315
G1 X82.0231 Y56.6576
G3 X81.9407 Y56.3611 I10.6651 J-3.1214
G1 X79.6706 Y54.3831
G1 X76.0422 Y52.1135
G1 X72.1023 Y50.4422
G1 X67.9488 Y49.4106
G1 X63.6848 Y49.0443
G1 X59.4162 Y49.3526
G1 X55.2489 Y50.3276
G1 X51.2866 Y51.9452
G1 X47.6277 Y54.1651
G1 X44.363 Y56.9324
G1 X41.5736 Y60.1782
G1 X39.3288 Y63.8219
G1 X37.6843 Y67.7731
G1 X36.681 Y71.9336
G1 X36.3091 Y76.6385
G1 Y202.7615
G1 X36.681 Y207.4664
G1 X37.6843 Y211.6269
G1 X39.3288 Y215.578
G1 X41.5736 Y219.2218
G1 X44.3631 Y222.4676
G1 X47.6278 Y225.2349
G1 X51.2867 Y227.4548
G1 X55.2489 Y229.0724
G1 X59.4161 Y230.0474
G1 X63.6848 Y230.3556
G1 X67.9488 Y229.9894
G1 X72.1023 Y228.9578
G1 X76.0422 Y227.2864
G1 X79.4917 Y225.1288
G3 X82.0419 Y222.826 I77.6514 J83.4359
G3 X82.1366 Y222.3729 I15.5932 J3.021
G1 X82.3309 Y220.7279
G3 X82.3741 Y220.4038 I11.0358 J1.3036
G1 X82.5875 Y217.9344
G3 X82.6116 Y217.6878 I11.0712 J0.9569
G3 X82.6363 Y217.1409 I11.1102 J0.2277
G1 X82.7726 Y215.1899
G3 X82.7806 Y214.9896 I11.1072 J0.3436
G1 X82.8733 Y213.0988
G3 X82.8781 Y212.9087 I11.1109 J0.1894
G1 X82.9764 Y210.0327
G1 Y210.0232
G3 X82.9786 Y209.8031 I11.1125 J0.0
G1 X83.0372 Y206.8436
G2 X83.0585 Y203.2005 I-309.7056 J-3.6301
G3 Y203.1981 I11.1125 J-0.0005
G1 X83.0651 Y155.4736
G1 F120.0 X84.6526 Y155.4737
G1 F3000.0 X84.656 Y76.2627
G3 X84.6338 Y72.7627 I262.3637 J-3.4166
G3 X84.5753 Y69.5409 I83.2413 J-3.124
G1 X84.4799 Y66.9759
G3 X84.4733 Y66.6218 I9.5184 J-0.3541
G1 Y66.3605
G1 X84.3848 Y64.6904
G3 X84.3715 Y64.2087 I9.5117 J-0.5039
G1 X84.1769 Y61.5408
G3 X84.1532 Y61.0185 I9.4998 J-0.6929
G1 X83.887 Y58.503
G3 X83.8723 Y58.4025 I9.417 J-1.43
G1 X83.5784 Y56.3177
G3 X83.3813 Y55.5628 I9.1098 J-2.7815
G1 X83.3673 Y55.4985
G1 X80.6188 Y53.1038
G1 X76.7777 Y50.7011
G1 X72.6068 Y48.9318
G1 X68.2096 Y47.8396
G1 X63.6956 Y47.4519
G1 X59.1767 Y47.7782
G1 X54.7651 Y48.8104
G1 X50.5705 Y50.5229
G1 X46.697 Y52.873
G1 X43.2408 Y55.8025
G1 X40.2879 Y59.2387
G1 X37.9114 Y63.0961
G1 X36.1704 Y67.279
G1 X35.1083 Y71.6834
G1 X34.7216 Y76.5759
G1 Y202.8241
G1 X35.1083 Y207.7166
G1 X36.1705 Y212.121
G1 X37.9114 Y216.3039
G1 X40.2879 Y220.1613
G1 X43.2409 Y223.5974
G1 X46.697 Y226.527
G1 X50.5705 Y228.8771
G1 X54.7651 Y230.5896
G1 X59.1767 Y231.6218
G1 X63.6956 Y231.948
G1 X68.2097 Y231.5603
G1 X72.6068 Y230.4682
G1 X76.7777 Y228.6989
G1 X80.4626 Y226.3939
G3 X83.5011 Y223.66 I76.6805 J82.1708
G3 X83.5295 Y223.5242 I9.3382 J1.8773
G3 X83.7033 Y222.6425 I14.1057 J2.3228
G1 X83.9075 Y220.9141
G3 X83.9513 Y220.5904 I9.4592 J1.1174
G1 X84.1691 Y218.0711
G3 X84.1976 Y217.7902 I9.4896 J0.8202
G3 X84.2199 Y217.2515 I9.5242 J0.1252
G1 X84.3585 Y215.2686
G3 X84.3662 Y215.0673 I9.5213 J0.2649
G1 X84.4602 Y213.1502
G3 X84.4647 Y212.9629 I9.524 J0.138
G1 X84.5639 Y210.0598
G1 Y210.0232
G3 X84.5658 Y209.8345 I9.525 J0.0
G1 X84.6245 Y206.8686
G2 X84.646 Y203.2004 I-311.2929 J-3.6552
G3 Y203.1984 I9.525 J-0.0004
G1 X84.6526 Y155.4737
G1 F120.0 X86.2401 Y155.4739
G1 F3000.0 X86.2435 Y76.2523
G3 X86.2213 Y72.7331 I260.7762 J-3.4062
G3 X86.1628 Y69.5124 I81.6538 J-3.0944
G1 X86.0663 Y66.9169
G3 X86.0608 Y66.6218 I7.932 J-0.295
G1 Y66.3185
G1 X85.9701 Y64.6064
G3 X85.959 Y64.1865 I7.9264 J-0.4199
G1 Y64.1505
G1 X85.7602 Y61.4254
G3 X85.7395 Y60.9237 I7.9165 J-0.5774
G1 X85.4617 Y58.2985
G3 X85.4442 Y58.1809 I7.8423 J-1.2256
G1 X85.1388 Y56.0143
G3 X85.126 Y55.948 I7.7867 J-1.5397
G3 X84.9324 Y55.225 I7.5622 J-2.4118
G1 X84.8197 Y54.7074
G3 X84.7771 Y54.6213 I7.0925 J-3.5639
G1 X81.5671 Y51.8245
G1 X77.5132 Y49.2887
G1 X73.1112 Y47.4213
G1 X68.4705 Y46.2687
G1 X63.7064 Y45.8595
G1 X58.9372 Y46.2039
G1 X54.2813 Y47.2932
G1 X49.8543 Y49.1005
G1 X45.7662 Y51.5809
G1 X42.1187 Y54.6727
G1 X39.0021 Y58.2992
G1 X36.494 Y62.3702
G1 X34.6566 Y66.7848
G1 X33.5356 Y71.4332
G1 X33.1341 Y76.5132
G1 Y202.8868
G1 X33.5356 Y207.9668
G1 X34.6566 Y212.6152
G1 X36.494 Y217.0298
G1 X39.0021 Y221.1008
G1 X42.1187 Y224.7273
G1 X45.7663 Y227.8191
G1 X49.8543 Y230.2995
G1 X54.2813 Y232.1067
G1 X58.9372 Y233.1961
G1 X63.7064 Y233.5405
G1 X68.4705 Y233.1313
G1 X73.1112 Y231.9786
G1 X77.5132 Y230.1113
G1 X81.4344 Y227.6585
G3 X84.9634 Y224.4951 I75.7086 J80.9062
G1 X85.0214 Y224.1647
G3 X85.0894 Y223.8218 I7.8179 J1.3727
G3 X85.2694 Y222.9168 I12.5457 J2.0253
G1 X85.484 Y221.1003
G3 X85.5283 Y220.7814 I7.8827 J0.9312
G1 X85.7507 Y218.2078
G3 X85.7806 Y217.9219 I7.908 J0.6835
G2 X85.7844 Y217.8633 I-0.5024 J-0.0618
G3 X85.8036 Y217.3622 I7.9373 J0.0521
G1 X85.9445 Y215.3445
G3 X85.9518 Y215.145 I7.9352 J0.189
G1 X86.0471 Y213.1993
G3 X86.0513 Y213.0171 I7.937 J0.0889
G1 X86.1514 Y210.087
G1 Y210.0232
G3 X86.153 Y209.866 I7.9375 J0.0
G1 X86.2119 Y206.8937
G2 X86.2335 Y203.2003 I-312.8802 J-3.6802
G3 Y203.1986 I7.9375 J-0.0003
G1 X86.2401 Y155.4739
G1 F120.0 X87.8276 Y155.474
G1 F3000.0 X87.831 Y76.2419
G3 X87.8088 Y72.7033 I259.1887 J-3.3958
G3 X87.7504 Y69.4843 I80.0663 J-3.0646
G1 X87.6527 Y66.8579
G3 X87.6483 Y66.6218 I6.3456 J-0.236
G1 Y66.2765
G1 X87.5554 Y64.5224
G3 X87.5465 Y64.1865 I6.3411 J-0.3359
G1 Y64.0927
G1 X87.3435 Y61.3099
G3 X87.3267 Y60.8479 I6.3332 J-0.4619
G1 Y60.8365
G1 X87.0365 Y58.0951
G3 X87.036 Y58.0901 I6.3147 J-0.6683
G3 X87.0162 Y57.9593 I6.268 J-1.0172
G1 X86.7043 Y55.747
G3 X86.6686 Y55.5578 I6.2212 J-1.2723
G3 X86.4836 Y54.8872 I6.0196 J-2.0217
G1 X86.3258 Y54.1626
G3 X86.0771 Y53.6484 I5.5864 J-3.0191
G1 X82.5153 Y50.5451
G1 X78.2486 Y47.8762
G1 X73.6156 Y45.9109
G1 X68.7314 Y44.6978
G1 X63.7173 Y44.2671
G1 X58.6977 Y44.6295
G1 X53.7974 Y45.7761
G1 X49.1381 Y47.6782
G1 X44.8355 Y50.2887
G1 X40.9965 Y53.5428
G1 X37.7163 Y57.3596
G1 X35.0766 Y61.6444
G1 X33.1428 Y66.2907
G1 X31.9629 Y71.183
G1 X31.5466 Y76.4506
G1 Y202.9494
G1 X31.963 Y208.217
G1 X33.1428 Y213.1094
G1 X35.0766 Y217.7556
G1 X37.7163 Y222.0403
G1 X40.9965 Y225.8572
G1 X44.8355 Y229.1112
G1 X49.1381 Y231.7218
G1 X53.7974 Y233.6239
G1 X58.6977 Y234.7705
G1 X63.7173 Y235.1329
G1 X68.7314 Y234.7022
G1 X73.6156 Y233.4891
G1 X78.2486 Y231.5237
G1 X82.4072 Y228.9225
G3 X86.2493 Y225.484 I74.7358 J79.6422
G3 X86.3624 Y225.3557 I4.8193 J4.1349
G3 X86.471 Y225.0882 I5.9365 J2.254
G1 X86.585 Y224.4392
G3 X86.6492 Y224.1211 I6.2543 J1.0981
G3 X86.8349 Y223.1969 I10.9859 J1.7259
G1 X87.0605 Y221.2865
G3 X87.1047 Y220.9782 I6.3062 J0.7449
G1 X87.3323 Y218.3445
G3 X87.3563 Y218.1158 I6.3264 J0.5468
G2 X87.3719 Y217.8738 I-2.078 J-0.2557
G3 X87.3872 Y217.4728 I6.3499 J0.0417
G1 X87.5309 Y215.4168
G3 X87.5374 Y215.2227 I6.3489 J0.1167
G1 X87.6343 Y213.2454
G3 X87.6379 Y213.0713 I6.3499 J0.0428
G1 X87.7389 Y210.1141
G1 Y210.0232
G3 X87.7402 Y209.8974 I6.35 J0.0
G1 X87.7992 Y206.9188
G2 X87.821 Y203.2003 I-314.4675 J-3.7053
G3 Y203.1989 I6.35 J-0.0003
G1 X87.8276 Y155.474
G1 F120.0 X89.4151 Y155.4742
G1 F3000.0 X89.4185 Y76.2315
G3 X89.3964 Y72.6732 I257.6012 J-3.3854
G3 X89.3379 Y69.4565 I78.4788 J-3.0346
G1 X89.2391 Y66.7988
G3 X89.2358 Y66.6218 I4.7592 J-0.177
G1 Y66.2344
G1 X89.1406 Y64.4384
G3 X89.134 Y64.1865 I4.7558 J-0.2519
G1 Y64.0349
G1 X88.9268 Y61.1944
G3 X88.9142 Y60.8479 I4.7499 J-0.3464
G1 Y60.7528
G1 X88.6152 Y57.928
G3 X88.6104 Y57.8799 I4.736 J-0.5012
G3 X88.5881 Y57.7377 I4.6936 J-0.807
G1 X88.2689 Y55.4734
G3 X88.229 Y55.2644 I4.6566 J-0.9987
G1 X88.2117 Y55.1618
G3 X88.0347 Y54.5495 I4.4765 J-1.6256
G1 X87.8256 Y53.5893
G3 X87.4474 Y52.8011 I4.0865 J-2.4458
G3 X87.2222 Y52.5406 I3.488 J-3.2428
G1 X83.4636 Y49.2658
G1 X78.9841 Y46.4638
G1 X74.1201 Y44.4005
G1 X68.9923 Y43.1268
G1 X63.7281 Y42.6747
G1 X58.4582 Y43.0552
G1 X53.3136 Y44.2589
G1 X48.4219 Y46.2559
G1 X43.9047 Y48.9966
G1 X39.8743 Y52.413
G1 X36.4305 Y56.4201
G1 X33.6592 Y60.9185
G1 X31.6289 Y65.7965
G1 X30.3903 Y70.9328
G1 X29.9591 Y76.3879
G1 Y203.0121
G1 X30.3903 Y208.4672
G1 X31.6289 Y213.6035
G1 X33.6592 Y218.4815
G1 X36.4306 Y222.9799
G1 X39.8743 Y226.987
G1 X43.9048 Y230.4034
G1 X48.4219 Y233.1441
G1 X53.3136 Y235.1411
G1 X58.4582 Y236.3448
G1 X63.7281 Y236.7253
G1 X68.9923 Y236.2731
G1 X74.1201 Y234.9995
G1 X78.9841 Y232.9362
G1 X83.381 Y230.1859
G3 X87.3802 Y226.606 I73.7621 J78.3788
G3 X87.7485 Y226.2044 I3.6884 J3.0129
G3 X87.9595 Y225.6473 I4.5505 J1.4052
G1 X88.0006 Y225.5565
G1 X88.1486 Y224.7137
G3 X88.2089 Y224.4235 I4.6907 J0.8236
G3 X88.3995 Y223.484 I9.4263 J1.4235
G1 X88.6371 Y221.4728
G3 X88.6764 Y221.2052 I4.7296 J0.5587
G1 X88.6804 Y221.1825
G1 X88.9139 Y218.4812
G3 X88.9319 Y218.3097 I4.7448 J0.4101
G2 X88.9594 Y217.8842 I-3.6537 J-0.4496
G3 X88.9708 Y217.5835 I4.7624 J0.0313
G1 X89.1175 Y215.4838
G3 X89.123 Y215.3004 I4.7622 J0.0497
G1 X89.2217 Y213.2872
G3 X89.2244 Y213.1256 I4.7625 J0.001
G1 X89.3264 Y210.1412
G1 Y210.0232
G3 X89.3274 Y209.9288 I4.7625 J0.0
G1 X89.3865 Y206.9438
G2 X89.4085 Y203.2002 I-316.0549 J-3.7304
G3 Y203.1992 I4.7625 J-0.0002
G1 X89.4151 Y155.4742
G1 F120.0 X91.0026 Y155.4744
G1 F3000.0 X91.006 Y76.221
G3 X90.9839 Y72.643 I256.0137 J-3.375
G3 X90.9255 Y69.4289 I76.8913 J-3.0043
G1 X90.8255 Y66.7398
G3 X90.8233 Y66.6218 I3.1728 J-0.118
G1 Y66.1924
G1 X90.7259 Y64.3545
G3 X90.7215 Y64.1865 I3.1706 J-0.168
G1 Y63.977
G1 X90.5101 Y61.0789
G3 X90.5017 Y60.8479 I3.1666 J-0.231
G1 Y60.669
G1 X90.1939 Y57.7609
G3 X90.1855 Y57.6695 I3.1574 J-0.3342
G3 X90.1601 Y57.5161 I3.1184 J-0.5966
G1 X89.8322 Y55.1901
G3 X89.7945 Y55.0012 I3.0933 J-0.7154
G1 X89.7508 Y54.7415
G1 X89.7451 Y54.7273
G3 X89.5859 Y54.2117 I2.9431 J-1.1911
G1 X89.3195 Y52.9884
G1 X89.2084 Y52.808
G3 X88.885 Y52.101 I2.7037 J-1.6645
G1 X88.8343 Y51.9408
G1 X88.7611 Y51.8721
G3 X88.3824 Y51.4459 I2.1742 J-2.3137
G1 X84.4118 Y47.9864
G1 X79.7196 Y45.0514
G1 X74.6245 Y42.89
G1 X69.2532 Y41.5559
G1 X63.7389 Y41.0823
G1 X58.2187 Y41.4808
G1 X52.8297 Y42.7417
G1 X47.7057 Y44.8336
G1 X42.974 Y47.7045
G1 X38.7521 Y51.2831
G1 X35.1448 Y55.4806
G1 X32.2418 Y60.1927
G1 X30.1151 Y65.3024
G1 X28.8176 Y70.6826
G1 X28.3716 Y76.3253
G1 Y203.0747
G1 X28.8176 Y208.7173
G1 X30.1151 Y214.0977
G1 X32.2418 Y219.2073
G1 X35.1448 Y223.9194
G1 X38.7521 Y228.1169
G1 X42.974 Y231.6955
G1 X47.7057 Y234.5664
G1 X52.8297 Y236.6582
G1 X58.2187 Y237.9191
G1 X63.7389 Y238.3177
G1 X69.2532 Y237.8441
G1 X74.6245 Y236.51
G1 X79.7196 Y234.3486
G1 X84.3558 Y231.4486
G3 X88.5211 Y227.7198 I72.7873 J77.1161
G1 X88.5999 Y227.6223
G3 X89.0942 Y227.1324 I2.4687 J1.9966
G1 X89.1716 Y227.0342
G1 X89.2128 Y226.8637
G3 X89.406 Y226.3014 I3.0861 J0.746
G1 X89.5296 Y226.0282
G1 X89.7121 Y224.9882
G3 X89.7681 Y224.7321 I3.1272 J0.5491
G3 X89.9631 Y223.78 I7.867 J1.115
G1 X90.2136 Y221.659
G3 X90.2399 Y221.4806 I3.1531 J0.3725
G1 X90.256 Y221.389
G1 X90.4955 Y218.6179
G3 X90.5075 Y218.5035 I3.1632 J0.2734
G2 X90.5468 Y217.8946 I-5.2293 J-0.6435
G3 X90.5545 Y217.6941 I3.1749 J0.0208
G1 X90.7048 Y215.5429
G1 Y215.5335
G3 X90.7086 Y215.3781 I3.175 J0.0
G1 X90.8092 Y213.3261
G1 Y213.2882
G3 X90.811 Y213.1798 I3.175 J0.0
G1 X90.9139 Y210.1683
G1 Y210.0232
G3 X90.9145 Y209.9603 I3.175 J0.0
G1 X90.9738 Y206.9689
G2 X90.996 Y203.2001 I-317.6422 J-3.7555
G3 Y203.1995 I3.175 J-0.0001
G1 X91.0026 Y155.4744
G0 Z3.0
G0 X60.7497 Y175.3102
G0 Z-0.9
G1 F120.0 Z-2.0
G3 F3000.0 X60.0418 Y175.2484 I2.7501 J-35.6099
G1 Y201.9158
G1 X60.185 Y203.7274
G1 X60.309 Y204.2416
G1 X60.5122 Y204.73
G1 X60.7382 Y205.0967
G2 X60.7486 Y203.291 I-105.5114 J-1.5107
G3 X60.7485 Y203.1981 I32.5436 J-0.091
G1 X60.7497 Y175.3102
G1 F120.0 X61.5434
G1 F3000.0 Y174.5676
G3 X59.248 Y174.3627 I1.9563 J-34.8674
G1 Y201.9471
G1 X59.3986 Y203.8525
G1 X59.5521 Y204.4887
G1 X59.8035 Y205.0929
G1 X60.1468 Y205.6502
G1 X60.5734 Y206.1466
G1 X61.0727 Y206.5697
G1 X61.4934 Y206.825
G2 X61.5423 Y203.2888 I-106.2666 J-3.239
G3 X61.5422 Y203.1981 I31.7499 J-0.0888
G1 X61.5434 Y175.3102
G1 F120.0 X63.1309 Y175.3103
G1 F3000.0 X63.131 Y173.0329
G3 X57.6605 Y172.5196 I0.3687 J-33.3327
G1 Y202.0098
G1 X57.8259 Y204.1026
G1 X58.0382 Y204.9829
G1 X58.3861 Y205.8188
G1 X58.8611 Y206.5897
G1 X59.4512 Y207.2764
G1 X60.1419 Y207.8619
G1 X60.916 Y208.3316
G1 X61.7543 Y208.6738
G1 X62.636 Y208.8801
G1 X63.0046 Y208.9067
G3 X63.0231 Y208.3928 I30.1511 J0.8298
G2 X63.1298 Y203.2843 I-107.7964 J-4.8068
G3 X63.1297 Y203.1982 I30.1624 J-0.0843
G1 X63.1309 Y175.3103
G1 F120.0 X64.7183
G1 F3000.0 X64.7185 Y171.4241
G3 X56.073 Y170.5666 I-1.2188 J-31.7238
G1 Y202.0724
G1 X56.2533 Y204.3528
G1 X56.5244 Y205.477
G1 X56.9687 Y206.5447
G1 X57.5753 Y207.5292
G1 X58.329 Y208.4063
G1 X59.2112 Y209.154
G1 X60.1999 Y209.7539
G1 X61.2705 Y210.191
G1 X62.3965 Y210.4544
G1 X63.5499 Y210.5377
G1 X64.5112 Y210.4551
G2 X64.5906 Y208.9847 I-26.5761 J-2.172
G3 X64.609 Y208.4636 I28.5651 J0.7518
G2 X64.7173 Y203.2799 I-109.3823 J-4.8775
G3 X64.7172 Y203.1983 I28.5749 J-0.0799
G1 X64.7183 Y175.3103
G0 Z3.0
G0 X66.3059 Y175.3104
G0 Z-0.9
G1 F120.0 Z-2.0
G1 F3000.0 X66.306 Y169.7291
G3 X54.4855 Y168.4814 I-2.8063 J-30.0289
G1 Y202.1351
G1 X54.6806 Y204.603
G1 X55.0105 Y205.9712
G1 X55.5513 Y207.2705
G1 X56.2895 Y208.4687
G1 X57.2068 Y209.5361
G1 X58.2804 Y210.4461
G1 X59.4837 Y211.1762
G1 X60.7866 Y211.7081
G1 X62.157 Y212.0288
G1 X63.5608 Y212.1301
G1 X64.963 Y212.0097
G1 X66.0204 Y211.747
G3 X66.0902 Y210.6236 I26.9646 J1.1122
G2 X66.1775 Y209.0265 I-28.155 J-2.3404
G3 X66.195 Y208.5343 I26.9782 J0.71
G2 X66.3048 Y203.2755 I-110.9682 J-4.9483
G3 X66.3047 Y203.1984 I26.9874 J-0.0755
G1 X66.3059 Y175.3104
G0 Z3.0
G0 X67.8934
G0 Z-0.9
G1 F120.0 Z-2.0
G1 F3000.0 X67.8936 Y167.9326
G3 X52.898 Y166.2328 I-4.3939 J-28.2323
G1 Y202.1977
G1 X53.1079 Y204.8532
G1 X53.4967 Y206.4653
G1 X54.1339 Y207.9964
G1 X55.0038 Y209.4083
G1 X56.0847 Y210.666
G1 X57.3497 Y211.7383
G1 X58.7675 Y212.5985
G1 X60.3028 Y213.2253
G1 X61.9176 Y213.6031
G1 X63.5716 Y213.7225
G1 X65.2239 Y213.5806
G1 X66.8333 Y213.1809
G1 X67.5065 Y212.8953
G3 X67.595 Y212.0164 I25.3126 J2.1057
G2 X67.6021 Y211.9249 I-1.1257 J-0.1332
G3 X67.6722 Y210.7551 I25.3828 J0.9344
G2 X67.7645 Y209.0682 I-29.7371 J-2.4719
G3 X67.7809 Y208.605 I25.3912 J0.6683
G2 X67.8923 Y203.271 I-112.5541 J-5.019
G3 X67.8922 Y203.1985 I25.3999 J-0.071
G1 X67.8934 Y175.3104
G0 Z3.0
G0 X69.4809 Y175.3105
G0 Z-0.9
G1 F120.0 Z-2.0
G1 F3000.0 X69.4811 Y166.0137
G3 X51.3105 Y163.7751 I-5.9814 J-26.3134
G1 Y202.2604
G1 X51.5352 Y205.1034
G1 X51.9829 Y206.9595
G1 X52.7165 Y208.7222
G1 X53.718 Y210.3478
G1 X54.9625 Y211.7959
G1 X56.4189 Y213.0304
G1 X58.0513 Y214.0208
G1 X59.819 Y214.7425
G1 X61.6781 Y215.1774
G1 X63.5824 Y215.3149
G1 X65.4847 Y215.1515
G1 X67.3378 Y214.6913
G1 X68.9969 Y213.9875
G1 X69.0519 Y213.5326
G1 X69.0528 Y213.5175
G3 X69.1715 Y212.2029 I23.7662 J1.4834
G2 X69.1886 Y211.9833 I-2.7023 J-0.3197
G3 X69.2543 Y210.8866 I23.7964 J0.876
G2 X69.3514 Y209.11 I-31.3191 J-2.6035
G3 X69.3668 Y208.6757 I23.8043 J0.6265
G2 X69.4798 Y203.2666 I-114.1401 J-5.0897
G3 X69.4797 Y203.1986 I23.8124 J-0.0666
G1 X69.4809 Y175.3105
G0 Z3.0
G0 X71.0684
G0 Z-0.9
G1 F120.0 Z-2.0
G1 F3000.0 X71.0686 Y163.9434
G3 X49.723 Y161.0362 I-7.5689 J-24.2431
G1 Y202.323
G1 X49.9626 Y205.3536
G1 X50.469 Y207.4536
G1 X51.2991 Y209.4481
G1 X52.4322 Y211.2873
G1 X53.8403 Y212.9257
G1 X55.4882 Y214.3225
G1 X57.3351 Y215.4431
G1 X59.3351 Y216.2596
G1 X61.4386 Y216.7518
G1 X63.5933 Y216.9074
G1 X65.7456 Y216.7225
G1 X67.8422 Y216.2018
G1 X69.8309 Y215.3581
G1 X70.4793 Y214.9525
G1 X70.6334 Y213.6774
G1 X70.6373 Y213.6164
G3 X70.748 Y212.3894 I22.1818 J1.3845
G2 X70.775 Y212.0417 I-4.2788 J-0.5063
G3 X70.8363 Y211.0181 I22.21 J0.8176
G2 X70.9384 Y209.1518 I-32.9012 J-2.735
G3 X70.9527 Y208.7464 I22.2173 J0.5847
G2 X71.0673 Y203.2621 I-115.726 J-5.1604
G3 X71.0672 Y203.1987 I22.2249 J-0.0621
G1 X71.0684 Y175.3105
G0 Z3.0
G0 X72.6559 Y175.3106
G0 Z-0.9
G1 F120.0 Z-2.0
G1 F3000.0 X72.6561 Y161.6789
G3 X48.1355 Y157.8894 I-9.1564 J-21.9787
G1 Y202.3856
G1 X48.3899 Y205.6037
G1 X48.9552 Y207.9478
G1 X49.8817 Y210.1739
G1 X51.1465 Y212.2268
G1 X52.7181 Y214.0556
G1 X54.5574 Y215.6147
G1 X56.6189 Y216.8654
G1 X58.8513 Y217.7768
G1 X61.1991 Y218.3261
G1 X63.6041 Y218.4998
G1 X66.0065 Y218.2934
G1 X68.3466 Y217.7122
G1 X70.5664 Y216.7706
G1 X71.9653 Y215.8955
G3 X71.987 Y215.7086 I20.5101 J2.2893
G1 X72.215 Y213.8222
G1 X72.2217 Y213.7153
G3 X72.3245 Y212.576 I20.5974 J1.2856
G2 X72.3614 Y212.1001 I-5.8553 J-0.6928
G3 X72.4184 Y211.1496 I20.6235 J0.7592
G2 X72.5253 Y209.1935 I-34.4832 J-2.8665
G3 X72.5387 Y208.8172 I20.6304 J0.543
G2 X72.6548 Y203.2577 I-117.3119 J-5.2311
G3 X72.6547 Y203.1988 I20.6374 J-0.0577
G1 X72.6559 Y175.3106
G0 Z3.0
G0 X74.2434
G0 Z-0.9
G1 F120.0 Z-2.0
G1 F3000.0 X74.2437 Y159.1526
G3 X46.548 Y154.0692 I-10.744 J-19.4523
G1 Y202.4483
G1 X46.8172 Y205.8539
G1 X47.4413 Y208.4419
G1 X48.4643 Y210.8998
G1 X49.8607 Y213.1663
G1 X51.5959 Y215.1854
G1 X53.6267 Y216.9068
G1 X55.9027 Y218.2877
G1 X58.3674 Y219.294
G1 X60.9596 Y219.9005
G1 X63.6149 Y220.0922
G1 X66.2674 Y219.8644
G1 X68.8511 Y219.2226
G1 X71.3019 Y218.183
G1 X73.3523 Y216.9004
G1 X73.4123 Y216.8454
G1 X73.5338 Y216.1557
G3 X73.563 Y215.899 I18.9416 J2.0291
G1 X73.7965 Y213.9671
G1 X73.8061 Y213.8142
G3 X73.9011 Y212.7625 I19.013 J1.1867
G2 X73.9478 Y212.1585 I-7.4318 J-0.8793
G3 X74.0004 Y211.2812 I19.0371 J0.7008
G2 X74.1123 Y209.2353 I-36.0653 J-2.998
G3 X74.1246 Y208.8879 I19.0434 J0.5012
G2 X74.2423 Y203.2533 I-118.8978 J-5.3019
G3 X74.2422 Y203.1989 I19.0499 J-0.0533
G1 X74.2434 Y175.3106
G0 Z3.0
G0 X75.8309
G0 Z-0.9
G1 F120.0 Z-2.0
G1 F3000.0 X75.8312 Y156.2449
G3 X44.9605 Y148.7606 I-12.3315 J-16.5447
G1 Y202.5109
G1 X45.2445 Y206.1041
G1 X45.9275 Y208.9361
G1 X47.0469 Y211.6256
G1 X48.5749 Y214.1059
G1 X50.4737 Y216.3153
G1 X52.6959 Y218.1989
G1 X55.1865 Y219.7101
G1 X57.8836 Y220.8111
G1 X60.7202 Y221.4748
G1 X63.6258 Y221.6846
G1 X66.5282 Y221.4353
G1 X69.3555 Y220.7331
G1 X72.0374 Y219.5954
G1 X74.3178 Y218.169
G1 X74.8818 Y217.6518
G3 X74.8831 Y217.6465 I38.277 J9.5493
G1 X75.1067 Y216.3771
G3 X75.1391 Y216.0895 I17.3687 J1.8078
G1 X75.3781 Y214.1119
G1 X75.3905 Y213.9131
G3 X75.4776 Y212.9491 I17.4286 J1.0879
G2 X75.5343 Y212.2169 I-9.0083 J-1.0659
G3 X75.5825 Y211.4127 I17.4507 J0.6424
G2 X75.6992 Y209.2771 I-37.6473 J-3.1295
G3 X75.7105 Y208.9586 I17.4565 J0.4594
G2 X75.8298 Y203.2488 I-120.4838 J-5.3726
G3 X75.8297 Y203.199 I17.4624 J-0.0488
G1 X75.8309 Y175.3106
G0 Z3.0
G0 X60.7484 Y104.0904
G0 Z-0.9
G1 F120.0 Z-2.0
G1 F3000.0 X60.7462 Y76.2031
G3 X60.757 Y75.3633 I32.5437 J-0.0031
G2 X60.7457 Y74.291 I-111.7084 J0.6381
G1 X60.5123 Y74.6699
G1 X60.309 Y75.1584
G1 X60.1849 Y75.6726
G1 X60.0418 Y77.4842
G1 Y104.1521
G3 X60.7484 Y104.0904 I3.458 J35.5482
G1 F120.0 X61.5421
G1 F3000.0 X61.5399 Y76.203
G3 X61.5508 Y75.3713 I31.75 J-0.003
G2 X61.5314 Y73.8207 I-112.5022 J0.6301
G3 X61.4815 Y72.5822 I117.833 J-5.3639
G1 X61.0727 Y72.8302
G1 X60.5734 Y73.2534
G1 X60.1468 Y73.7499
G1 X59.8035 Y74.307
G1 X59.552 Y74.9113
G1 X59.3986 Y75.5476
G1 X59.248 Y77.4529
G1 Y105.0378
G3 X61.5422 Y104.833 I4.2517 J34.6624
G1 X61.5421 Y104.0904
G1 F120.0 X63.1296 Y104.0903
G1 F3000.0 X63.1274 Y76.2029
G3 X63.1384 Y75.388 I30.1625 J-0.0029
G2 X63.1182 Y73.769 I-114.0899 J0.6134
G3 X63.0269 Y71.0987 I116.2462 J-5.3123
G3 X62.9863 Y70.4946 I81.7778 J-5.7899
G1 X62.636 Y70.5199
G1 X61.7544 Y70.7262
G1 X60.916 Y71.0685
G1 X60.1419 Y71.5381
G1 X59.4512 Y72.1236
G1 X58.861 Y72.8103
G1 X58.3861 Y73.5812
G1 X58.0382 Y74.4171
G1 X57.8259 Y75.2974
G1 X57.6605 Y77.3902
G1 Y106.881
G3 X63.1298 Y106.3676 I5.8392 J32.8193
G1 X63.1296 Y104.0903
G1 F120.0 X64.7171 Y104.0901
G1 F3000.0 X64.7149 Y76.2027
G3 X64.726 Y75.4055 I28.575 J-0.0027
G2 X64.705 Y73.7171 I-115.6775 J0.5959
G3 X64.6131 Y71.0245 I114.6595 J-5.2603
G3 X64.4919 Y68.9432 I80.1915 J-5.7157
G1 X63.55 Y68.8623
G1 X62.3965 Y68.9456
G1 X61.2705 Y69.209
G1 X60.1998 Y69.6461
G1 X59.2112 Y70.246
G1 X58.329 Y70.9937
G1 X57.5753 Y71.8708
G1 X56.9687 Y72.8553
G1 X56.5244 Y73.923
G1 X56.2533 Y75.0472
G1 X56.073 Y77.3276
G1 Y108.834
G3 X64.7174 Y107.9764 I7.4267 J30.8663
G1 X64.7171 Y104.0901
G0 Z3.0
G0 X66.3046 Y104.09
G0 Z-0.9
G1 F120.0 Z-2.0
G1 F3000.0 X66.3024 Y76.2026
G3 X66.3136 Y75.424 I26.9875 J-0.0026
G2 X66.2918 Y73.6649 I-117.2651 J0.5774
G3 X66.1993 Y70.9502 I113.0727 J-5.2081
G3 X66.0562 Y68.3575 I78.6053 J-5.6414
G3 X65.9954 Y67.6467 I52.1038 J-4.8143
G1 X64.963 Y67.3903
G1 X63.5608 Y67.2699
G1 X62.157 Y67.3712
G1 X60.7867 Y67.6919
G1 X59.4836 Y68.2238
G1 X58.2804 Y68.9538
G1 X57.2068 Y69.8639
G1 X56.2895 Y70.9313
G1 X55.5513 Y72.1295
G1 X55.0105 Y73.4288
G1 X54.6806 Y74.797
G1 X54.4855 Y77.2649
G1 Y110.9192
G3 X66.305 Y109.6713 I9.0142 J28.7811
G1 X66.3046 Y104.09
G0 Z3.0
G0 X67.8921 Y104.0899
G0 Z-0.9
G1 F120.0 Z-2.0
G1 F3000.0 X67.8899 Y76.2024
G3 X67.9012 Y75.4434 I25.4 J-0.0024
G2 X67.8785 Y73.6124 I-118.8527 J0.558
G3 X67.7856 Y70.8758 I111.4859 J-5.1556
G3 X67.6408 Y68.2536 I77.0191 J-5.567
G3 X67.5163 Y66.6394 I50.5191 J-4.7104
G1 X67.4986 Y66.5014
G1 X66.8332 Y66.2191
G1 X65.2239 Y65.8194
G1 X63.5716 Y65.6775
G1 X61.9175 Y65.7969
G1 X60.3028 Y66.1747
G1 X58.7674 Y66.8015
G1 X57.3497 Y67.6617
G1 X56.0846 Y68.734
G1 X55.0037 Y69.9918
G1 X54.1339 Y71.4036
G1 X53.4967 Y72.9347
G1 X53.1079 Y74.5468
G1 X52.898 Y77.2023
G1 Y113.1677
G3 X67.8926 Y111.4678 I10.6017 J26.5325
G1 X67.8921 Y104.0899
G0 Z3.0
G0 X69.4796 Y104.0898
G0 Z-0.9
G1 F120.0 Z-2.0
G1 F3000.0 X69.4774 Y76.2023
G3 X69.4888 Y75.4639 I23.8125 J-0.0023
G2 X69.4653 Y73.5597 I-120.4403 J0.5375
G3 X69.3719 Y70.8012 I109.8992 J-5.1029
G3 X69.2255 Y68.1494 I75.4328 J-5.4925
G3 X69.0977 Y66.4905 I48.9344 J-4.6062
G1 X68.9674 Y65.4724
G3 X68.9578 Y65.3959 I23.6201 J-3.0213
G1 X67.3377 Y64.7087
G1 X65.4847 Y64.2484
G1 X63.5825 Y64.0851
G1 X61.6781 Y64.2226
G1 X59.819 Y64.6575
G1 X58.0513 Y65.3792
G1 X56.4189 Y66.3696
G1 X54.9624 Y67.6041
G1 X53.718 Y69.0522
G1 X52.7165 Y70.6777
G1 X51.9828 Y72.4405
G1 X51.5352 Y74.2966
G1 X51.3105 Y77.1397
G1 Y115.6254
G3 X69.4802 Y113.3866 I12.1892 J24.0748
G1 X69.4796 Y104.0898
G0 Z3.0
G0 X71.0671 Y104.0897
G0 Z-0.9
G1 F120.0 Z-2.0
G1 F3000.0 X71.0649 Y76.2021
G3 X71.0764 Y75.4854 I22.225 J-0.0021
G2 X71.052 Y73.5066 I-122.0279 J0.516
G3 X70.9581 Y70.7266 I108.3124 J-5.0498
G3 X70.8102 Y68.045 I73.8465 J-5.4178
G3 X70.6792 Y66.3424 I47.3497 J-4.5018
G1 X70.5421 Y65.2709
G3 X70.4507 Y64.4296 I22.0454 J-2.8199
G1 X69.8309 Y64.0419
G1 X67.8421 Y63.1982
G1 X65.7456 Y62.6775
G1 X63.5933 Y62.4926
G1 X61.4386 Y62.6482
G1 X59.3351 Y63.1404
G1 X57.3351 Y63.9569
G1 X55.4882 Y65.0775
G1 X53.8402 Y66.4743
G1 X52.4322 Y68.1127
G1 X51.2991 Y69.9519
G1 X50.469 Y71.9464
G1 X49.9625 Y74.0464
G1 X49.723 Y77.077
G1 Y118.3644
G3 X71.0678 Y115.4569 I13.7767 J21.3359
G1 X71.0671 Y104.0897
G0 Z3.0
G0 X72.6546 Y104.0896
G0 Z-0.9
G1 F120.0 Z-2.0
G1 F3000.0 X72.6524 Y76.202
G3 X72.664 Y75.5082 I20.6375 J-0.002
G2 X72.6388 Y73.4533 I-123.6155 J0.4932
G3 X72.5444 Y70.6518 I106.7257 J-4.9965
G3 X72.395 Y67.9403 I72.2602 J-5.343
G3 X72.2608 Y66.1953 I45.765 J-4.3971
G1 X72.1168 Y65.0695
G3 X72.0011 Y63.9034 I20.4707 J-2.6185
G1 X71.9918 Y63.7704
G1 X71.9411 Y63.4893
G1 X70.5664 Y62.6294
G1 X68.3466 Y61.6878
G1 X66.0065 Y61.1066
G1 X63.6041 Y60.9002
G1 X61.1991 Y61.0739
G1 X58.8513 Y61.6232
G1 X56.6189 Y62.5346
G1 X54.5574 Y63.7853
G1 X52.7181 Y65.3444
G1 X51.1464 Y67.1732
G1 X49.8817 Y69.226
G1 X48.9552 Y71.4522
G1 X48.3899 Y73.7963
G1 X48.1355 Y77.0144
G1 Y121.5112
G3 X72.6554 Y117.7213 I15.3642 J18.1891
G1 X72.6546 Y104.0896
G0 Z3.0
G0 X74.2421 Y104.0895
G0 Z-0.9
G1 F120.0 Z-2.0
G1 F3000.0 X74.2399 Y76.2018
G3 X74.2517 Y75.5324 I19.05 J-0.0018
G2 X74.2255 Y73.3996 I-125.2031 J0.469
G3 X74.1307 Y70.5768 I105.1389 J-4.9428
G3 X73.9797 Y67.8353 I70.6739 J-5.268
G3 X73.8425 Y66.0491 I44.1802 J-4.2921
G1 X73.6914 Y64.8681
G3 X73.5847 Y63.7917 I18.896 J-2.417
G1 X73.5693 Y63.5731
G1 X73.3858 Y62.5556
G3 X73.3787 Y62.5161 I18.7476 J-3.381
G1 X71.3019 Y61.217
G1 X68.851 Y60.1773
G1 X66.2674 Y59.5356
G1 X63.615 Y59.3078
G1 X60.9596 Y59.4995
G1 X58.3674 Y60.106
G1 X55.9027 Y61.1123
G1 X53.6267 Y62.4932
G1 X51.5959 Y64.2146
G1 X49.8607 Y66.2337
G1 X48.4643 Y68.5002
G1 X47.4413 Y70.9581
G1 X46.8172 Y73.5461
G1 X46.548 Y76.9517
G1 Y125.3313
G3 X74.243 Y120.2475 I16.9517 J14.3689
G1 X74.2421 Y104.0895
G0 Z3.0
G0 X75.8296 Y104.0894
G0 Z-0.9
G1 F120.0 Z-2.0
G1 F3000.0 X75.8274 Y76.2017
G3 X75.8393 Y75.558 I17.4625 J-0.0017
G2 X75.8122 Y73.3457 I-126.7907 J0.4434
G3 X75.717 Y70.5017 I103.5522 J-4.8889
G3 X75.5645 Y67.73 I69.0876 J-5.1929
G3 X75.4244 Y65.9039 I42.5954 J-4.1868
G1 X75.2661 Y64.6667
G3 X75.1683 Y63.68 I17.3214 J-2.2156
G1 X75.1468 Y63.3758
G1 X74.9481 Y62.2739
G3 X74.8465 Y61.6451 I17.1853 J-3.0992
G1 X74.5072 Y61.3495
G1 X72.0373 Y59.8046
G1 X69.3555 Y58.6669
G1 X66.5283 Y57.9647
G1 X63.6258 Y57.7154
G1 X60.7201 Y57.9252
G1 X57.8836 Y58.5889
G1 X55.1865 Y59.69
G1 X52.6959 Y61.2011
G1 X50.4737 Y63.0847
G1 X48.5749 Y65.2941
G1 X47.0469 Y67.7743
G1 X45.9275 Y70.4639
G1 X45.2445 Y73.2959
G1 X44.9605 Y76.8891
G1 Y130.64
G3 X75.8306 Y123.1552 I18.5392 J9.0603
G1 X75.8296 Y104.0894
G0 Z3.0
G0 X77.4171
G0 Z-0.9
G1 F120.0 Z-2.0
G1 F3000.0 X77.4149 Y76.2015
G3 X77.4269 Y75.5853 I15.875 J-0.0015
G2 X77.3989 Y73.2915 I-128.3783 J0.4161
G3 X77.3034 Y70.4264 I101.9655 J-4.8347
G3 X77.1493 Y67.6243 I67.5013 J-5.1176
G3 X77.0064 Y65.7598 I41.0106 J-4.0811
G1 X76.8408 Y64.4653
G3 X76.7518 Y63.5682 I15.7467 J-2.0142
G1 X76.7243 Y63.1785
G1 X76.5104 Y61.9921
G3 X76.3689 Y61.0452 I15.623 J-2.8175
G1 X76.3105 Y60.8151
G1 X75.4554 Y60.0701
G1 X72.7728 Y58.3921
G1 X69.8599 Y57.1564
G1 X66.7891 Y56.3937
G1 X63.6366 Y56.123
G1 X60.4807 Y56.3508
G1 X57.3998 Y57.0717
G1 X54.4703 Y58.2676
G1 X51.7652 Y59.9089
G1 X49.3515 Y61.9549
G1 X47.2891 Y64.3546
G1 X45.6295 Y67.0485
G1 X44.4136 Y69.9697
G1 X43.6718 Y73.0457
G1 X43.373 Y76.8264
G1 Y202.5736
G1 X43.6719 Y206.3543
G1 X44.4137 Y209.4303
G1 X45.6295 Y212.3515
G1 X47.2892 Y215.0454
G1 X49.3515 Y217.4451
G1 X51.7652 Y219.4911
G1 X54.4703 Y221.1324
G1 X57.3997 Y222.3283
G1 X60.4807 Y223.0491
G1 X63.6366 Y223.277
G1 X66.7891 Y223.0062
G1 X69.86 Y222.2435
G1 X72.7728 Y221.0079
G1 X75.2832 Y219.4376
G1 X76.3105 Y218.4956
G3 X76.4367 Y217.9774 I36.8483 J8.7055
G1 X76.6801 Y216.5959
G3 X76.7151 Y216.28 I15.7953 J1.5889
G1 X76.9596 Y214.2567
G1 X76.9749 Y214.012
G3 X77.0541 Y213.1356 I15.8442 J0.989
G2 X77.1207 Y212.2753 I-10.5848 J-1.2524
G3 X77.1645 Y211.5442 I15.8643 J0.584
G2 X77.2862 Y209.3188 I-39.2294 J-3.261
G3 X77.2964 Y209.0293 I15.8695 J0.4177
G2 X77.4173 Y203.2444 I-122.0697 J-5.4433
G3 X77.4172 Y203.1991 I15.8749 J-0.0444
G1 X77.4187 Y152.7025
G3 X76.9683 Y126.232 I-13.919 J-13.0022
G3 X77.4182 Y126.7008 I-11.2232 J11.2229
G1 X77.4171 Y104.0894
G0 Z3.0
G0 X79.0046 Y104.0893
G0 Z-0.9
G1 F120.0 Z-2.0
G1 F3000.0 X79.0024 Y76.2014
G3 X79.0145 Y75.6144 I14.2875 J-0.0014
G2 X78.9856 Y73.237 I-129.9659 J0.387
G3 X78.8897 Y70.3509 I100.3788 J-4.7802
G3 X78.7341 Y67.5183 I65.9149 J-5.0421
G3 X78.5885 Y65.6167 I39.4258 J-3.9751
G1 X78.4154 Y64.2638
G3 X78.3354 Y63.4565 I14.172 J-1.8128
G1 X78.3019 Y62.9812
G1 X78.0727 Y61.7104
G3 X77.9338 Y60.7575 I14.0607 J-2.5357
G1 X77.727 Y59.9438
G1 X76.4037 Y58.7908
G1 X73.5083 Y56.9797
G1 X70.3644 Y55.646
G1 X67.05 Y54.8228
G1 X63.6474 Y54.5306
G1 X60.2412 Y54.7765
G1 X56.9159 Y55.5545
G1 X53.7541 Y56.8453
G1 X50.8344 Y58.6168
G1 X48.2293 Y60.825
G1 X46.0034 Y63.4151
G1 X44.2121 Y66.3226
G1 X42.8998 Y69.4756
G1 X42.0992 Y72.7955
G1 X41.7855 Y76.7638
G1 Y202.6362
G1 X42.0992 Y206.6045
G1 X42.8998 Y209.9244
G1 X44.2121 Y213.0773
G1 X46.0034 Y215.9849
G1 X48.2293 Y218.575
G1 X50.8344 Y220.7832
G1 X53.7541 Y222.5547
G1 X56.9159 Y223.8455
G1 X60.2412 Y224.6235
G1 X63.6474 Y224.8694
G1 X67.05 Y224.5772
G1 X70.3644 Y223.754
G1 X73.5083 Y222.4203
G1 X76.2487 Y220.7062
G1 X77.7474 Y219.3319
G3 X77.9902 Y218.3095 I35.4113 J7.8693
G1 X78.254 Y216.8118
G3 X78.2911 Y216.4705 I14.2214 J1.373
G1 X78.5412 Y214.4015
G1 X78.5593 Y214.1109
G3 X78.6306 Y213.3221 I14.2597 J0.8901
G2 X78.7071 Y212.3337 I-12.1613 J-1.4389
G3 X78.7465 Y211.6757 I14.2778 J0.5256
G2 X78.8731 Y209.3606 I-40.8114 J-3.3925
G3 X78.8824 Y209.1 I14.2826 J0.3759
G2 X79.0048 Y203.24 I-123.6556 J-5.514
G3 X79.0047 Y203.1992 I14.2874 J-0.0399
G1 X79.0061 Y147.7247
G3 X75.8457 Y127.3545 I-15.5064 J-8.0244
G3 X76.607 Y128.1781 I-10.1007 J10.1004
G1 X76.9305 Y128.5569
G3 X77.6248 Y129.4376 I-10.8619 J9.2769
G3 X79.0059 Y131.6753 I-14.1251 J10.2627
G1 X79.0046 Y104.0893
G0 Z3.0
G0 X66.6672 Y132.4252
G0 Z-0.9
G1 F120.0 Z-2.0
G3 F3000.0 X69.1105 Y134.0896 I-3.1675 J7.275
G3 X69.3641 Y134.364 I-3.3654 J3.3653
G1 X69.6877 Y134.7429
G3 X69.919 Y135.0363 I-3.619 J3.0909
G3 X66.6672 Y132.4252 I-6.4193 J4.6639
G1 F120.0 X66.0348 Y133.8778
G3 F3000.0 X67.9902 Y135.2099 I-2.5351 J5.8224
G3 X68.1594 Y135.393 I-2.2451 J2.245
G1 X68.4829 Y135.7718
G3 X68.6372 Y135.9676 I-2.4143 J2.062
G3 X66.0348 Y133.8778 I-5.1375 J3.7327
G0 Z3.0
G0 X67.301 Y130.9697
G0 Z-0.9
G1 F120.0 Z-2.0
G2 F3000.0 X71.2033 Y134.1032 I-3.8013 J8.7306
G2 X70.8948 Y133.7119 I-5.1347 J3.7306
G1 X70.5712 Y133.333
G2 X70.233 Y132.9671 I-4.8262 J4.1219
G2 X67.301 Y130.9697 I-6.7333 J6.7331
G1 F120.0 X67.9347 Y129.5142
G2 F3000.0 X72.4876 Y133.1701 I-4.435 J10.1861
G2 X72.102 Y132.6809 I-6.419 J4.6637
G1 X71.7784 Y132.302
G2 X71.3556 Y131.8446 I-6.0333 J5.1529
G2 X67.9347 Y129.5142 I-7.8558 J7.8557
G0 Z3.0
G0 X68.5684 Y128.0587
G0 Z-0.9
G1 F120.0 Z-2.0
G2 F3000.0 X73.7719 Y132.237 I-5.0687 J11.6416
G2 X73.3091 Y131.6499 I-7.7033 J5.5968
G1 X72.9855 Y131.271
G2 X72.4781 Y130.7221 I-7.2405 J6.1839
G2 X68.5684 Y128.0587 I-8.9784 J8.9782
G0 Z3.0
G0 X69.2022 Y126.6031
G0 Z-0.9
G1 F120.0 Z-2.0
G2 F3000.0 X75.0562 Y131.3038 I-5.7025 J13.0971
G2 X74.5162 Y130.6189 I-8.9876 J6.53
G1 X74.1927 Y130.24
G2 X73.6006 Y129.5996 I-8.4476 J7.2149
G2 X69.2022 Y126.6031 I-10.1009 J10.1007
G1 F120.0 X69.8359 Y125.1476
G2 F3000.0 X76.3405 Y130.3707 I-6.3362 J14.5527
G2 X75.7234 Y129.5879 I-10.2719 J7.4631
G1 X75.3998 Y129.2091
G2 X74.7232 Y128.4771 I-9.6548 J8.2459
G2 X69.8359 Y125.1476 I-11.2235 J11.2232
G0 Z3.0
G0 X80.5932 Y125.1472
G0 Z-0.9
G1 F120.0 Z-2.0
G1 F3000.0 X80.5899 Y76.2012
G3 X80.602 Y75.6457 I12.7 J-0.0012
G2 X80.5723 Y73.1822 I-131.5535 J0.3557
G3 X80.4761 Y70.2752 I98.7921 J-4.7254
G3 X80.3189 Y67.4118 I64.3286 J-4.9665
G3 X80.1708 Y65.4749 I37.841 J-3.8686
G1 X79.9901 Y64.0624
G3 X79.919 Y63.3448 I12.5974 J-1.6114
G1 X79.8794 Y62.7839
G1 X79.635 Y61.4286
G3 X79.5002 Y60.4759 I12.4984 J-2.254
G1 X79.1685 Y59.171
G3 X79.144 Y59.0729 I12.3087 J-3.1283
G1 X77.3519 Y57.5114
G1 X74.2438 Y55.5673
G1 X70.8688 Y54.1356
G1 X67.3109 Y53.2519
G1 X63.6583 Y52.9382
G1 X60.0017 Y53.2022
G1 X56.4321 Y54.0374
G1 X53.0379 Y55.423
G1 X49.9036 Y57.3247
G1 X47.1071 Y59.6952
G1 X44.7176 Y62.4756
G1 X42.7947 Y65.5968
G1 X41.386 Y68.9814
G1 X40.5265 Y72.5453
G1 X40.198 Y76.7012
G1 Y202.6989
G1 X40.5265 Y206.8547
G1 X41.386 Y210.4186
G1 X42.7947 Y213.8032
G1 X44.7176 Y216.9244
G1 X47.1071 Y219.7049
G1 X49.9037 Y222.0753
G1 X53.0379 Y223.977
G1 X56.432 Y225.3626
G1 X60.0017 Y226.1978
G1 X63.6583 Y226.4618
G1 X67.3109 Y226.1481
G1 X70.8688 Y225.2644
G1 X74.2438 Y223.8327
G1 X77.2142 Y221.9747
G1 X79.1932 Y220.16
G3 X79.5434 Y218.6429 I33.9655 J7.0412
G1 X79.8285 Y217.0243
G3 X79.8672 Y216.661 I12.6469 J1.1605
G1 X80.1227 Y214.5463
G1 X80.1438 Y214.2098
G3 X80.2071 Y213.5087 I12.6753 J0.7912
G2 X80.2935 Y212.3921 I-13.7378 J-1.6255
G3 X80.3286 Y211.8072 I12.6914 J0.4672
G2 X80.4601 Y209.4024 I-42.3934 J-3.524
G3 X80.4683 Y209.1708 I12.6956 J0.3341
G2 X80.5923 Y203.2355 I-125.2415 J-5.5847
G3 X80.5922 Y203.1993 I12.7 J-0.0355
G1 X80.5932 Y125.1472
G1 F120.0 X82.1807
G1 F3000.0 X82.1774 Y76.2011
G3 X82.1896 Y75.6796 I11.1125 J-0.0011
G2 X82.159 Y73.1271 I-133.1411 J0.3218
G3 X82.0625 Y70.1994 I97.2054 J-4.6703
G3 X81.9038 Y67.3048 I62.7422 J-4.8906
G3 X81.7532 Y65.3343 I36.2561 J-3.7616
G1 X81.5648 Y63.861
G3 X81.5025 Y63.2331 I11.0227 J-1.4099
G1 X81.4569 Y62.5866
G1 X81.1973 Y61.1469
G3 X81.0759 Y60.2793 I10.9361 J-1.9722
G1 X81.0679 Y60.1995
G1 X80.7071 Y58.7799
G3 X80.653 Y58.5572 I10.7701 J-2.7373
G3 X80.4997 Y58.1486 I26.7431 J-10.2602
G1 X78.3002 Y56.2321
G1 X74.9793 Y54.1548
G1 X71.3733 Y52.6251
G1 X67.5718 Y51.6809
G1 X63.6691 Y51.3457
G1 X59.7622 Y51.6278
G1 X55.9482 Y52.5202
G1 X52.3217 Y54.0007
G1 X48.9729 Y56.0325
G1 X45.9849 Y58.5653
G1 X43.4318 Y61.536
G1 X41.3773 Y64.8709
G1 X39.8721 Y68.4873
G1 X38.9538 Y72.2952
G1 X38.6105 Y76.6385
G1 Y202.7615
G1 X38.9538 Y207.1049
G1 X39.8721 Y210.9127
G1 X41.3773 Y214.529
G1 X43.4319 Y217.864
G1 X45.9849 Y220.8347
G1 X48.9729 Y223.3674
G1 X52.3217 Y225.3993
G1 X55.9482 Y226.8798
G1 X59.7622 Y227.7722
G1 X63.6691 Y228.0543
G1 X67.5718 Y227.719
G1 X71.3733 Y226.7749
G1 X74.9793 Y225.2452
G1 X78.1796 Y223.2433
G1 X80.6407 Y220.9865
G3 X80.6627 Y220.9059 I16.699 J4.5182
G3 X81.0964 Y218.9776 I32.496 J6.2952
G1 X81.4038 Y217.2328
G1 X81.4042 Y217.2279
G3 X81.4432 Y216.8515 I11.0712 J0.9569
G1 X81.7043 Y214.6911
G1 X81.7282 Y214.3087
G3 X81.7836 Y213.6952 I11.0909 J0.6923
G2 X81.88 Y212.4505 I-15.3143 J-1.812
G3 X81.9106 Y211.9387 I11.105 J0.4088
G2 X82.047 Y209.4441 I-43.9755 J-3.6555
G3 X82.0542 Y209.2415 I11.1087 J0.2924
G2 X82.1797 Y203.2311 I-126.8275 J-5.6555
G3 Y203.1993 I11.1125 J-0.0311
G1 X82.1807 Y125.1472
G1 F120.0 X83.7682 Y125.1471
G1 F3000.0 X83.7649 Y76.2009
G3 X83.7772 Y75.7165 I9.525 J-0.0009
G2 X83.7457 Y73.0717 I-134.7287 J0.2849
G3 X83.6489 Y70.1233 I95.6188 J-4.6149
G3 X83.4887 Y67.1973 I61.1558 J-4.8145
G3 X83.3359 Y65.1951 I34.6712 J-3.6541
G1 X83.1395 Y63.6596
G3 X83.0861 Y63.1214 I9.448 J-1.2085
G1 X83.0344 Y62.3893
G1 X82.7596 Y60.8651
G3 X82.6555 Y60.1215 I9.3738 J-1.6905
G1 X82.6358 Y59.9236
G1 X82.2457 Y58.3889
G3 X82.1756 Y58.0935 I9.2315 J-2.3463
G3 X81.8548 Y57.2237 I25.2204 J-9.7964
G1 X79.2484 Y54.9527
G1 X75.7147 Y52.7424
G1 X71.8777 Y51.1147
G1 X67.8326 Y50.11
G1 X63.6799 Y49.7533
G1 X59.5227 Y50.0535
G1 X55.4644 Y51.003
G1 X51.6055 Y52.5784
G1 X48.0421 Y54.7404
G1 X44.8627 Y57.4354
G1 X42.1461 Y60.5965
G1 X39.9599 Y64.1451
G1 X38.3583 Y67.9931
G1 X37.3811 Y72.045
G1 X37.023 Y76.5759
G1 Y202.8242
G1 X37.3812 Y207.355
G1 X38.3583 Y211.4069
G1 X39.9599 Y215.2549
G1 X42.1461 Y218.8035
G1 X44.8627 Y221.9646
G1 X48.0422 Y224.6596
G1 X51.6055 Y226.8216
G1 X55.4644 Y228.397
G1 X59.5228 Y229.3465
G1 X63.6799 Y229.6467
G1 X67.8326 Y229.29
G1 X71.8777 Y228.2853
G1 X75.7147 Y226.6576
G1 X79.1451 Y224.5119
G1 X82.051 Y221.8472
G1 X82.102 Y221.6734
G3 X82.2094 Y221.2692 I15.2376 J3.8313
G3 X82.6491 Y219.3137 I30.9493 J5.932
G1 X82.9793 Y217.4393
G1 X82.9858 Y217.3646
G3 X83.0192 Y217.0419 I9.4896 J0.8202
G1 X83.2858 Y214.8359
G1 X83.3126 Y214.4076
G3 X83.3601 Y213.8817 I9.5065 J0.5934
G2 X83.4664 Y212.5089 I-16.8908 J-1.9986
G3 X83.4927 Y212.0702 I9.5186 J0.3504
G2 X83.634 Y209.4859 I-45.5575 J-3.787
G3 X83.6401 Y209.3122 I9.5217 J0.2506
G2 X83.7672 Y203.2266 I-128.4134 J-5.7262
G3 Y203.1994 I9.525 J-0.0266
G1 X83.7682 Y125.1471
G1 F120.0 X85.3557
G1 F3000.0 X85.3524 Y76.2008
G3 X85.3636 Y75.7785 I7.9375 J-0.0008
G1 X85.3648 Y75.7567
G2 X85.3323 Y73.016 I-136.3163 J0.2447
G3 X85.2353 Y70.047 I94.0321 J-4.5592
G3 X85.0737 Y67.0892 I59.5693 J-4.7382
G3 X84.9187 Y65.0573 I33.0862 J-3.546
G1 X84.7141 Y63.4582
G3 X84.6697 Y63.0097 I7.8734 J-1.0071
G1 X84.612 Y62.192
G1 X84.3219 Y60.5834
G3 X84.2352 Y59.9637 I7.8115 J-1.4087
G1 X84.2036 Y59.6476
G1 X83.7843 Y57.9978
G3 X83.7013 Y57.6359 I7.6929 J-1.9552
G3 X83.2815 Y56.4912 I23.6948 J-9.3388
G3 X83.196 Y56.3114 I7.1246 J-3.4992
G1 X83.1769 Y56.2701
G1 X80.1967 Y53.6734
G1 X76.4502 Y51.33
G1 X72.3822 Y49.6042
G1 X68.0935 Y48.5391
G1 X63.6908 Y48.1609
G1 X59.2833 Y48.4791
G1 X54.9805 Y49.4859
G1 X50.8893 Y51.1561
G1 X47.1114 Y53.4483
G1 X43.7405 Y56.3056
G1 X40.8603 Y59.657
G1 X38.5424 Y63.4192
G1 X36.8444 Y67.499
G1 X35.8085 Y71.7948
G1 X35.4355 Y76.5132
G1 Y202.8868
G1 X35.8085 Y207.6052
G1 X36.8444 Y211.901
G1 X38.5425 Y215.9807
G1 X40.8603 Y219.743
G1 X43.7405 Y223.0944
G1 X47.1114 Y225.9517
G1 X50.8894 Y228.2439
G1 X54.9805 Y229.9141
G1 X59.2833 Y230.9209
G1 X63.6908 Y231.2391
G1 X68.0935 Y230.8609
G1 X72.3822 Y229.7957
G1 X76.4502 Y228.07
G1 X80.1106 Y225.7805
G1 X83.4497 Y222.7185
G1 X83.6343 Y222.09
G3 X83.756 Y221.6341 I13.7054 J3.4148
G3 X84.2016 Y219.6514 I29.4028 J5.567
G1 X84.5549 Y217.6457
G1 X84.5674 Y217.5013
G3 X84.5953 Y217.2324 I7.908 J0.6835
G1 X84.8674 Y214.9807
G1 X84.897 Y214.5065
G3 X84.9366 Y214.0683 I7.9221 J0.4945
G2 X85.0528 Y212.5673 I-18.4673 J-2.1851
G3 X85.0747 Y212.2017 I7.9321 J0.292
G2 X85.2209 Y209.5277 I-47.1396 J-3.9185
G3 X85.2261 Y209.3829 I7.9348 J0.2088
G2 X85.3547 Y203.2222 I-129.9993 J-5.7969
G3 Y203.1995 I7.9375 J-0.0222
G1 X85.3557 Y125.1471
G1 F120.0 X86.9432 Y125.147
G1 F3000.0 X86.9399 Y76.2006
G3 X86.9489 Y75.8628 I6.35 J-0.0006
G1 X86.9524 Y75.7975
G2 X86.919 Y72.96 I-137.9039 J0.2039
G3 X86.8218 Y69.9705 I92.4454 J-4.5033
G3 X86.6587 Y66.9805 I57.9829 J-4.6617
G3 X86.5017 Y64.921 I31.5012 J-3.4373
G1 X86.2888 Y63.2567
G3 X86.2532 Y62.8979 I6.2987 J-0.8057
G1 X86.1895 Y61.9947
G1 X85.8842 Y60.3016
G3 X85.8148 Y59.8059 I6.2492 J-1.127
G1 X85.7714 Y59.3716
G1 X85.3229 Y57.6068
G3 X85.2312 Y57.1871 I6.1543 J-1.5642
G3 X84.7505 Y55.8794 I22.1649 J-8.8901
G3 X84.638 Y55.6475 I5.6555 J-2.8875
G1 X84.5292 Y55.4112
G3 X84.3683 Y55.2026 I4.9473 J-3.9808
G1 X81.1449 Y52.394
G1 X77.1857 Y49.9175
G1 X72.8866 Y48.0938
G1 X68.3544 Y46.9681
G1 X63.7016 Y46.5685
G1 X59.0438 Y46.9048
G1 X54.4967 Y47.9687
G1 X50.1731 Y49.7338
G1 X46.1806 Y52.1561
G1 X42.6183 Y55.1757
G1 X39.5745 Y58.7175
G1 X37.125 Y62.6934
G1 X35.3306 Y67.0048
G1 X34.2358 Y71.5446
G1 X33.848 Y76.4506
G1 Y202.9494
G1 X34.2358 Y207.8554
G1 X35.3306 Y212.3952
G1 X37.125 Y216.7066
G1 X39.5745 Y220.6825
G1 X42.6183 Y224.2243
G1 X46.1806 Y227.2438
G1 X50.1732 Y229.6662
G1 X54.4967 Y231.4313
G1 X59.0438 Y232.4952
G1 X63.7016 Y232.8315
G1 X68.3544 Y232.4319
G1 X72.8866 Y231.3062
G1 X77.1857 Y229.4825
G1 X81.076 Y227.049
G1 X84.6962 Y223.7294
G3 X84.7714 Y223.6615 I4.2917 J4.6802
G3 X84.9244 Y223.3311 I12.0319 J5.3679
G1 X85.1606 Y222.5265
G3 X85.1668 Y222.5056 I6.0928 J1.789
G3 X85.3023 Y222.0012 I12.1729 J2.9992
G3 X85.7537 Y219.9908 I27.8565 J5.1999
G1 X86.1305 Y217.8522
G1 X86.149 Y217.638
G3 X86.1713 Y217.4229 I6.3264 J0.5468
G1 X86.4489 Y215.1255
G1 X86.4814 Y214.6054
G3 X86.5131 Y214.2548 I6.3377 J0.3956
G2 X86.6392 Y212.6257 I-20.0438 J-2.3716
G3 X86.6568 Y212.3332 I6.3457 J0.2336
G2 X86.8079 Y209.5694 I-48.7216 J-4.0501
G3 X86.812 Y209.4536 I6.3478 J0.1671
G2 X86.9422 Y203.2178 I-131.5852 J-5.8676
G3 Y203.1996 I6.35 J-0.0178
G1 X86.9432 Y125.147
G1 F120.0 X88.5307 Y125.1469
G1 F3000.0 X88.5274 Y76.2005
G3 X88.5342 Y75.9471 I4.7625 J-0.0005
G1 X88.5399 Y75.8387
G2 X88.5056 Y72.9038 I-139.4914 J0.1627
G3 X88.4082 Y69.8937 I90.8588 J-4.447
G3 X88.2437 Y66.871 I56.3964 J-4.5849
G3 X88.0849 Y64.7864 I29.9162 J-3.3278
G1 X87.8635 Y63.0553
G3 X87.8368 Y62.7862 I4.724 J-0.6043
G1 X87.767 Y61.7974
G1 X87.4465 Y60.0199
G3 X87.3944 Y59.6481 I4.6869 J-0.8452
G1 X87.3393 Y59.0957
G1 X86.8615 Y57.2157
G3 X86.771 Y56.7726 I4.6158 J-1.1731
G3 X86.7368 Y56.6761 I4.4724 J-1.6367
G3 X86.2165 Y55.2567 I20.6592 J-8.379
G3 X86.08 Y54.9836 I4.1895 J-2.2648
G1 X85.8831 Y54.5559
G3 X85.5517 Y54.1281 I3.5934 J-3.1255
G1 X82.0931 Y51.1147
G1 X77.9212 Y48.5051
G1 X73.391 Y46.5833
G1 X68.6153 Y45.3972
G1 X63.7124 Y44.9761
G1 X58.8043 Y45.3305
G1 X54.0128 Y46.4515
G1 X49.457 Y48.3115
G1 X45.2499 Y50.864
G1 X41.4961 Y54.0459
G1 X38.2888 Y57.7779
G1 X35.7076 Y61.9675
G1 X33.8168 Y66.5107
G1 X32.6631 Y71.2944
G1 X32.2605 Y76.3879
G1 Y203.0121
G1 X32.6631 Y208.1056
G1 X33.8168 Y212.8893
G1 X35.7076 Y217.4325
G1 X38.2888 Y221.622
G1 X41.4961 Y225.3541
G1 X45.2499 Y228.536
G1 X49.457 Y231.0885
G1 X54.0128 Y232.9485
G1 X58.8043 Y234.0695
G1 X63.7124 Y234.4239
G1 X68.6153 Y234.0028
G1 X73.3911 Y232.8166
G1 X77.9212 Y230.8949
G1 X82.0415 Y228.3176
G1 X85.7691 Y224.8995
G3 X85.858 Y224.8199 I3.2187 J3.5101
G3 X86.0875 Y224.6201 I166.9749 J191.5103
G3 X86.4101 Y223.9057 I10.7158 J4.4094
G1 X86.6838 Y222.9737
G3 X86.6989 Y222.9234 I4.5696 J1.3418
G3 X86.8483 Y222.3711 I10.6408 J2.5814
G3 X87.3062 Y220.3297 I26.3105 J4.83
G3 X87.3136 Y220.2864 I4.6977 J0.7829
G1 X87.7061 Y218.0586
G1 X87.7306 Y217.7747
G3 X87.7473 Y217.6134 I4.7448 J0.4101
G1 X88.0305 Y215.2704
G1 X88.0658 Y214.7043
G3 X88.0896 Y214.4413 I4.7532 J0.2967
G2 X88.2257 Y212.6841 I-21.6203 J-2.5582
G3 X88.2388 Y212.4647 I4.7593 J0.1752
G2 X88.3948 Y209.6112 I-50.3037 J-4.1816
G3 X88.3979 Y209.5244 I4.7609 J0.1253
G2 X88.5297 Y203.2133 I-133.1711 J-5.9383
G3 Y203.1997 I4.7625 J-0.0133
G1 X88.5307 Y125.1469
G1 F120.0 X90.1182
G1 F3000.0 X90.1149 Y76.2003
G3 X90.1194 Y76.0314 I3.175 J-0.0003
G1 X90.1275 Y75.88
G2 X90.0923 Y72.8472 I-141.079 J0.1214
G3 X89.9947 Y69.8166 I89.2722 J-4.3904
G3 X89.8288 Y66.7607 I54.8099 J-4.5078
G3 X89.6683 Y64.6536 I28.3311 J-3.2175
G1 X89.4381 Y62.8539
G3 X89.4203 Y62.6745 I3.1493 J-0.4028
G1 X89.3445 Y61.6001
G1 X89.0088 Y59.7381
G3 X88.9741 Y59.4902 I3.1246 J-0.5635
G1 X88.9071 Y58.8197
G1 X88.4 Y56.8247
G3 X88.3195 Y56.3733 I3.0772 J-0.7821
G3 X88.2261 Y56.124 I2.9239 J-1.2374
G3 X87.6772 Y54.615 I19.17 J-7.8269
G3 X87.522 Y54.3197 I2.7288 J-1.6231
G1 X87.2202 Y53.6642
G3 X86.7676 Y53.0865 I2.2563 J-2.2338
G1 X86.7617 Y53.0768
G1 X83.0414 Y49.8354
G1 X78.6567 Y47.0927
G1 X73.8955 Y45.0729
G1 X68.8761 Y43.8262
G1 X63.7233 Y43.3837
G1 X58.5648 Y43.7561
G1 X53.529 Y44.9344
G1 X48.7408 Y46.8892
G1 X44.3191 Y49.5719
G1 X40.3739 Y52.916
G1 X37.003 Y56.8384
G1 X34.2902 Y61.2417
G1 X32.3029 Y66.0165
G1 X31.0904 Y71.0442
G1 X30.673 Y76.3253
G1 Y203.0747
G1 X31.0904 Y208.3558
G1 X32.3029 Y213.3835
G1 X34.2902 Y218.1583
G1 X37.003 Y222.5616
G1 X40.3739 Y226.484
G1 X44.3191 Y229.8281
G1 X48.7408 Y232.5109
G1 X53.529 Y234.4656
G1 X58.5648 Y235.6439
G1 X63.7233 Y236.0163
G1 X68.8761 Y235.5737
G1 X73.8955 Y234.3271
G1 X78.6567 Y232.3073
G1 X83.007 Y229.5862
G1 X86.842 Y226.0695
G3 X86.9013 Y226.0165 I2.1458 J2.3401
G3 X87.2749 Y225.6914 I165.9317 J190.3138
G3 X87.4765 Y225.4223 I14.0742 J10.3368
G3 X87.8933 Y224.4895 I9.3268 J3.6071
G1 X88.207 Y223.421
G3 X88.2301 Y223.3457 I3.0464 J0.8945
G3 X88.3938 Y222.7448 I9.1095 J2.1591
G3 X88.8615 Y220.6586 I24.7649 J4.4564
G3 X88.877 Y220.5618 I3.1424 J0.454
G1 X89.2816 Y218.2651
G1 X89.3122 Y217.9114
G3 X89.3233 Y217.8039 I3.1632 J0.2734
G1 X89.612 Y215.4152
G1 X89.6503 Y214.8031
G3 X89.6661 Y214.6279 I3.1688 J0.1978
G2 X89.8121 Y212.7425 I-23.1968 J-2.7447
G3 X89.8208 Y212.5963 I3.1729 J0.1168
G2 X89.9818 Y209.653 I-51.8857 J-4.3131
G3 X89.9838 Y209.5951 I3.1739 J0.0835
G2 X90.1172 Y203.2089 I-134.7571 J-6.0091
G3 Y203.1998 I3.175 J-0.0089
G1 X90.1182 Y125.1469
G0 Z3.0
G0 X7.3775 Y125.1439
G0 Z-0.9
G1 F120.0 Z-2.0
G1 F3000.0 X7.3757 Y223.9235
G3 X7.2861 Y225.3926 I-147.524 J-8.2681
G2 X7.1621 Y225.526 I12.4379 J11.677
G3 X6.9053 Y225.7185 I-15.599 J-20.5466
G2 X5.5803 Y226.4855 I6.7433 J13.1772
G2 X3.8913 Y227.5316 I13.4187 J23.5505
G1 X4.0071 Y227.3044
G2 X4.3026 Y226.5851 I-4.2429 J-2.1631
G1 X4.3947 Y226.2956
G2 X4.5633 Y225.5765 I-4.5384 J-1.4438
G1 X4.6644 Y224.9203
G2 X4.7178 Y224.3322 I-4.7071 J-0.7246
G1 X4.7605 Y222.8435
G2 X4.7625 Y222.707 I-4.7605 J-0.1365
G1 Y56.693
G2 X4.7605 Y56.5565 I-4.7625 J0.0
G1 X4.7178 Y55.0678
G2 X4.6644 Y54.4797 I-4.7605 J0.1365
G1 X4.5633 Y53.8235
G2 X4.3947 Y53.1044 I-4.7071 J0.7246
G1 X4.3026 Y52.8149
G2 X4.0071 Y52.0956 I-4.5384 J1.4438
G1 X3.8886 Y51.863
G2 X5.3985 Y52.8178 I20.3899 J-30.5738
G2 X5.6916 Y52.9796 I2.4451 J-4.0832
G3 X6.0181 Y53.1734 I-1.2918 J2.5482
G2 X6.4871 Y53.4574 I2.696 J-3.9221
G2 X6.8805 Y53.663 I18.8139 J-35.5325
G3 X7.2025 Y53.9047 I-15.3328 J20.7639
G2 X7.2819 Y53.9883 I24.5403 J-23.2074
G2 X7.375 Y55.1842 I45.7923 J-2.9646
G1 X7.3808 Y55.3999
G1 X7.3775 Y125.1439
G0 Z3.0
G0 X3.175 Y56.693
G0 Z-0.9
G1 F120.0 Z-2.0
G2 F3000.0 Y56.69 I-3.175 J0.0
G0 Z3.0
G0 Y49.2454
G0 Z-0.9
G1 F120.0 Z-2.0
G3 F3000.0 X4.0543 Y50.0265 I-72.326 J82.301
G2 X4.3789 Y50.2819 I2.1214 J-2.3623
G2 X6.2125 Y51.4585 I19.8995 J-28.9928
G2 X6.408 Y51.5665 I1.6312 J-2.724
G3 X6.9156 Y51.8678 I-2.0082 J3.9613
G2 X7.2285 Y52.0573 I1.7986 J-2.6165
G2 X7.7166 Y52.3113 I18.0725 J-34.1323
G3 X8.268 Y52.7252 I-16.169 J22.1156
G2 X8.6703 Y53.1462 I23.4748 J-22.0279
G3 X8.7944 Y53.3729 I-28.6028 J15.8018
G3 X8.8425 Y53.5513 I-3.6632 J1.0832
G2 X8.9574 Y55.0904 I44.2317 J-2.5276
G1 X8.9652 Y55.3785
G1 X8.9601 Y223.9677
G3 X8.8487 Y225.7696 I-149.1083 J-8.3124
G1 X8.7729 Y226.0614
G3 X8.6819 Y226.2262 I-55.6227 J-30.5965
G2 X8.2371 Y226.6986 I11.042 J10.8434
G3 X7.7382 Y227.0727 I-16.674 J-21.7192
G2 X6.4055 Y227.8388 I5.9104 J11.8231
G2 X4.3536 Y229.1356 I12.5935 J22.1972
G2 X4.0867 Y229.3448 I1.822 J2.6002
G2 X3.175 Y230.1472 I108.4853 J124.1737
G0 Z3.0
G0 Y222.71
G0 Z-0.9
G1 F120.0 Z-2.0
G2 F3000.0 Y222.707 I-3.175 J-0.0031
G1 Y56.693
G0 Z3.0
G0 X12.7 Y28.175
G0 Z-0.9
G1 F120.0 Z-2.0
G1 F3000.0 Y39.4166
G1 X12.7232 Y39.7992
G1 X12.7677 Y39.8731
G2 X13.079 Y40.239 I6.4857 J-5.2032
G3 X14.3218 Y41.769 I-14.1459 J12.7592
G1 X14.947 Y42.6259
G3 X16.5301 Y45.2026 I-15.3886 J11.2291
G1 X16.7359 Y45.6063
G3 X17.9178 Y48.4836 I-16.9717 J8.6524
G1 X18.0098 Y48.7731
G3 X18.6845 Y51.6497 I-18.1536 J5.775
G1 X18.7855 Y52.3058
G3 X18.9995 Y54.6582 I-18.8282 J2.8985
G1 X19.0422 Y56.1469
G3 X19.05 Y56.693 I-19.0422 J0.5461
G1 Y222.707
G3 X19.0422 Y223.2531 I-19.05 J0.0
G1 X18.9995 Y224.7418
G3 X18.7855 Y227.0942 I-19.0422 J-0.5461
G1 X18.6845 Y227.7503
G3 X18.0098 Y230.6269 I-18.8282 J-2.8985
G1 X17.9177 Y230.9164
G3 X16.736 Y233.7936 I-18.1536 J-5.775
G1 X16.5302 Y234.1973
G3 X14.9469 Y236.7743 I-16.9718 J-8.6522
G1 X14.2904 Y237.6739
G3 X13.1726 Y239.0641 I-15.3885 J-11.2293
G1 X12.9402 Y239.3269
G1 X12.723 Y239.6043
G1 X12.7 Y239.9834
G1 Y246.825
G0 Z3.0
G0 X4.4369 Y226.1555
G0 Z-1.9
G1 F120.0 Z-3.0
G2 F3000.0 X4.5633 Y225.5765 I-4.5806 J-1.3037
G1 X4.6644 Y224.9203
G2 X4.7178 Y224.3322 I-4.7071 J-0.7246
G1 X4.7605 Y222.8435
G2 X4.7625 Y222.707 I-4.7605 J-0.1365
G1 Y56.693
G2 X4.7605 Y56.5565 I-4.7625 J0.0
G1 X4.7178 Y55.0678
G2 X4.6644 Y54.4797 I-4.7605 J0.1365
G1 X4.5633 Y53.8235
G2 X4.4389 Y53.2515 I-4.7071 J0.7246
G2 X5.0298 Y53.6614 I10.4832 J-14.4802
G2 X5.5749 Y54.1631 I28.502 J-30.4293
G1 X5.7804 Y54.4217
G2 X5.9018 Y54.5683 I3.7264 J-2.9606
G3 X5.9566 Y54.7808 I-15.6669 J4.1552
G3 X6.0559 Y56.4927 I-177.7694 J11.176
G1 X6.074 Y109.475
G2 Y109.4849 I4.7593 J-0.0016
G3 X6.0646 Y169.091 I-11630.1768 J27.9834
G2 X6.0367 Y169.6087 I4.7314 J0.5153
G1 X6.063 Y222.5047
G2 X6.0401 Y222.825 I4.733 J0.4999
G3 X5.9587 Y224.5495 I-92.2552 J-3.4859
G2 X5.9127 Y224.7187 I142.9069 J38.9713
G3 X5.7181 Y225.1051 I-387.7823 J-195.0507
G2 X5.6371 Y225.1803 I3.1964 J3.5262
G3 X5.0174 Y225.7598 I-38.1227 J-40.1415
G3 X4.5711 Y226.0619 I-51.0441 J-74.9365
G2 X4.4369 Y226.1555 I2.6559 J3.9493
G0 Z3.0
G0 X3.175 Y222.71
G0 Z-1.9
G1 F120.0 Z-3.0
G2 F3000.0 Y222.707 I-3.175 J-0.0031
G1 Y56.693
G2 Y56.69 I-3.175 J0.0
G0 Z3.0
G0 Y50.3051
G0 Z-1.9
G1 F120.0 Z-3.0
G2 F3000.0 X4.498 Y51.2924 I8.3249 J-9.7751
G2 X6.0153 Y52.4135 I10.4241 J-12.5211
G2 X6.7334 Y53.0743 I27.5164 J-29.1813
G1 X7.0209 Y53.4362
G2 X7.1577 Y53.5971 I2.4859 J-1.975
G3 X7.3721 Y53.938 I-0.8484 J0.7714
G3 X7.5288 Y54.5394 I-17.1373 J4.7855
G3 X7.6403 Y56.4504 I-179.3416 J11.4173
G1 X7.6583 Y109.4745
G2 Y109.4811 I3.175 J-0.0011
G3 X7.6487 Y169.1877 I-11631.7611 J27.9872
G2 X7.621 Y169.6079 I3.1473 J0.4186
G1 X7.6474 Y222.5963
G2 X7.6233 Y222.8848 I3.1486 J0.4084
G3 X7.5309 Y224.8065 I-93.8384 J-3.5457
G2 X7.4001 Y225.2874 I141.3347 J38.7143
G3 X7.027 Y226.028 I-389.2697 J-195.6194
G3 X6.8675 Y226.2043 I-0.7308 J-0.501
G2 X6.7281 Y226.3291 I2.0471 J2.4269
G3 X6.005 Y227.004 I-39.2137 J-41.2904
G3 X5.4552 Y227.3766 I-52.0317 J-76.1807
G2 X5.2083 Y227.5606 I1.7718 J2.6346
G3 X4.8062 Y227.8611 I-3.3697 J-4.0907
G2 X4.4751 Y228.1182 I1.7778 J2.6306
G3 X4.0631 Y228.4239 I-1.9361 J-2.1791
G2 X3.6981 Y228.685 I1.6601 J2.7064
G3 X3.175 Y229.1137 I-41.6679 J-50.3132
G0 Z3.0
G0 X60.6862 Y204.6409
G0 Z-1.9
G1 F120.0 Z-3.0
G1 F3000.0 X60.9475 Y205.0651
G1 X61.2723 Y205.443
G1 X61.5268 Y205.6587
G2 X61.5675 Y203.1762 I-86.086 J-2.6532
G1 X61.5614 Y173.7721
G3 X60.2422 Y173.6713 I1.9391 J-34.0723
G1 Y201.9785
G1 X60.378 Y203.6967
G1 X60.4948 Y204.181
G1 X60.6862 Y204.6409
G1 F120.0 X60.0104 Y205.0573
G1 F3000.0 X60.3047 Y205.5349
G1 X60.7112 Y206.0079
G1 X61.1869 Y206.4111
G1 X61.7202 Y206.7347
G1 X62.2714 Y206.9597
G2 X62.3612 Y203.1769 I-86.8307 J-3.9542
G1 X62.3551 Y173.0138
G3 X59.4484 Y172.7863 I1.1455 J-33.314
G1 Y202.0098
G1 X59.5916 Y203.8217
G1 X59.7379 Y204.4281
G1 X59.9775 Y205.0039
G1 X60.0104 Y205.0573
G1 F120.0 X58.6588 Y205.89
G1 F3000.0 X59.0189 Y206.4744
G1 X59.589 Y207.1377
G1 X60.2561 Y207.7033
G1 X61.004 Y208.157
G1 X61.8137 Y208.4876
G1 X62.6654 Y208.6868
G1 X63.5378 Y208.7498
G1 X63.7636 Y208.7304
G2 X63.9487 Y203.1782 I-88.3228 J-5.7249
G1 X63.9424 Y171.4429
G3 X57.8609 Y170.941 I-0.4418 J-31.7432
G1 Y202.0724
G1 X58.019 Y204.0719
G1 X58.224 Y204.9222
G1 X58.5601 Y205.7297
G1 X58.6588 Y205.89
G1 F120.0 X57.3073 Y206.7227
G1 F3000.0 X57.7331 Y207.4139
G1 X58.4668 Y208.2676
G1 X59.3254 Y208.9954
G1 X60.2878 Y209.5793
G1 X61.3299 Y210.0047
G1 X62.4259 Y210.2612
G1 X63.5486 Y210.3422
G1 X64.6701 Y210.2459
G1 X65.255 Y210.1006
G2 X65.3213 Y209.2374 I-27.8254 J-2.5707
G3 X65.3321 Y209.0698 I26.9371 J1.649
G2 X65.5362 Y203.1796 I-89.8913 J-6.0643
G1 X65.5296 Y169.7901
G3 X56.2734 Y168.9797 I-2.0291 J-30.0904
G1 Y202.1351
G1 X56.4463 Y204.3221
G1 X56.7102 Y205.4164
G1 X57.1427 Y206.4556
G1 X57.3073 Y206.7227
G0 Z3.0
G0 X55.9557 Y207.5554
G0 Z-1.9
G1 F120.0 Z-3.0
G1 F3000.0 X56.4474 Y208.3534
G1 X57.3446 Y209.3975
G1 X58.3946 Y210.2875
G1 X59.5716 Y211.0016
G1 X60.846 Y211.5219
G1 X62.1864 Y211.8355
G1 X63.5594 Y211.9347
G1 X64.931 Y211.8168
G1 X66.267 Y211.485
G1 X66.7203 Y211.2927
G3 X66.7212 Y211.2858 I25.1946 J3.2234
G2 X66.9058 Y209.3344 I-29.2916 J-3.7558
G3 X66.916 Y209.1767 I25.3525 J1.552
G2 X67.1237 Y203.1809 I-91.4752 J-6.1712
G1 X67.1169 Y168.0412
G3 X54.6859 Y166.8773 I-3.6164 J-28.3414
G1 Y202.1977
G1 X54.8736 Y204.5723
G1 X55.1963 Y205.9105
G1 X55.7253 Y207.1814
G1 X55.9557 Y207.5554
G1 F120.0 X54.6041 Y208.388
G1 F3000.0 X55.1616 Y209.293
G1 X56.2224 Y210.5273
G1 X57.4639 Y211.5797
G1 X58.8554 Y212.4239
G1 X60.3622 Y213.0391
G1 X61.9469 Y213.4099
G1 X63.5703 Y213.5271
G1 X65.1918 Y213.3878
G1 X66.7714 Y212.9955
G1 X68.1973 Y212.3906
G2 X68.2026 Y212.335 I-9.2772 J-0.9094
G3 X68.2958 Y211.4876 I23.7124 J2.1811
G2 X68.4904 Y209.4314 I-30.8662 J-3.9577
G3 X68.4999 Y209.2835 I23.768 J1.455
G2 X68.7112 Y203.1822 I-93.0591 J-6.278
G1 X68.7042 Y166.177
G3 X53.0984 Y164.5979 I-5.2037 J-26.4772
G1 Y202.2604
G1 X53.3009 Y204.8225
G1 X53.6825 Y206.4047
G1 X54.3079 Y207.9073
G1 X54.6041 Y208.388
G0 Z3.0
G0 X53.2525 Y209.2207
G0 Z-1.9
G1 F120.0 Z-3.0
G1 F3000.0 X53.8758 Y210.2325
G1 X55.1002 Y211.6572
G1 X56.5331 Y212.8718
G1 X58.1392 Y213.8462
G1 X59.8783 Y214.5562
G1 X61.7075 Y214.9842
G1 X63.5811 Y215.1195
G1 X65.4527 Y214.9587
G1 X67.2758 Y214.5059
G1 X69.0052 Y213.7723
G1 X69.6665 Y213.3587
G2 X69.7834 Y212.4804 I-10.7464 J-1.8774
G3 X69.8704 Y211.6895 I22.1316 J2.0357
G2 X70.0749 Y209.5284 I-32.4408 J-4.1596
G3 X70.0838 Y209.3904 I22.1835 J1.358
G2 X70.2987 Y203.1834 I-94.643 J-6.3849
G1 X70.2915 Y164.1712
G3 X51.5109 Y162.0876 I-6.791 J-24.4714
G1 Y202.323
G1 X51.7283 Y205.0727
G1 X52.1687 Y206.8988
G1 X52.8905 Y208.6331
G1 X53.2525 Y209.2207
G0 Z3.0
G0 X51.9009 Y210.0534
G0 Z-1.9
G1 F120.0 Z-3.0
G1 F3000.0 X52.59 Y211.172
G1 X53.978 Y212.787
G1 X55.6024 Y214.1639
G1 X57.423 Y215.2685
G1 X59.3945 Y216.0734
G1 X61.468 Y216.5585
G1 X63.5919 Y216.7119
G1 X65.7136 Y216.5297
G1 X67.7803 Y216.0164
G1 X69.7406 Y215.1848
G1 X71.1089 Y214.3289
G3 X71.2047 Y213.7734 I20.3832 J3.2298
G2 X71.3642 Y212.6259 I-12.2846 J-2.2921
G3 X71.445 Y211.8914 I20.5507 J1.8903
G2 X71.6594 Y209.6254 I-34.0154 J-4.3615
G3 X71.6677 Y209.4972 I20.5989 J1.261
G2 X71.8862 Y203.1847 I-96.2269 J-6.4917
G1 X71.8788 Y161.9856
G3 X49.9234 Y159.2578 I-8.3783 J-22.2859
G1 Y202.3856
G1 X50.1556 Y205.3229
G1 X50.6548 Y207.393
G1 X51.4731 Y209.359
G1 X51.9009 Y210.0534
G1 F120.0 X50.5493 Y210.8861
G1 F3000.0 X51.3043 Y212.1115
G1 X52.8558 Y213.9169
G1 X54.6716 Y215.4561
G1 X56.7068 Y216.6909
G1 X58.9107 Y217.5906
G1 X61.2285 Y218.1329
G1 X63.6028 Y218.3043
G1 X65.9745 Y218.1006
G1 X68.2847 Y217.5268
G1 X70.4761 Y216.5972
G1 X72.3552 Y215.4218
G3 X72.5652 Y215.2203 I13.296 J13.6425
G3 X72.6026 Y215.0568 I79.2339 J18.0767
G1 X72.6653 Y214.6509
G3 X72.7653 Y214.0646 I18.8268 J2.9078
G2 X72.945 Y212.7713 I-13.8452 J-2.5833
G3 X73.0196 Y212.0933 I18.9699 J1.7449
G2 X73.244 Y209.7224 I-35.5901 J-4.5634
G3 X73.2516 Y209.6041 I19.0144 J1.164
G2 X73.4737 Y203.186 I-97.8108 J-6.5986
G1 X73.4661 Y159.561
G3 X48.3359 Y155.9422 I-9.9656 J-19.8613
G1 Y202.4483
G1 X48.5829 Y205.573
G1 X49.141 Y207.8871
G1 X50.0557 Y210.0848
G1 X50.5493 Y210.8861
G1 F120.0 X49.1977 Y211.7188
G1 F3000.0 X50.0185 Y213.051
G1 X51.7336 Y215.0468
G1 X53.7409 Y216.7482
G1 X55.9906 Y218.1132
G1 X58.4268 Y219.1077
G1 X60.989 Y219.7072
G1 X63.6136 Y219.8967
G1 X66.2353 Y219.6715
G1 X68.7892 Y219.0373
G1 X71.2116 Y218.0096
G1 X73.3445 Y216.6755
G3 X74.0051 Y216.0525 I12.3067 J12.3889
G3 X74.1626 Y215.3568 I77.7939 J17.2444
G1 X74.2342 Y214.8932
G3 X74.3259 Y214.3557 I17.2579 J2.6655
G2 X74.5259 Y212.9167 I-15.4058 J-2.8745
G3 X74.5943 Y212.2952 I17.3891 J1.5995
G2 X74.8285 Y209.8193 I-37.1647 J-4.7653
G3 X74.8355 Y209.7109 I17.4299 J1.067
G2 X75.0612 Y203.1872 I-99.3947 J-6.7054
G1 X75.0534 Y156.796
G3 X46.7484 Y151.7462 I-11.5529 J-17.0963
G1 Y202.5109
G1 X47.0102 Y205.8232
G1 X47.6271 Y208.3813
G1 X48.6383 Y210.8107
G1 X49.1977 Y211.7188
G1 F120.0 X47.8462 Y212.5515
G1 F3000.0 X48.7327 Y213.9906
G1 X50.6114 Y216.1766
G1 X52.8101 Y218.0403
G1 X55.2744 Y219.5355
G1 X57.943 Y220.6249
G1 X60.7495 Y221.2816
G1 X63.6244 Y221.4891
G1 X66.4962 Y221.2425
G1 X69.2936 Y220.5477
G1 X71.9471 Y219.4221
G1 X74.3404 Y217.925
G2 X74.3627 Y217.9025 I-5.3839 J-5.368
G3 X75.2227 Y217.0952 I11.2885 J11.1618
G1 X75.4447 Y216.9017
G3 X75.7225 Y215.6573 I76.3544 J16.3952
G1 X75.8031 Y215.1356
G3 X75.8864 Y214.6469 I15.689 J2.4231
G2 X76.1067 Y213.0621 I-16.9664 J-3.1657
G3 X76.1689 Y212.4971 I15.8083 J1.454
G2 X76.413 Y209.9163 I-38.7393 J-4.9672
G3 X76.4194 Y209.8178 I15.8453 J0.97
G2 X76.6487 Y203.1884 I-100.9786 J-6.8123
G1 X76.6407 Y153.4872
G3 X45.1609 Y144.8395 I-13.1402 J-13.7875
G1 Y202.5736
G1 X45.4376 Y206.0734
G1 X46.1133 Y208.8754
G1 X47.2209 Y211.5365
G1 X47.8462 Y212.5515
G0 Z3.0
G0 X60.2422 Y105.7282
G0 Z-1.9
G1 F120.0 Z-3.0
G3 F3000.0 X61.5621 Y105.6274 I3.2584 J33.9716
G1 X61.5687 Y76.2244
G2 X61.5417 Y74.1531 I-94.4208 J0.1918
G3 X61.5202 Y73.7469 I132.3709 J-7.2117
G1 X61.2722 Y73.9571
G1 X60.9475 Y74.335
G1 X60.6862 Y74.759
G1 X60.4948 Y75.219
G1 X60.378 Y75.7034
G1 X60.2422 Y77.4216
G1 Y105.7282
G1 F120.0 X60.318 Y106.5183
G3 F3000.0 X62.3557 Y106.3857 I3.1826 J33.1815
G1 X62.3624 Y76.2237
G2 X62.335 Y74.122 I-95.2145 J0.1925
G3 X62.2543 Y72.4473 I131.5777 J-7.1806
G1 X61.7202 Y72.6653
G1 X61.187 Y72.9888
G1 X60.7112 Y73.3921
G1 X60.3046 Y73.8652
G1 X59.9775 Y74.3961
G1 X59.7379 Y74.9719
G1 X59.5916 Y75.5783
G1 X59.4484 Y77.3902
G1 Y106.6132
G3 X60.318 Y106.5183 I4.0521 J33.0865
G0 Z3.0
G0 X60.4695 Y108.0986
G0 Z-1.9
G1 F120.0 Z-3.0
G3 F3000.0 X63.9429 Y107.9566 I3.031 J31.6012
G1 X63.9499 Y76.2224
G2 X63.9214 Y74.0594 I-96.802 J0.1939
G3 X63.8143 Y71.718 I129.9912 J-7.118
G3 X63.7291 Y70.6666 I89.4359 J-7.7805
G1 X63.5378 Y70.6502
G1 X62.6653 Y70.7132
G1 X61.8138 Y70.9124
G1 X61.004 Y71.243
G1 X60.2562 Y71.6967
G1 X59.589 Y72.2623
G1 X59.0188 Y72.9257
G1 X58.5601 Y73.6702
G1 X58.224 Y74.4778
G1 X58.019 Y75.3281
G1 X57.8609 Y77.3276
G1 Y108.4585
G3 X60.4695 Y108.0986 I5.6396 J31.2413
G1 F120.0 X60.6211 Y109.6788
G3 F3000.0 X65.5302 Y109.6094 I2.8795 J30.021
G1 X65.5374 Y76.221
G2 X65.5079 Y73.9965 I-98.3895 J0.1952
G3 X65.3993 Y71.62 I128.4048 J-7.0551
G3 X65.2303 Y69.3506 I87.851 J-7.6824
G3 X65.2236 Y69.2915 I56.9006 J-6.5219
G1 X64.6701 Y69.1541
G1 X63.5486 Y69.0578
G1 X62.4259 Y69.1388
G1 X61.3299 Y69.3952
G1 X60.2878 Y69.8207
G1 X59.3255 Y70.4046
G1 X58.4668 Y71.1324
G1 X57.7331 Y71.9862
G1 X57.1427 Y72.9444
G1 X56.7102 Y73.9836
G1 X56.4463 Y75.0779
G1 X56.2734 Y77.2649
G1 Y110.4198
G3 X60.6211 Y109.6788 I7.2271 J29.28
G1 F120.0 X60.7727 Y111.259
G3 F3000.0 X67.1175 Y111.3584 I2.7279 J28.4407
G1 X67.1249 Y76.2197
G2 X67.0943 Y73.9332 I-99.977 J0.1966
G3 X66.9843 Y71.5218 I126.8184 J-6.9918
G3 X66.8123 Y69.2113 I86.266 J-7.5843
G3 X66.695 Y68.0966 I55.3187 J-6.3826
G1 X66.2668 Y67.9149
G1 X64.931 Y67.5831
G1 X63.5594 Y67.4653
G1 X62.1864 Y67.5645
G1 X60.8461 Y67.8781
G1 X59.5716 Y68.3984
G1 X58.3947 Y69.1124
G1 X57.3446 Y70.0026
G1 X56.4473 Y71.0466
G1 X55.7253 Y72.2185
G1 X55.1963 Y73.4895
G1 X54.8736 Y74.8277
G1 X54.6859 Y77.2023
G1 Y112.5222
G3 X60.7727 Y111.259 I8.8146 J27.1775
G0 Z3.0
G0 X60.9242 Y112.8393
G0 Z-1.9
G1 F120.0 Z-3.0
G3 F3000.0 X68.7047 Y113.2226 I2.5763 J26.8605
G1 X68.7124 Y76.2184
G2 X68.6807 Y73.8696 I-101.5645 J0.1979
G3 X68.5693 Y71.4236 I125.232 J-6.9283
G3 X68.3942 Y69.0718 I84.681 J-7.486
G3 X68.2685 Y67.8727 I53.7368 J-6.243
G3 X68.1441 Y67.0082 I23.5037 J-3.8226
G1 X68.1413 Y66.9857
G1 X66.7713 Y66.4045
G1 X65.1919 Y66.0122
G1 X63.5703 Y65.8729
G1 X61.9469 Y65.9901
G1 X60.3622 Y66.3609
G1 X58.8554 Y66.9761
G1 X57.4639 Y67.8203
G1 X56.2224 Y68.8727
G1 X55.1615 Y70.1071
G1 X54.3079 Y71.4927
G1 X53.6825 Y72.9953
G1 X53.3009 Y74.5775
G1 X53.0984 Y77.1397
G1 Y114.8016
G3 X60.9242 Y112.8393 I10.4021 J24.8981
G1 F120.0 X61.0758 Y114.4195
G3 F3000.0 X70.292 Y115.2284 I2.4247 J25.2802
G1 X70.2999 Y76.217
G2 X70.2671 Y73.8057 I-103.152 J0.1992
G3 X70.1543 Y71.3252 I123.6456 J-6.8643
G3 X69.9762 Y68.932 I83.096 J-7.3876
G3 X69.844 Y67.6705 I52.1548 J-6.1033
G3 X69.7193 Y66.811 I21.9281 J-3.6205
G1 X69.6192 Y66.0118
G1 X69.0051 Y65.6277
G1 X67.2757 Y64.894
G1 X65.4528 Y64.4413
G1 X63.5811 Y64.2805
G1 X61.7074 Y64.4158
G1 X59.8784 Y64.8437
G1 X58.1392 Y65.5538
G1 X56.5332 Y66.5282
G1 X55.1002 Y67.7429
G1 X53.8758 Y69.1676
G1 X52.8905 Y70.7668
G1 X52.1687 Y72.5012
G1 X51.7283 Y74.3273
G1 X51.5109 Y77.077
G1 Y117.3119
G3 X61.0758 Y114.4195 I11.9896 J22.3879
G0 Z3.0
G0 X61.2274 Y115.9998
G0 Z-1.9
G1 F120.0 Z-3.0
G3 F3000.0 X71.8792 Y117.414 I2.2732 J23.7
G1 X71.8874 Y76.2157
G2 X71.8535 Y73.7414 I-104.7395 J0.2005
G3 X71.7393 Y71.2267 I122.0592 J-6.8001
G3 X71.5582 Y68.792 I81.511 J-7.2891
G3 X71.4195 Y67.4671 I50.5728 J-5.9632
G3 X71.2945 Y66.6138 I20.3526 J-3.4171
G1 X71.155 Y65.4998
G3 X71.0558 Y65.0379 I20.1265 J-4.5639
G1 X69.7406 Y64.2152
G1 X67.7802 Y63.3836
G1 X65.7136 Y62.8703
G1 X63.5919 Y62.6881
G1 X61.468 Y62.8414
G1 X59.3945 Y63.3266
G1 X57.423 Y64.1315
G1 X55.6024 Y65.236
G1 X53.978 Y66.613
G1 X52.59 Y68.228
G1 X51.4731 Y70.041
G1 X50.6548 Y72.007
G1 X50.1556 Y74.0772
G1 X49.9234 Y77.0144
G1 Y120.1417
G3 X61.2274 Y115.9998 I13.5771 J19.558
G1 F120.0 X61.3789 Y117.58
G3 F3000.0 X73.4665 Y119.8387 I2.1216 J22.1197
G1 X73.4749 Y76.2145
G2 X73.4398 Y73.6768 I-106.327 J0.2018
G3 X73.3243 Y71.128 I120.4728 J-6.7354
G3 X73.1401 Y68.6517 I79.926 J-7.1904
G3 X72.9949 Y67.2624 I48.9909 J-5.823
G3 X72.8697 Y66.4166 I18.7772 J-3.2124
G1 X72.7203 Y65.2234
G3 X72.509 Y64.1751 I18.5612 J-4.2875
G1 X72.4895 Y64.0622
G1 X70.4761 Y62.8028
G1 X68.2846 Y61.8732
G1 X65.9745 Y61.2994
G1 X63.6028 Y61.0957
G1 X61.2285 Y61.2671
G1 X58.9107 Y61.8094
G1 X56.7068 Y62.7091
G1 X54.6717 Y63.9439
G1 X52.8558 Y65.4831
G1 X51.3042 Y67.2885
G1 X50.0557 Y69.3151
G1 X49.141 Y71.5129
G1 X48.5829 Y73.827
G1 X48.3359 Y76.9517
G1 Y123.4573
G3 X61.3789 Y117.58 I15.1646 J16.2424
G0 Z3.0
G0 X61.5305 Y119.1603
G0 Z-1.9
G1 F120.0 Z-3.0
G3 F3000.0 X75.0537 Y122.6037 I1.97 J20.5395
G1 X75.0624 Y76.2132
G2 X75.0262 Y73.6119 I-107.9145 J0.203
G3 X74.9094 Y71.0292 I118.8865 J-6.6705
G3 X74.7221 Y68.5111 I78.3409 J-7.0916
G3 X74.5704 Y67.0571 I47.4089 J-5.6824
G1 X74.5608 Y67.0014
G3 X74.4449 Y66.2194 I17.2113 J-2.9514
G1 X74.2852 Y64.9436
G3 X74.0734 Y63.9052 I16.9964 J-4.0078
G1 X73.9579 Y63.236
G3 X73.9574 Y63.2345 I16.6496 J-5.266
G1 X73.4425 Y62.7859
G1 X71.2116 Y61.3904
G1 X68.7891 Y60.3627
G1 X66.2354 Y59.7285
G1 X63.6136 Y59.5033
G1 X60.989 Y59.6928
G1 X58.4268 Y60.2922
G1 X55.9906 Y61.2868
G1 X53.7409 Y62.6518
G1 X51.7336 Y64.3533
G1 X50.0185 Y66.349
G1 X48.6383 Y68.5893
G1 X47.6271 Y71.0187
G1 X47.0102 Y73.5768
G1 X46.7484 Y76.8891
G1 Y127.6533
G3 X61.5305 Y119.1603 I16.7521 J12.0465
G1 F120.0 X61.6821 Y120.7405
G3 F3000.0 X76.641 Y125.9125 I1.8185 J18.9592
G1 X76.6499 Y76.2119
G2 X76.6125 Y73.5466 I-109.502 J0.2043
G3 X76.4944 Y70.9302 I117.3001 J-6.6052
G3 X76.3041 Y68.3702 I76.7559 J-6.9927
G3 X76.146 Y66.8529 I45.8269 J-5.5415
G1 X76.1255 Y66.7331
G3 X76.0201 Y66.0222 I15.6466 J-2.6831
G1 X75.8498 Y64.6615
G1 X75.833 Y64.5906
G3 X75.6377 Y63.6353 I15.4486 J-3.6547
G1 X75.5035 Y62.8574
G1 X75.5019 Y62.8523
G3 X75.3452 Y62.3381 I15.1056 J-4.8823
G1 X74.3908 Y61.5065
G1 X71.947 Y59.9779
G1 X69.2935 Y58.8523
G1 X66.4963 Y58.1575
G1 X63.6244 Y57.9109
G1 X60.7495 Y58.1184
G1 X57.943 Y58.7751
G1 X55.2744 Y59.8645
G1 X52.8102 Y61.3597
G1 X50.6114 Y63.2234
G1 X48.7327 Y65.4095
G1 X47.2209 Y67.8634
G1 X46.1133 Y70.5246
G1 X45.4376 Y73.3266
G1 X45.1609 Y76.8264
G1 Y134.56
G3 X61.6821 Y120.7405 I18.3396 J5.1397
G0 Z3.0
G0 X61.8336 Y122.3208
G0 Z-1.9
G1 F120.0 Z-3.0
G3 F3000.0 X77.6246 Y129.4373 I1.6669 J17.379
G3 X78.2282 Y130.338 I-11.556 J8.3965
G1 X78.2374 Y76.2107
G2 X78.1988 Y73.481 I-111.0895 J0.2055
G3 X78.0795 Y70.8311 I115.7138 J-6.5396
G3 X77.8861 Y68.2289 I75.1708 J-6.8935
G3 X77.7219 Y66.6497 I44.2449 J-5.4002
G1 X77.6902 Y66.4648
G3 X77.5953 Y65.8249 I14.082 J-2.4148
G1 X77.4143 Y64.3794
G1 X77.3778 Y64.2251
G3 X77.2021 Y63.3653 I13.9037 J-3.2892
G1 X77.0487 Y62.4764
G1 X77.0124 Y62.3641
G3 X76.7524 Y61.4586 I13.595 J-4.3941
G1 X75.339 Y60.2272
G1 X72.6825 Y58.5655
G1 X69.798 Y57.3418
G1 X66.7571 Y56.5866
G1 X63.6353 Y56.3184
G1 X60.51 Y56.5441
G1 X57.4592 Y57.2579
G1 X54.5582 Y58.4422
G1 X51.8794 Y60.0675
G1 X49.4892 Y62.0936
G1 X47.4469 Y64.4699
G1 X45.8035 Y67.1376
G1 X44.5995 Y70.0304
G1 X43.8649 Y73.0764
G1 X43.5734 Y76.7638
G1 Y202.6362
G1 X43.8649 Y206.3236
G1 X44.5995 Y209.3696
G1 X45.8035 Y212.2624
G1 X47.447 Y214.9301
G1 X49.4892 Y217.3065
G1 X51.8794 Y219.3324
G1 X54.5582 Y220.9578
G1 X57.4591 Y222.1421
G1 X60.5101 Y222.8559
G1 X63.6353 Y223.0816
G1 X66.7571 Y222.8134
G1 X69.798 Y222.0581
G1 X72.6826 Y220.8345
G1 X75.3289 Y219.1792
G2 X75.4916 Y219.0187 I-6.3724 J-6.6222
G3 X76.2655 Y218.2921 I10.1596 J10.0456
G1 X76.8454 Y217.7869
G1 X76.9458 Y217.4742
G3 X77.2823 Y215.9585 I74.8532 J15.8227
G1 X77.372 Y215.3779
G3 X77.447 Y214.9381 I14.1201 J2.1808
G2 X77.6875 Y213.2075 I-18.5269 J-3.4569
G3 X77.7435 Y212.699 I14.2274 J1.3086
G2 X77.9976 Y210.0133 I-40.3139 J-5.1691
G3 X78.0033 Y209.9246 I14.2608 J0.873
G2 X78.2362 Y203.1896 I-102.5625 J-6.9191
G1 X78.228 Y149.0757
G3 X61.8336 Y122.3208 I-14.7275 J-9.376
G0 Z3.0
G0 X62.7431 Y131.8023
G0 Z-1.9
G1 F120.0 Z-3.0
G3 F3000.0 X69.9189 Y135.0362 I0.7575 J7.8975
G3 X70.1266 Y135.347 I-3.8503 J2.7976
G1 X70.3869 Y135.7717
G3 X70.5695 Y136.0978 I-4.0579 J2.4868
G3 X62.7431 Y131.8023 I-7.069 J3.6019
G1 F120.0 X62.8943 Y133.3794
G3 F3000.0 X68.6372 Y135.9675 I0.6062 J6.3204
G3 X68.7757 Y136.1748 I-2.5686 J1.8663
G1 X69.036 Y136.5996
G3 X69.1579 Y136.8171 I-2.7071 J1.659
G3 X62.8943 Y133.3794 I-5.6573 J2.8826
G0 Z3.0
G0 X62.5915 Y130.222
G0 Z-1.9
G1 F120.0 Z-3.0
G2 F3000.0 X71.984 Y135.3771 I0.9091 J9.4777
G2 X71.7404 Y134.9422 I-5.655 J2.8815
G1 X71.4801 Y134.5175
G2 X71.2032 Y134.1031 I-5.4115 J3.3163
G2 X62.5915 Y130.222 I-7.7026 J5.5967
G1 F120.0 X62.4399 Y128.6418
G2 F3000.0 X73.3984 Y134.6564 I1.0606 J11.058
G2 X73.094 Y134.1128 I-7.0695 J3.6022
G1 X72.8337 Y133.688
G2 X72.4875 Y133.1699 I-6.765 J4.1458
G2 X62.4399 Y128.6418 I-8.9869 J6.5298
G0 Z3.0
G0 X62.2884 Y127.0615
G0 Z-1.9
G1 F120.0 Z-3.0
G2 F3000.0 X74.8129 Y133.9357 I1.2122 J12.6382
G2 X74.4475 Y133.2833 I-8.484 J4.3229
G1 X74.1872 Y132.8585
G2 X73.7718 Y132.2368 I-8.1186 J4.9753
G2 X62.2884 Y127.0615 I-10.2712 J7.463
G1 F120.0 X62.1368 Y125.4813
G2 F3000.0 X76.2274 Y133.2149 I1.3638 J14.2185
G2 X75.8011 Y132.4538 I-9.8984 J5.0436
G1 X75.5408 Y132.029
G2 X75.056 Y131.3036 I-9.4721 J5.8048
G2 X62.1368 Y125.4813 I-11.5555 J8.3962
G0 Z3.0
G0 X61.9852 Y123.901
G0 Z-1.9
G1 F120.0 Z-3.0
G2 F3000.0 X77.6418 Y132.4942 I1.5153 J15.7987
G2 X77.1546 Y131.6243 I-11.3129 J5.7644
G1 X76.8943 Y131.1995
G2 X76.3403 Y130.3704 I-10.8257 J6.6343
G2 X61.9852 Y123.901 I-12.8398 J9.3293
G0 Z3.0
G0 X79.8161 Y123.9024
G0 Z-1.9
G1 F120.0 Z-3.0
G1 F3000.0 X79.8249 Y76.2095
G2 X79.7851 Y73.4151 I-112.677 J0.2068
G3 X79.6645 Y70.7318 I114.1275 J-6.4737
G3 X79.4682 Y68.0873 I73.5857 J-6.7942
G3 X79.2979 Y66.4478 I42.6628 J-5.2586
G1 X79.2548 Y66.1965
G3 X79.1705 Y65.6277 I12.5173 J-2.1465
G1 X78.9789 Y64.0972
G1 X78.9227 Y63.8596
G3 X78.7665 Y63.0954 I12.3589 J-2.9238
G1 X78.594 Y62.0954
G1 X78.523 Y61.8759
G3 X78.2431 Y60.8705 I12.0845 J-3.9058
G1 X78.1787 Y60.5958
G1 X76.2873 Y58.9478
G1 X73.418 Y57.1531
G1 X70.3024 Y55.8314
G1 X67.018 Y55.0156
G1 X63.6461 Y54.726
G1 X60.2706 Y54.9697
G1 X56.9753 Y55.7407
G1 X53.842 Y57.0199
G1 X50.9487 Y58.7754
G1 X48.367 Y60.9637
G1 X46.1612 Y63.5304
G1 X44.386 Y66.4117
G1 X43.0856 Y69.5363
G1 X42.2922 Y72.8262
G1 X41.9859 Y76.7012
G1 Y202.6989
G1 X42.2922 Y206.5738
G1 X43.0856 Y209.8638
G1 X44.386 Y212.9882
G1 X46.1612 Y215.8696
G1 X48.367 Y218.4363
G1 X50.9486 Y220.6246
G1 X53.842 Y222.3801
G1 X56.9753 Y223.6593
G1 X60.2706 Y224.4302
G1 X63.6461 Y224.674
G1 X67.018 Y224.3844
G1 X70.3025 Y223.5686
G1 X73.418 Y222.2469
G1 X76.3051 Y220.441
G2 X76.6204 Y220.1349 I-7.3486 J-7.8841
G3 X77.3084 Y219.489 I9.0308 J8.9294
G1 X78.187 Y218.7235
G3 X78.2661 Y218.5545 I17.98 J8.3144
G1 X78.4823 Y217.882
G3 X78.8421 Y216.2603 I73.3168 J15.415
G1 X78.9409 Y215.6202
G3 X79.0076 Y215.2293 I12.5512 J1.9385
G2 X79.2683 Y213.3529 I-20.0875 J-3.748
G3 X79.3181 Y212.9009 I12.6466 J1.1632
G2 X79.5821 Y210.1103 I-41.8885 J-5.371
G3 X79.5872 Y210.0315 I12.6763 J0.776
G2 X79.8237 Y203.1908 I-104.1464 J-7.026
G1 X79.8161 Y123.9024
G0 Z3.0
G0 X81.4036 Y123.9026
G0 Z-1.9
G1 F120.0 Z-3.0
G1 F3000.0 X81.4124 Y76.2082
G2 X81.3714 Y73.3488 I-114.2645 J0.208
G3 X81.2496 Y70.6323 I112.5412 J-6.4074
G3 X81.0502 Y67.9453 I72.0007 J-6.6948
G3 X80.8742 Y66.2471 I41.0808 J-5.1165
G1 X80.8195 Y65.9282
G3 X80.7457 Y65.4305 I10.9526 J-1.8782
G1 X80.5435 Y63.8151
G1 X80.4675 Y63.4942
G3 X80.3309 Y62.8254 I10.814 J-2.5583
G1 X80.1392 Y61.7144
G1 X80.0335 Y61.3876
G3 X79.7886 Y60.5079 I10.5739 J-3.4176
G1 X79.6737 Y60.0178
G1 X79.4974 Y59.6535
G3 X79.4856 Y59.6289 I10.0032 J-4.8397
G1 X77.2355 Y57.6685
G1 X74.1535 Y55.7407
G1 X70.8069 Y54.3209
G1 X67.2789 Y53.4447
G1 X63.6569 Y53.1336
G1 X60.0311 Y53.3954
G1 X56.4915 Y54.2236
G1 X53.1258 Y55.5976
G1 X50.0179 Y57.4833
G1 X47.2448 Y59.8339
G1 X44.8754 Y62.5909
G1 X42.9686 Y65.6859
G1 X41.5718 Y69.0421
G1 X40.7195 Y72.576
G1 X40.3984 Y76.6385
G1 Y202.7615
G1 X40.7195 Y206.824
G1 X41.5718 Y210.3579
G1 X42.9686 Y213.7141
G1 X44.8754 Y216.8091
G1 X47.2448 Y219.5662
G1 X50.0179 Y221.9167
G1 X53.1258 Y223.8024
G1 X56.4914 Y225.1764
G1 X60.0311 Y226.0046
G1 X63.6569 Y226.2664
G1 X67.2789 Y225.9553
G1 X70.8069 Y225.079
G1 X74.1535 Y223.6594
G1 X77.2716 Y221.709
G2 X77.7493 Y221.2511 I-8.3151 J-9.152
G3 X78.3512 Y220.6859 I7.9019 J7.8133
G1 X79.4911 Y219.6927
G3 X79.7448 Y219.1419 I16.6759 J7.3451
G1 X80.019 Y218.2888
G3 X80.4017 Y216.5627 I71.7801 J15.0081
G1 X80.5098 Y215.8625
G3 X80.5681 Y215.5205 I10.9823 J1.6962
G2 X80.8492 Y213.4983 I-21.6481 J-4.0392
G3 X80.8927 Y213.1028 I11.0658 J1.0178
G2 X81.1666 Y210.2073 I-43.4631 J-5.5729
G3 X81.1711 Y210.1383 I11.0917 J0.679
G2 X81.4112 Y203.192 I-105.7303 J-7.1328
G1 X81.4036 Y123.9026
G0 Z3.0
G0 X82.9911 Y123.9027
G0 Z-1.9
G1 F120.0 Z-3.0
G1 F3000.0 X82.9999 Y76.207
G2 X82.9577 Y73.2822 I-115.852 J0.2092
G3 X82.8347 Y70.5327 I110.9549 J-6.3408
G3 X82.6323 Y67.8028 I70.4156 J-6.5951
G3 X82.4506 Y66.0477 I39.4987 J-4.974
G1 X82.3842 Y65.6599
G3 X82.3209 Y65.2333 I9.388 J-1.6099
G1 X82.108 Y63.5329
G1 X82.0124 Y63.1287
G3 X81.8953 Y62.5555 I9.2692 J-2.1928
G1 X81.6844 Y61.3334
G1 X81.5441 Y60.8994
G3 X81.3342 Y60.1454 I9.0634 J-2.9294
G1 X81.1791 Y59.4844
G1 X80.9264 Y58.9621
G3 X80.84 Y58.7784 I8.5742 J-4.1483
G1 X80.8201 Y58.7492
G3 X80.719 Y58.598 I7.8675 J-5.3692
G1 X78.1838 Y56.3891
G1 X74.889 Y54.3282
G1 X71.3113 Y52.8105
G1 X67.5398 Y51.8738
G1 X63.6678 Y51.5412
G1 X59.7916 Y51.8211
G1 X56.0076 Y52.7064
G1 X52.4096 Y54.1753
G1 X49.0872 Y56.1911
G1 X46.1226 Y58.704
G1 X43.5896 Y61.6514
G1 X41.5512 Y64.96
G1 X40.0579 Y68.5479
G1 X39.1469 Y72.3259
G1 X38.8109 Y76.5759
G1 Y202.8242
G1 X39.1469 Y207.0741
G1 X40.0579 Y210.8521
G1 X41.5512 Y214.44
G1 X43.5897 Y217.7486
G1 X46.1226 Y220.696
G1 X49.0871 Y223.2088
G1 X52.4096 Y225.2247
G1 X56.0076 Y226.6936
G1 X59.7916 Y227.5789
G1 X63.6678 Y227.8588
G1 X67.5397 Y227.5262
G1 X71.3114 Y226.5895
G1 X74.889 Y225.0718
G1 X78.2303 Y222.9818
G2 X78.8781 Y222.3673 I-9.2738 J-10.4248
G3 X79.3941 Y221.8828 I6.7731 J6.6971
G1 X80.8075 Y220.6513
G3 X81.222 Y219.7339 I15.3595 J6.3866
G1 X81.556 Y218.6949
G3 X81.9612 Y216.8658 I70.2431 J14.6021
G1 X82.0787 Y216.1048
G3 X82.1287 Y215.8116 I9.4134 J1.4539
G2 X82.43 Y213.6437 I-23.2086 J-4.3304
G3 X82.4673 Y213.3047 I9.485 J0.8724
G2 X82.7512 Y210.3043 I-45.0377 J-5.7748
G3 X82.755 Y210.2452 I9.5072 J0.582
G2 X82.9987 Y203.1932 I-107.3142 J-7.2397
G1 X82.9911 Y123.9027
G0 Z3.0
G0 X84.5786 Y123.9028
G0 Z-1.9
G1 F120.0 Z-3.0
G1 F3000.0 X84.5874 Y76.2058
G2 X84.544 Y73.2152 I-117.4395 J0.2104
G3 X84.4198 Y70.4328 I109.3687 J-6.2739
G3 X84.2143 Y67.6598 I68.8305 J-6.4952
G3 X84.0274 Y65.8496 I37.9167 J-4.8311
G1 X83.9488 Y65.3916
G3 X83.8961 Y65.0361 I7.8233 J-1.3415
G1 X83.6726 Y63.2507
G1 X83.5573 Y62.7632
G3 X83.4596 Y62.2856 I7.7243 J-1.8273
G1 X83.2296 Y60.9524
G1 X83.0547 Y60.4112
G3 X82.8797 Y59.7828 I7.5528 J-2.4412
G1 X82.6878 Y58.9647
G3 X82.6788 Y58.9391 I9.9022 J-3.4839
G1 X82.3555 Y58.2707
G3 X82.2308 Y58.0001 I7.1452 J-3.4569
G1 X82.1313 Y57.8544
G3 X81.9347 Y57.5518 I6.5562 J-4.4743
G1 X79.132 Y55.1098
G1 X75.6245 Y52.9158
G1 X71.8158 Y51.3001
G1 X67.8006 Y50.3028
G1 X63.6786 Y49.9488
G1 X59.5521 Y50.2467
G1 X55.5238 Y51.1892
G1 X51.6934 Y52.753
G1 X48.1564 Y54.899
G1 X45.0004 Y57.5742
G1 X42.3039 Y60.7118
G1 X40.1338 Y64.2342
G1 X38.5441 Y68.0538
G1 X37.5742 Y72.0757
G1 X37.2234 Y76.5132
G1 Y202.8868
G1 X37.5742 Y207.3243
G1 X38.5441 Y211.3462
G1 X40.1338 Y215.1658
G1 X42.3039 Y218.6882
G1 X45.0004 Y221.8259
G1 X48.1564 Y224.501
G1 X51.6935 Y226.647
G1 X55.5237 Y228.2108
G1 X59.5521 Y229.1533
G1 X63.6786 Y229.4512
G1 X67.8006 Y229.0972
G1 X71.8158 Y228.0999
G1 X75.6245 Y226.4842
G1 X79.1825 Y224.2587
G2 X80.007 Y223.4834 I-10.226 J-11.7017
G3 X80.437 Y223.0797 I5.6442 J5.5809
G1 X82.1381 Y221.5976
G3 X82.6916 Y220.343 I14.0289 J5.4403
G3 X82.7014 Y220.3191 I7.3515 J2.9932
G1 X83.0932 Y219.1
G3 X83.5206 Y217.1695 I68.7058 J14.1969
G1 X83.6476 Y216.3471
G3 X83.6893 Y216.1028 I7.8445 J1.2116
G2 X84.0108 Y213.7891 I-24.7692 J-4.6216
G3 X84.0419 Y213.5066 I7.9041 J0.727
G2 X84.3357 Y210.4013 I-46.6123 J-5.9767
G3 X84.3389 Y210.3521 I7.9227 J0.485
G2 X84.5862 Y203.1944 I-108.8981 J-7.3466
G1 X84.5786 Y123.9028
G0 Z3.0
G0 X86.1661 Y123.9029
G0 Z-1.9
G1 F120.0 Z-3.0
G1 F3000.0 X86.1749 Y76.2046
G2 X86.1302 Y73.148 I-119.027 J0.2116
G3 X86.005 Y70.3327 I107.7824 J-6.2066
G3 X85.7964 Y67.5163 I67.2453 J-6.3952
G3 X85.6043 Y65.6531 I36.3346 J-4.6875
G1 X85.5135 Y65.1233
G3 X85.4713 Y64.8389 I6.2586 J-1.0732
G1 X85.2372 Y62.9686
G1 X85.1021 Y62.3978
G3 X85.024 Y62.0156 I6.1794 J-1.4619
G1 X84.7748 Y60.5714
G1 X84.5652 Y59.9229
G3 X84.4253 Y59.4202 I6.0422 J-1.9529
G1 X84.213 Y58.5152
G3 X84.1493 Y58.3332 I8.377 J-3.0344
G1 X83.7845 Y57.5793
G3 X83.6301 Y57.2342 I5.7161 J-2.7655
G1 X83.4426 Y56.9595
G3 X83.1693 Y56.5219 I5.245 J-3.5795
G1 X80.0803 Y53.8304
G1 X76.3599 Y51.5034
G1 X72.3202 Y49.7896
G1 X68.0615 Y48.7319
G1 X63.6894 Y48.3564
G1 X59.3127 Y48.6724
G1 X55.0399 Y49.6721
G1 X50.9773 Y51.3307
G1 X47.2256 Y53.6069
G1 X43.8782 Y56.4443
G1 X41.0181 Y59.7723
G1 X38.7164 Y63.5083
G1 X37.0302 Y67.5596
G1 X36.0015 Y71.8255
G1 X35.6359 Y76.4506
G1 Y202.9494
G1 X36.0015 Y207.5745
G1 X37.0303 Y211.8404
G1 X38.7164 Y215.8917
G1 X41.0181 Y219.6277
G1 X43.8782 Y222.9558
G1 X47.2256 Y225.7931
G1 X50.9773 Y228.0693
G1 X55.0399 Y229.7279
G1 X59.3127 Y230.7276
G1 X63.6894 Y231.0436
G1 X68.0615 Y230.6681
G1 X72.3203 Y229.6104
G1 X76.36 Y227.8967
G1 X80.1291 Y225.539
G2 X81.1358 Y224.5996 I-11.1726 J-12.9821
G3 X81.4798 Y224.2767 I4.5154 J4.4647
G1 X83.4417 Y222.5673
G3 X83.5466 Y222.3604 I17.7786 J8.8831
G3 X84.1405 Y220.9949 I12.6204 J4.6775
G3 X84.1927 Y220.8673 I5.9026 J2.3412
G3 X84.2011 Y220.8412 I6.0537 J1.917
G1 X84.6308 Y219.5042
G3 X85.0799 Y217.474 I67.1683 J13.7927
G1 X85.2165 Y216.5895
G3 X85.2498 Y216.394 I6.2756 J0.9693
G2 X85.5916 Y213.9345 I-26.3298 J-4.9128
G3 X85.6165 Y213.7085 I6.3233 J0.5816
G2 X85.9202 Y210.4983 I-48.1869 J-6.1786
G3 X85.9228 Y210.4589 I6.3381 J0.388
G2 X86.1737 Y203.1955 I-110.482 J-7.4534
G1 X86.1661 Y123.9029
G0 Z3.0
G0 X87.7536 Y123.9031
G0 Z-1.9
G1 F120.0 Z-3.0
G1 F3000.0 X87.7624 Y76.2035
G2 X87.7165 Y73.0804 I-120.6145 J0.2128
G3 X87.5901 Y70.2324 I106.1962 J-6.139
G3 X87.3785 Y67.3721 I65.6602 J-6.2949
G3 X87.1816 Y65.4581 I34.7525 J-4.5434
G1 X87.0781 Y64.855
G3 X87.0465 Y64.6417 I4.694 J-0.8049
G1 X86.8017 Y62.6864
G1 X86.647 Y62.0323
G3 X86.5884 Y61.7457 I4.6346 J-1.0964
G1 X86.32 Y60.1905
G1 X86.0758 Y59.4347
G3 X85.9708 Y59.0577 I4.5317 J-1.4647
G1 X85.7362 Y58.0576
G3 X85.6236 Y57.7355 I6.8538 J-2.5768
G1 X85.2135 Y56.8879
G3 X85.0414 Y56.486 I4.2871 J-2.0742
G1 X84.7538 Y56.0646
G3 X84.5122 Y55.6708 I3.9337 J-2.6846
G1 X84.5105 Y55.6678
G1 X84.3646 Y55.4578
G1 X81.0285 Y52.5511
G1 X77.0954 Y50.0909
G1 X72.8247 Y48.2792
G1 X68.3224 Y47.1609
G1 X63.7003 Y46.764
G1 X59.0732 Y47.098
G1 X54.5561 Y48.1549
G1 X50.2611 Y49.9083
G1 X46.2949 Y52.3147
G1 X42.756 Y55.3144
G1 X39.7323 Y58.8328
G1 X37.299 Y62.7825
G1 X35.5164 Y67.0655
G1 X34.4288 Y71.5753
G1 X34.0484 Y76.3879
G1 Y203.0121
G1 X34.4288 Y207.8247
G1 X35.5164 Y212.3345
G1 X37.299 Y216.6175
G1 X39.7324 Y220.5672
G1 X42.756 Y224.0856
G1 X46.2949 Y227.0852
G1 X50.2611 Y229.4917
G1 X54.5561 Y231.2451
G1 X59.0732 Y232.302
G1 X63.7003 Y232.636
G1 X68.3224 Y232.239
G1 X72.8247 Y231.1208
G1 X77.0954 Y229.3091
G1 X81.0709 Y226.8224
G2 X82.2647 Y225.7158 I-12.1145 J-14.2654
G3 X82.5227 Y225.4736 I3.3865 J3.3485
G1 X84.6976 Y223.5786
G2 X84.73 Y223.546 I-1.3158 J-1.3434
G3 X85.0027 Y223.0008 I16.4902 J7.9044
G3 X85.5919 Y221.6428 I11.1644 J4.0371
G3 X85.6845 Y221.4169 I4.4513 J1.6934
G3 X85.7124 Y221.327 I4.562 J1.3674
G1 X86.1687 Y219.9075
G3 X86.6391 Y217.7791 I65.6304 J13.3895
G1 X86.7854 Y216.8318
G3 X86.8104 Y216.6852 I4.7067 J0.7269
G2 X87.1725 Y214.0799 I-27.8903 J-5.2039
G3 X87.1911 Y213.9104 I4.7425 J0.4362
G2 X87.5048 Y210.5953 I-49.7615 J-6.3805
G3 X87.5067 Y210.5658 I4.7536 J0.291
G2 X87.7612 Y203.1967 I-112.0659 J-7.5603
G1 X87.7536 Y123.9031
G0 Z3.0
G0 X89.3411 Y123.9032
G0 Z-1.9
G1 F120.0 Z-3.0
G1 F3000.0 X89.3499 Y76.2023
G2 X89.3027 Y73.0124 I-122.202 J0.2139
G3 X89.1753 Y70.1319 I104.6099 J-6.071
G3 X88.9607 Y67.2273 I64.075 J-6.1943
G3 X88.7591 Y65.2649 I33.1703 J-4.3986
G1 X88.6428 Y64.5867
G3 X88.6217 Y64.4445 I3.1293 J-0.5366
G1 X88.3663 Y62.4043
G1 X88.1918 Y61.6668
G3 X88.1528 Y61.4758 I3.0897 J-0.7309
G1 X87.8653 Y59.8095
G1 X87.5863 Y58.9465
G3 X87.5164 Y58.6951 I3.0211 J-0.9765
G1 X87.2569 Y57.5889
G3 X87.1032 Y57.1486 I5.3331 J-2.1081
G1 X86.6426 Y56.1965
G3 X86.4954 Y55.8379 I2.8581 J-1.3828
G1 X86.4698 Y55.7628
G1 X86.0651 Y55.1698
G3 X85.904 Y54.9072 I2.6225 J-1.7897
G1 X85.862 Y54.8308
G3 X85.86 Y54.8279 I2.6054 J-1.8145
G1 X85.556 Y54.3903
