( Made using CamBam - http://www.cambam.co.uk )
( Shelving_Uprights 12/9/2019 4:49:27 PM )
( T18 : 3.175 )
G21 G90 G91.1 G64 G40
G0 Z12.0
( T18 : 3.175 )
T18 M6
( Pocket2 )
G17
M3 S12000
G0 X255.1906 Y101.6
G0 Z0.1
G1 F120.0 Z-1.0
G2 F3000.0 X254.5953 Y101.2563 I-0.3969 J0.0
G2 Y101.9437 I0.1984 J0.3437
G2 X255.1906 Y101.6 I0.1984 J-0.3437
G1 F120.0 X255.5875
G2 F3000.0 X254.3969 Y100.9126 I-0.7938 J0.0
G2 Y102.2874 I0.3969 J0.6874
G2 X255.5875 Y101.6 I0.3969 J-0.6874
G1 F120.0 X256.3813
G2 F3000.0 X254.0 Y100.2252 I-1.5875 J0.0
G2 Y102.9748 I0.7938 J1.3748
G2 X256.3813 Y101.6 I0.7938 J-1.3748
G0 Z12.0
G0 X254.8185 Y126.6039
G0 Z0.1
G1 F120.0 Z-1.0
G2 F3000.0 X254.5953 Y126.6563 I-0.0248 J0.3961
G2 Y127.3437 I0.1984 J0.3437
G2 X255.1906 Y127.0 I0.1984 J-0.3437
G2 X254.8185 Y126.6039 I-0.3969 J0.0
G1 F120.0 X254.8433 Y126.2078
G2 F3000.0 X254.3969 Y126.3126 I-0.0495 J0.7922
G2 Y127.6874 I0.3969 J0.6874
G2 X255.5875 Y127.0 I0.3969 J-0.6874
G2 X254.8433 Y126.2078 I-0.7938 J0.0
G0 Z12.0
G0 X254.8928 Y125.4156
G0 Z0.1
G1 F120.0 Z-1.0
G2 F3000.0 X254.0 Y125.6252 I-0.099 J1.5844
G2 Y128.3748 I0.7938 J1.3748
G2 X256.3813 Y127.0 I0.7938 J-1.3748
G2 X254.8928 Y125.4156 I-1.5875 J0.0
G0 Z12.0
G0 X254.7952 Y152.0031
G0 Z0.1
G1 F120.0 Z-1.0
G2 F3000.0 X254.5953 Y152.0563 I-0.0015 J0.3969
G2 Y152.7437 I0.1984 J0.3437
G2 X255.1906 Y152.4 I0.1984 J-0.3437
G2 X254.7952 Y152.0031 I-0.3969 J0.0
G1 F120.0 X254.7967 Y151.6063
G2 F3000.0 X254.3969 Y151.7126 I-0.0029 J0.7937
G2 Y153.0874 I0.3969 J0.6874
G2 X255.5875 Y152.4 I0.3969 J-0.6874
G2 X254.7967 Y151.6063 I-0.7938 J0.0
G0 Z12.0
G0 X254.7996 Y150.8125
G0 Z0.1
G1 F120.0 Z-1.0
G2 F3000.0 X254.0 Y151.0252 I-0.0058 J1.5875
G2 Y153.7748 I0.7938 J1.3748
G2 X256.3813 Y152.4 I0.7938 J-1.3748
G2 X254.7996 Y150.8125 I-1.5875 J0.0
G0 Z12.0
G0 X254.7938 Y177.4031
G0 Z0.1
G1 F120.0 Z-1.0
G2 F3000.0 X254.5953 Y177.4563 I-0.0001 J0.3969
G2 Y178.1437 I0.1984 J0.3437
G2 X255.1906 Y177.8 I0.1984 J-0.3437
G2 X254.7938 Y177.4031 I-0.3969 J0.0
G1 F120.0 X254.7939 Y177.0063
G2 F3000.0 X254.3969 Y177.1126 I-0.0002 J0.7937
G2 Y178.4874 I0.3969 J0.6874
G2 X255.5875 Y177.8 I0.3969 J-0.6874
G2 X254.7939 Y177.0063 I-0.7937 J0.0
G0 Z12.0
G0 X254.7941 Y176.2125
G0 Z0.1
G1 F120.0 Z-1.0
G2 F3000.0 X254.0 Y176.4252 I-0.0003 J1.5875
G2 Y179.1748 I0.7937 J1.3748
G2 X256.3813 Y177.8 I0.7937 J-1.3748
G2 X254.7941 Y176.2125 I-1.5875 J0.0
G0 Z12.0
G0 X254.7938 Y202.8031
G0 Z0.1
G1 F120.0 Z-1.0
G2 F3000.0 X254.5953 Y202.8563 I0.0 J0.3969
G2 Y203.5437 I0.1984 J0.3437
G2 X255.1906 Y203.2 I0.1984 J-0.3437
G2 X254.7938 Y202.8031 I-0.3969 J0.0
G1 F120.0 Y202.4063
G2 F3000.0 X254.3969 Y202.5126 I0.0 J0.7937
G2 Y203.8874 I0.3969 J0.6874
G2 X255.5875 Y203.2 I0.3969 J-0.6874
G2 X254.7938 Y202.4063 I-0.7938 J0.0
G0 Z12.0
G0 Y201.6125
G0 Z0.1
G1 F120.0 Z-1.0
G2 F3000.0 X254.0 Y201.8252 I0.0 J1.5875
G2 Y204.5748 I0.7938 J1.3748
G2 X256.3813 Y203.2 I0.7938 J-1.3748
G2 X254.7938 Y201.6125 I-1.5875 J0.0
G0 Z12.0
G0 Y228.2031
G0 Z0.1
G1 F120.0 Z-1.0
G2 F3000.0 X254.5953 Y228.2563 I0.0 J0.3969
G2 Y228.9437 I0.1984 J0.3437
G2 X255.1906 Y228.6 I0.1984 J-0.3437
G2 X254.7938 Y228.2031 I-0.3969 J0.0
G1 F120.0 Y227.8063
G2 F3000.0 X254.3969 Y227.9126 I0.0 J0.7937
G2 Y229.2874 I0.3969 J0.6874
G2 X255.5875 Y228.6 I0.3969 J-0.6874
G2 X254.7938 Y227.8063 I-0.7938 J0.0
G0 Z12.0
G0 Y227.0125
G0 Z0.1
G1 F120.0 Z-1.0
G2 F3000.0 X254.0 Y227.2252 I0.0 J1.5875
G2 Y229.9748 I0.7938 J1.3748
G2 X256.3813 Y228.6 I0.7938 J-1.3748
G2 X254.7938 Y227.0125 I-1.5875 J0.0
G0 Z12.0
G0 Y253.6031
G0 Z0.1
G1 F120.0 Z-1.0
G2 F3000.0 X254.5953 Y253.6563 I0.0 J0.3969
G2 Y254.3437 I0.1984 J0.3437
G2 X255.1906 Y254.0 I0.1984 J-0.3437
G2 X254.7938 Y253.6031 I-0.3969 J0.0
G1 F120.0 Y253.2063
G2 F3000.0 X254.3969 Y253.3126 I0.0 J0.7937
G2 Y254.6874 I0.3969 J0.6874
G2 X255.5875 Y254.0 I0.3969 J-0.6874
G2 X254.7938 Y253.2063 I-0.7937 J0.0
G0 Z12.0
G0 Y252.4125
G0 Z0.1
G1 F120.0 Z-1.0
G2 F3000.0 X254.0 Y252.6252 I0.0 J1.5875
G2 Y255.3748 I0.7937 J1.3748
G2 X256.3813 Y254.0 I0.7937 J-1.3748
G2 X254.7938 Y252.4125 I-1.5875 J0.0
G0 Z12.0
G0 Y279.0031
G0 Z0.1
G1 F120.0 Z-1.0
G2 F3000.0 X254.5953 Y279.0563 I0.0 J0.3969
G2 Y279.7437 I0.1984 J0.3437
G2 X255.1906 Y279.4 I0.1984 J-0.3437
G2 X254.7938 Y279.0031 I-0.3969 J0.0
G1 F120.0 Y278.6063
G2 F3000.0 X254.3969 Y278.7126 I0.0 J0.7938
G2 Y280.0874 I0.3969 J0.6874
G2 X255.5875 Y279.4 I0.3969 J-0.6874
G2 X254.7938 Y278.6063 I-0.7938 J0.0
G0 Z12.0
G0 Y277.8125
G0 Z0.1
G1 F120.0 Z-1.0
G2 F3000.0 X254.0 Y278.0252 I0.0 J1.5875
G2 Y280.7748 I0.7938 J1.3748
G2 X256.3813 Y279.4 I0.7938 J-1.3748
G2 X254.7938 Y277.8125 I-1.5875 J0.0
G0 Z12.0
G0 Y304.4031
G0 Z0.1
G1 F120.0 Z-1.0
G2 F3000.0 X254.5953 Y304.4563 I0.0 J0.3969
G2 Y305.1437 I0.1984 J0.3437
G2 X255.1906 Y304.8 I0.1984 J-0.3437
G2 X254.7938 Y304.4031 I-0.3969 J0.0
G1 F120.0 Y304.0063
G2 F3000.0 X254.3969 Y304.1126 I0.0 J0.7937
G2 Y305.4874 I0.3969 J0.6874
G2 X255.5875 Y304.8 I0.3969 J-0.6874
G2 X254.7938 Y304.0063 I-0.7937 J0.0
G0 Z12.0
G0 Y303.2125
G0 Z0.1
G1 F120.0 Z-1.0
G2 F3000.0 X254.0 Y303.4252 I0.0 J1.5875
G2 Y306.1748 I0.7937 J1.3748
G2 X256.3813 Y304.8 I0.7937 J-1.3748
G2 X254.7938 Y303.2125 I-1.5875 J0.0
G0 Z12.0
G0 Y329.8031
G0 Z0.1
G1 F120.0 Z-1.0
G2 F3000.0 X254.5953 Y329.8563 I0.0 J0.3969
G2 Y330.5437 I0.1984 J0.3437
G2 X255.1906 Y330.2 I0.1984 J-0.3437
G2 X254.7938 Y329.8031 I-0.3969 J0.0
G1 F120.0 Y329.4063
G2 F3000.0 X254.3969 Y329.5126 I0.0 J0.7938
G2 Y330.8874 I0.3969 J0.6874
G2 X255.5875 Y330.2 I0.3969 J-0.6874
G2 X254.7938 Y329.4063 I-0.7938 J0.0
G0 Z12.0
G0 Y328.6125
G0 Z0.1
G1 F120.0 Z-1.0
G2 F3000.0 X254.0 Y328.8252 I0.0 J1.5875
G2 Y331.5748 I0.7938 J1.3748
G2 X256.3813 Y330.2 I0.7938 J-1.3748
G2 X254.7938 Y328.6125 I-1.5875 J0.0
G0 Z12.0
G0 Y355.2031
G0 Z0.1
G1 F120.0 Z-1.0
G2 F3000.0 X254.5953 Y355.2563 I0.0 J0.3969
G2 Y355.9437 I0.1984 J0.3437
G2 X255.1906 Y355.6 I0.1984 J-0.3437
G2 X254.7938 Y355.2031 I-0.3969 J0.0
G1 F120.0 Y354.8063
G2 F3000.0 X254.3969 Y354.9126 I0.0 J0.7938
G2 Y356.2874 I0.3969 J0.6874
G2 X255.5875 Y355.6 I0.3969 J-0.6874
G2 X254.7938 Y354.8063 I-0.7938 J0.0
G0 Z12.0
G0 Y354.0125
G0 Z0.1
G1 F120.0 Z-1.0
G2 F3000.0 X254.0 Y354.2252 I0.0 J1.5875
G2 Y356.9748 I0.7938 J1.3748
G2 X256.3813 Y355.6 I0.7938 J-1.3748
G2 X254.7938 Y354.0125 I-1.5875 J0.0
G0 Z12.0
G0 Y380.6031
G0 Z0.1
G1 F120.0 Z-1.0
G2 F3000.0 X254.5953 Y380.6563 I0.0 J0.3969
G2 Y381.3437 I0.1984 J0.3437
G2 X255.1906 Y381.0 I0.1984 J-0.3437
G2 X254.7938 Y380.6031 I-0.3969 J0.0
G1 F120.0 Y380.2063
G2 F3000.0 X254.3969 Y380.3126 I0.0 J0.7937
G2 Y381.6874 I0.3969 J0.6874
G2 X255.5875 Y381.0 I0.3969 J-0.6874
G2 X254.7938 Y380.2063 I-0.7937 J0.0
G0 Z12.0
G0 Y379.4125
G0 Z0.1
G1 F120.0 Z-1.0
G2 F3000.0 X254.0 Y379.6252 I0.0 J1.5875
G2 Y382.3748 I0.7937 J1.3748
G2 X256.3813 Y381.0 I0.7937 J-1.3748
G2 X254.7938 Y379.4125 I-1.5875 J0.0
G0 Z12.0
G0 Y406.0031
G0 Z0.1
G1 F120.0 Z-1.0
G2 F3000.0 X254.5953 Y406.0563 I0.0 J0.3969
G2 Y406.7437 I0.1984 J0.3437
G2 X255.1906 Y406.4 I0.1984 J-0.3437
G2 X254.7938 Y406.0031 I-0.3969 J0.0
G1 F120.0 Y405.6063
G2 F3000.0 X254.3969 Y405.7126 I0.0 J0.7938
G2 Y407.0874 I0.3969 J0.6874
G2 X255.5875 Y406.4 I0.3969 J-0.6874
G2 X254.7938 Y405.6063 I-0.7938 J0.0
G0 Z12.0
G0 Y404.8125
G0 Z0.1
G1 F120.0 Z-1.0
G2 F3000.0 X254.0 Y405.0252 I0.0 J1.5875
G2 Y407.7748 I0.7938 J1.3748
G2 X256.3813 Y406.4 I0.7938 J-1.3748
G2 X254.7938 Y404.8125 I-1.5875 J0.0
G0 Z12.0
G0 Y431.4031
G0 Z0.1
G1 F120.0 Z-1.0
G2 F3000.0 X254.5953 Y431.4563 I0.0 J0.3969
G2 Y432.1437 I0.1984 J0.3437
G2 X255.1906 Y431.8 I0.1984 J-0.3437
G2 X254.7938 Y431.4031 I-0.3969 J0.0
G1 F120.0 Y431.0063
G2 F3000.0 X254.3969 Y431.1126 I0.0 J0.7938
G2 Y432.4874 I0.3969 J0.6874
G2 X255.5875 Y431.8 I0.3969 J-0.6874
G2 X254.7938 Y431.0063 I-0.7938 J0.0
G0 Z12.0
G0 Y430.2125
G0 Z0.1
G1 F120.0 Z-1.0
G2 F3000.0 X254.0 Y430.4252 I0.0 J1.5875
G2 Y433.1748 I0.7938 J1.3748
G2 X256.3813 Y431.8 I0.7938 J-1.3748
G2 X254.7938 Y430.2125 I-1.5875 J0.0
G0 Z12.0
G0 Y482.2031
G0 Z0.1
G1 F120.0 Z-1.0
G2 F3000.0 X254.5953 Y482.2563 I0.0 J0.3969
G2 Y482.9437 I0.1984 J0.3437
G2 X255.1906 Y482.6 I0.1984 J-0.3437
G2 X254.7938 Y482.2031 I-0.3969 J0.0
G1 F120.0 Y481.8063
G2 F3000.0 X254.3969 Y481.9126 I0.0 J0.7938
G2 Y483.2874 I0.3969 J0.6874
G2 X255.5875 Y482.6 I0.3969 J-0.6874
G2 X254.7938 Y481.8063 I-0.7938 J0.0
G0 Z12.0
G0 Y481.0125
G0 Z0.1
G1 F120.0 Z-1.0
G2 F3000.0 X254.0 Y481.2252 I0.0 J1.5875
G2 Y483.9748 I0.7938 J1.3748
G2 X256.3813 Y482.6 I0.7938 J-1.3748
G2 X254.7938 Y481.0125 I-1.5875 J0.0
G0 Z12.0
G0 Y507.6031
G0 Z0.1
G1 F120.0 Z-1.0
G2 F3000.0 X254.5953 Y507.6563 I0.0 J0.3969
G2 Y508.3437 I0.1984 J0.3437
G2 X255.1906 Y508.0 I0.1984 J-0.3437
G2 X254.7938 Y507.6031 I-0.3969 J0.0
G1 F120.0 Y507.2063
G2 F3000.0 X254.3969 Y507.3126 I0.0 J0.7937
G2 Y508.6874 I0.3969 J0.6874
G2 X255.5875 Y508.0 I0.3969 J-0.6874
G2 X254.7938 Y507.2063 I-0.7937 J0.0
G0 Z12.0
G0 Y506.4125
G0 Z0.1
G1 F120.0 Z-1.0
G2 F3000.0 X254.0 Y506.6252 I0.0 J1.5875
G2 Y509.3748 I0.7937 J1.3748
G2 X256.3813 Y508.0 I0.7937 J-1.3748
G2 X254.7938 Y506.4125 I-1.5875 J0.0
G0 Z12.0
G0 Y533.0031
G0 Z0.1
G1 F120.0 Z-1.0
G2 F3000.0 X254.5953 Y533.0563 I0.0 J0.3969
G2 Y533.7437 I0.1984 J0.3437
G2 X255.1906 Y533.4 I0.1984 J-0.3437
G2 X254.7938 Y533.0031 I-0.3969 J0.0
G1 F120.0 Y532.6063
G2 F3000.0 X254.3969 Y532.7126 I0.0 J0.7938
G2 Y534.0874 I0.3969 J0.6874
G2 X255.5875 Y533.4 I0.3969 J-0.6874
G2 X254.7938 Y532.6063 I-0.7938 J0.0
G0 Z12.0
G0 Y531.8125
G0 Z0.1
G1 F120.0 Z-1.0
G2 F3000.0 X254.0 Y532.0252 I0.0 J1.5875
G2 Y534.7748 I0.7938 J1.3748
G2 X256.3813 Y533.4 I0.7938 J-1.3748
G2 X254.7938 Y531.8125 I-1.5875 J0.0
G0 Z12.0
G0 Y558.4031
G0 Z0.1
G1 F120.0 Z-1.0
G2 F3000.0 X254.5953 Y558.4563 I0.0 J0.3969
G2 Y559.1437 I0.1984 J0.3437
G2 X255.1906 Y558.8 I0.1984 J-0.3437
G2 X254.7938 Y558.4031 I-0.3969 J0.0
G1 F120.0 Y558.0063
G2 F3000.0 X254.3969 Y558.1126 I0.0 J0.7937
G2 Y559.4874 I0.3969 J0.6874
G2 X255.5875 Y558.8 I0.3969 J-0.6874
G2 X254.7938 Y558.0063 I-0.7937 J0.0
G0 Z12.0
G0 Y557.2125
G0 Z0.1
G1 F120.0 Z-1.0
G2 F3000.0 X254.0 Y557.4252 I0.0 J1.5875
G2 Y560.1748 I0.7937 J1.3748
G2 X256.3813 Y558.8 I0.7937 J-1.3748
G2 X254.7938 Y557.2125 I-1.5875 J0.0
G0 Z12.0
G0 Y583.8031
G0 Z0.1
G1 F120.0 Z-1.0
G2 F3000.0 X254.5953 Y583.8563 I0.0 J0.3969
G2 Y584.5437 I0.1984 J0.3437
G2 X255.1906 Y584.2 I0.1984 J-0.3437
G2 X254.7938 Y583.8031 I-0.3969 J0.0
G1 F120.0 Y583.4063
G2 F3000.0 X254.3969 Y583.5126 I0.0 J0.7938
G2 Y584.8874 I0.3969 J0.6874
G2 X255.5875 Y584.2 I0.3969 J-0.6874
G2 X254.7938 Y583.4063 I-0.7938 J0.0
G0 Z12.0
G0 Y582.6125
G0 Z0.1
G1 F120.0 Z-1.0
G2 F3000.0 X254.0 Y582.8252 I0.0 J1.5875
G2 Y585.5748 I0.7938 J1.3748
G2 X256.3813 Y584.2 I0.7938 J-1.3748
G2 X254.7938 Y582.6125 I-1.5875 J0.0
G0 Z12.0
G0 Y609.2031
G0 Z0.1
G1 F120.0 Z-1.0
G2 F3000.0 X254.5953 Y609.2563 I0.0 J0.3969
G2 Y609.9437 I0.1984 J0.3437
G2 X255.1906 Y609.6 I0.1984 J-0.3437
G2 X254.7938 Y609.2031 I-0.3969 J0.0
G1 F120.0 Y608.8063
G2 F3000.0 X254.3969 Y608.9126 I0.0 J0.7937
G2 Y610.2874 I0.3969 J0.6874
G2 X255.5875 Y609.6 I0.3969 J-0.6874
G2 X254.7938 Y608.8063 I-0.7937 J0.0
G0 Z12.0
G0 Y608.0125
G0 Z0.1
G1 F120.0 Z-1.0
G2 F3000.0 X254.0 Y608.2252 I0.0 J1.5875
G2 Y610.9748 I0.7937 J1.3748
G2 X256.3813 Y609.6 I0.7937 J-1.3748
G2 X254.7938 Y608.0125 I-1.5875 J0.0
G0 Z12.0
G0 Y634.6031
G0 Z0.1
G1 F120.0 Z-1.0
G2 F3000.0 X254.5953 Y634.6563 I0.0 J0.3969
G2 Y635.3437 I0.1984 J0.3437
G2 X255.1906 Y635.0 I0.1984 J-0.3437
G2 X254.7938 Y634.6031 I-0.3969 J0.0
G1 F120.0 Y634.2063
G2 F3000.0 X254.3969 Y634.3126 I0.0 J0.7938
G2 Y635.6874 I0.3969 J0.6874
G2 X255.5875 Y635.0 I0.3969 J-0.6874
G2 X254.7938 Y634.2063 I-0.7938 J0.0
G0 Z12.0
G0 Y633.4125
G0 Z0.1
G1 F120.0 Z-1.0
G2 F3000.0 X254.0 Y633.6252 I0.0 J1.5875
G2 Y636.3748 I0.7938 J1.3748
G2 X256.3813 Y635.0 I0.7938 J-1.3748
G2 X254.7938 Y633.4125 I-1.5875 J0.0
G0 Z12.0
G0 Y660.0031
G0 Z0.1
G1 F120.0 Z-1.0
G2 F3000.0 X254.5953 Y660.0563 I0.0 J0.3969
G2 Y660.7437 I0.1984 J0.3437
G2 X255.1906 Y660.4 I0.1984 J-0.3437
G2 X254.7938 Y660.0031 I-0.3969 J0.0
G1 F120.0 Y659.6063
G2 F3000.0 X254.3969 Y659.7126 I0.0 J0.7938
G2 Y661.0874 I0.3969 J0.6874
G2 X255.5875 Y660.4 I0.3969 J-0.6874
G2 X254.7938 Y659.6063 I-0.7938 J0.0
G0 Z12.0
G0 Y658.8125
G0 Z0.1
G1 F120.0 Z-1.0
G2 F3000.0 X254.0 Y659.0252 I0.0 J1.5875
G2 Y661.7748 I0.7938 J1.3748
G2 X256.3813 Y660.4 I0.7938 J-1.3748
G2 X254.7938 Y658.8125 I-1.5875 J0.0
G0 Z12.0
G0 Y685.4031
G0 Z0.1
G1 F120.0 Z-1.0
G2 F3000.0 X254.5953 Y685.4563 I0.0 J0.3969
G2 Y686.1437 I0.1984 J0.3437
G2 X255.1906 Y685.8 I0.1984 J-0.3437
G2 X254.7938 Y685.4031 I-0.3969 J0.0
G1 F120.0 Y685.0063
G2 F3000.0 X254.3969 Y685.1126 I0.0 J0.7938
G2 Y686.4874 I0.3969 J0.6874
G2 X255.5875 Y685.8 I0.3969 J-0.6874
G2 X254.7938 Y685.0063 I-0.7938 J0.0
G0 Z12.0
G0 Y684.2125
G0 Z0.1
G1 F120.0 Z-1.0
G2 F3000.0 X254.0 Y684.4252 I0.0 J1.5875
G2 Y687.1748 I0.7938 J1.3748
G2 X256.3813 Y685.8 I0.7938 J-1.3748
G2 X254.7938 Y684.2125 I-1.5875 J0.0
G0 Z12.0
G0 Y710.8031
G0 Z0.1
G1 F120.0 Z-1.0
G2 F3000.0 X254.5953 Y710.8563 I0.0 J0.3969
G2 Y711.5437 I0.1984 J0.3437
G2 X255.1906 Y711.2 I0.1984 J-0.3437
G2 X254.7938 Y710.8031 I-0.3969 J0.0
G1 F120.0 Y710.4063
G2 F3000.0 X254.3969 Y710.5126 I0.0 J0.7938
G2 Y711.8874 I0.3969 J0.6874
G2 X255.5875 Y711.2 I0.3969 J-0.6874
G2 X254.7938 Y710.4063 I-0.7938 J0.0
G0 Z12.0
G0 Y709.6125
G0 Z0.1
G1 F120.0 Z-1.0
G2 F3000.0 X254.0 Y709.8252 I0.0 J1.5875
G2 Y712.5748 I0.7938 J1.3748
G2 X256.3813 Y711.2 I0.7938 J-1.3748
G2 X254.7938 Y709.6125 I-1.5875 J0.0
G0 Z12.0
G0 Y736.2031
G0 Z0.1
G1 F120.0 Z-1.0
G2 F3000.0 X254.5953 Y736.2563 I0.0 J0.3969
G2 Y736.9437 I0.1984 J0.3437
G2 X255.1906 Y736.6 I0.1984 J-0.3437
G2 X254.7938 Y736.2031 I-0.3969 J0.0
G1 F120.0 Y735.8063
G2 F3000.0 X254.3969 Y735.9126 I0.0 J0.7937
G2 Y737.2874 I0.3969 J0.6874
G2 X255.5875 Y736.6 I0.3969 J-0.6874
G2 X254.7938 Y735.8063 I-0.7937 J0.0
G0 Z12.0
G0 Y735.0125
G0 Z0.1
G1 F120.0 Z-1.0
G2 F3000.0 X254.0 Y735.2252 I0.0 J1.5875
G2 Y737.9748 I0.7937 J1.3748
G2 X256.3813 Y736.6 I0.7937 J-1.3748
G2 X254.7938 Y735.0125 I-1.5875 J0.0
G0 Z12.0
G0 Y761.6031
G0 Z0.1
G1 F120.0 Z-1.0
G2 F3000.0 X254.5953 Y761.6563 I0.0 J0.3969
G2 Y762.3437 I0.1984 J0.3437
G2 X255.1906 Y762.0 I0.1984 J-0.3437
G2 X254.7938 Y761.6031 I-0.3969 J0.0
G1 F120.0 Y761.2063
G2 F3000.0 X254.3969 Y761.3126 I0.0 J0.7938
G2 Y762.6874 I0.3969 J0.6874
G2 X255.5875 Y762.0 I0.3969 J-0.6874
G2 X254.7938 Y761.2063 I-0.7938 J0.0
G0 Z12.0
G0 Y760.4125
G0 Z0.1
G1 F120.0 Z-1.0
G2 F3000.0 X254.0 Y760.6252 I0.0 J1.5875
G2 Y763.3748 I0.7938 J1.3748
G2 X256.3813 Y762.0 I0.7938 J-1.3748
G2 X254.7938 Y760.4125 I-1.5875 J0.0
G0 Z12.0
G0 Y787.0031
G0 Z0.1
G1 F120.0 Z-1.0
G2 F3000.0 X254.5953 Y787.0563 I0.0 J0.3969
G2 Y787.7437 I0.1984 J0.3437
G2 X255.1906 Y787.4 I0.1984 J-0.3437
G2 X254.7938 Y787.0031 I-0.3969 J0.0
G1 F120.0 Y786.6063
G2 F3000.0 X254.3969 Y786.7126 I0.0 J0.7937
G2 Y788.0874 I0.3969 J0.6874
G2 X255.5875 Y787.4 I0.3969 J-0.6874
G2 X254.7938 Y786.6063 I-0.7937 J0.0
G0 Z12.0
G0 Y785.8125
G0 Z0.1
G1 F120.0 Z-1.0
G2 F3000.0 X254.0 Y786.0252 I0.0 J1.5875
G2 Y788.7748 I0.7937 J1.3748
G2 X256.3813 Y787.4 I0.7937 J-1.3748
G2 X254.7938 Y785.8125 I-1.5875 J0.0
G0 Z12.0
G0 Y812.4031
G0 Z0.1
G1 F120.0 Z-1.0
G2 F3000.0 X254.5953 Y812.4563 I0.0 J0.3969
G2 Y813.1437 I0.1984 J0.3437
G2 X255.1906 Y812.8 I0.1984 J-0.3437
G2 X254.7938 Y812.4031 I-0.3969 J0.0
G1 F120.0 Y812.0063
G2 F3000.0 X254.3969 Y812.1126 I0.0 J0.7938
G2 Y813.4874 I0.3969 J0.6874
G2 X255.5875 Y812.8 I0.3969 J-0.6874
G2 X254.7938 Y812.0063 I-0.7938 J0.0
G0 Z12.0
G0 Y811.2125
G0 Z0.1
G1 F120.0 Z-1.0
G2 F3000.0 X254.0 Y811.4252 I0.0 J1.5875
G2 Y814.1748 I0.7938 J1.3748
G2 X256.3813 Y812.8 I0.7938 J-1.3748
G2 X254.7938 Y811.2125 I-1.5875 J0.0
G0 Z12.0
G0 X370.7719 Y812.7946
G0 Z0.1
G1 F120.0 Z-1.0
G2 F3000.0 X370.9703 Y813.1437 I0.3968 J0.0054
G2 X371.5657 Y812.8 I0.1984 J-0.3437
G2 X370.9703 Y812.4563 I-0.3969 J0.0
G2 X370.7719 Y812.7946 I0.1984 J0.3437
G1 F120.0 X370.3751 Y812.7892
G2 F3000.0 X370.7719 Y813.4874 I0.7937 J0.0108
G2 X371.9625 Y812.8 I0.3969 J-0.6874
G2 X370.7719 Y812.1126 I-0.7938 J0.0
G2 X370.3751 Y812.7892 I0.3969 J0.6874
G1 F120.0 X369.5814 Y812.7783
G2 F3000.0 X370.375 Y814.1748 I1.5874 J0.0217
G2 X372.7563 Y812.8 I0.7938 J-1.3748
G2 X370.375 Y811.4252 I-1.5875 J0.0
G2 X369.5814 Y812.7783 I0.7938 J1.3748
G0 Z12.0
G0 X371.144 Y787.7961
G0 Z0.1
G1 F120.0 Z-1.0
G2 F3000.0 X371.5657 Y787.4 I0.0248 J-0.3961
G2 X370.9703 Y787.0563 I-0.3969 J0.0
G2 Y787.7437 I0.1984 J0.3437
G2 X371.144 Y787.7961 I0.1984 J-0.3437
G1 F120.0 X371.1192 Y788.1922
G2 F3000.0 X371.9625 Y787.4 I0.0496 J-0.7922
G2 X370.7719 Y786.7126 I-0.7938 J0.0
G2 Y788.0874 I0.3969 J0.6874
G2 X371.1192 Y788.1922 I0.3969 J-0.6874
G1 F120.0 X371.0697 Y788.9844
G2 F3000.0 X372.7563 Y787.4 I0.0991 J-1.5844
G2 X370.375 Y786.0252 I-1.5875 J0.0
G2 Y788.7748 I0.7938 J1.3748
G2 X371.0697 Y788.9844 I0.7938 J-1.3748
G0 Z12.0
G0 X371.1673 Y762.3969
G0 Z0.1
G1 F120.0 Z-1.0
G2 F3000.0 X371.5657 Y762.0 I0.0015 J-0.3969
G2 X370.9703 Y761.6563 I-0.3969 J0.0
G2 Y762.3437 I0.1984 J0.3437
G2 X371.1673 Y762.3969 I0.1984 J-0.3437
G1 F120.0 X371.1659 Y762.7937
G2 F3000.0 X371.9625 Y762.0 I0.0029 J-0.7937
G2 X370.7719 Y761.3126 I-0.7937 J0.0
G2 Y762.6874 I0.3969 J0.6874
G2 X371.1659 Y762.7937 I0.3969 J-0.6874
G0 Z12.0
G0 X371.163 Y763.5875
G0 Z0.1
G1 F120.0 Z-1.0
G2 F3000.0 X372.7563 Y762.0 I0.0058 J-1.5875
G2 X370.375 Y760.6252 I-1.5875 J0.0
G2 Y763.3748 I0.7937 J1.3748
G2 X371.163 Y763.5875 I0.7937 J-1.3748
G0 Z12.0
G0 X371.1687 Y736.9969
G0 Z0.1
G1 F120.0 Z-1.0
G2 F3000.0 X371.5657 Y736.6 I0.0001 J-0.3969
G2 X370.9703 Y736.2563 I-0.3969 J0.0
G2 Y736.9437 I0.1984 J0.3437
G2 X371.1687 Y736.9969 I0.1984 J-0.3437
G1 F120.0 X371.1686 Y737.3937
G2 F3000.0 X371.9625 Y736.6 I0.0002 J-0.7937
G2 X370.7719 Y735.9126 I-0.7938 J0.0
G2 Y737.2874 I0.3969 J0.6874
G2 X371.1686 Y737.3937 I0.3969 J-0.6874
G0 Z12.0
G0 X371.1684 Y738.1875
G0 Z0.1
G1 F120.0 Z-1.0
G2 F3000.0 X372.7563 Y736.6 I0.0003 J-1.5875
G2 X370.375 Y735.2252 I-1.5875 J0.0
G2 Y737.9748 I0.7938 J1.3748
G2 X371.1684 Y738.1875 I0.7937 J-1.3748
G0 Z12.0
G0 X371.1688 Y711.5969
G0 Z0.1
G1 F120.0 Z-1.0
G2 F3000.0 X371.5657 Y711.2 I0.0 J-0.3969
G2 X370.9703 Y710.8563 I-0.3969 J0.0
G2 Y711.5437 I0.1984 J0.3437
G2 X371.1688 Y711.5969 I0.1984 J-0.3437
G1 F120.0 Y711.9937
G2 F3000.0 X371.9625 Y711.2 I0.0 J-0.7937
G2 X370.7719 Y710.5126 I-0.7938 J0.0
G2 Y711.8874 I0.3969 J0.6874
G2 X371.1688 Y711.9937 I0.3969 J-0.6874
G0 Z12.0
G0 Y712.7875
G0 Z0.1
G1 F120.0 Z-1.0
G2 F3000.0 X372.7563 Y711.2 I0.0 J-1.5875
G2 X370.375 Y709.8252 I-1.5875 J0.0
G2 Y712.5748 I0.7938 J1.3748
G2 X371.1688 Y712.7875 I0.7938 J-1.3748
G0 Z12.0
G0 Y686.1969
G0 Z0.1
G1 F120.0 Z-1.0
G2 F3000.0 X371.5657 Y685.8 I0.0 J-0.3969
G2 X370.9703 Y685.4563 I-0.3969 J0.0
G2 Y686.1437 I0.1984 J0.3437
G2 X371.1688 Y686.1969 I0.1984 J-0.3437
G1 F120.0 Y686.5937
G2 F3000.0 X371.9625 Y685.8 I0.0 J-0.7937
G2 X370.7719 Y685.1126 I-0.7937 J0.0
G2 Y686.4874 I0.3969 J0.6874
G2 X371.1688 Y686.5937 I0.3969 J-0.6874
G0 Z12.0
G0 Y687.3875
G0 Z0.1
G1 F120.0 Z-1.0
G2 F3000.0 X372.7563 Y685.8 I0.0 J-1.5875
G2 X370.375 Y684.4252 I-1.5875 J0.0
G2 Y687.1748 I0.7937 J1.3748
G2 X371.1688 Y687.3875 I0.7937 J-1.3748
G0 Z12.0
G0 Y660.7969
G0 Z0.1
G1 F120.0 Z-1.0
G2 F3000.0 X371.5657 Y660.4 I0.0 J-0.3969
G2 X370.9703 Y660.0563 I-0.3969 J0.0
G2 Y660.7437 I0.1984 J0.3437
G2 X371.1688 Y660.7969 I0.1984 J-0.3437
G1 F120.0 Y661.1938
G2 F3000.0 X371.9625 Y660.4 I0.0 J-0.7938
G2 X370.7719 Y659.7126 I-0.7938 J0.0
G2 Y661.0874 I0.3969 J0.6874
G2 X371.1688 Y661.1938 I0.3969 J-0.6874
G1 F120.0 Y661.9875
G2 F3000.0 X372.7563 Y660.4 I0.0 J-1.5875
G2 X370.375 Y659.0252 I-1.5875 J0.0
G2 Y661.7748 I0.7938 J1.3748
G2 X371.1688 Y661.9875 I0.7937 J-1.3748
G0 Z12.0
G0 Y635.3969
G0 Z0.1
G1 F120.0 Z-1.0
G2 F3000.0 X371.5657 Y635.0 I0.0 J-0.3969
G2 X370.9703 Y634.6563 I-0.3969 J0.0
G2 Y635.3437 I0.1984 J0.3437
G2 X371.1688 Y635.3969 I0.1984 J-0.3437
G1 F120.0 Y635.7938
G2 F3000.0 X371.9625 Y635.0 I0.0 J-0.7938
G2 X370.7719 Y634.3126 I-0.7938 J0.0
G2 Y635.6874 I0.3969 J0.6874
G2 X371.1688 Y635.7938 I0.3969 J-0.6874
G1 F120.0 Y636.5875
G2 F3000.0 X372.7563 Y635.0 I0.0 J-1.5875
G2 X370.375 Y633.6252 I-1.5875 J0.0
G2 Y636.3748 I0.7938 J1.3748
G2 X371.1688 Y636.5875 I0.7937 J-1.3748
G0 Z12.0
G0 Y609.9969
G0 Z0.1
G1 F120.0 Z-1.0
G2 F3000.0 X371.5657 Y609.6 I0.0 J-0.3969
G2 X370.9703 Y609.2563 I-0.3969 J0.0
G2 Y609.9437 I0.1984 J0.3437
G2 X371.1688 Y609.9969 I0.1984 J-0.3437
G1 F120.0 Y610.3938
G2 F3000.0 X371.9625 Y609.6 I0.0 J-0.7938
G2 X370.7719 Y608.9126 I-0.7938 J0.0
G2 Y610.2874 I0.3969 J0.6874
G2 X371.1688 Y610.3938 I0.3969 J-0.6874
G1 F120.0 Y611.1875
G2 F3000.0 X372.7563 Y609.6 I0.0 J-1.5875
G2 X370.375 Y608.2252 I-1.5875 J0.0
G2 Y610.9748 I0.7938 J1.3748
G2 X371.1688 Y611.1875 I0.7937 J-1.3748
G0 Z12.0
G0 Y584.5969
G0 Z0.1
G1 F120.0 Z-1.0
G2 F3000.0 X371.5657 Y584.2 I0.0 J-0.3969
G2 X370.9703 Y583.8563 I-0.3969 J0.0
G2 Y584.5437 I0.1984 J0.3437
G2 X371.1688 Y584.5969 I0.1984 J-0.3437
G1 F120.0 Y584.9938
G2 F3000.0 X371.9625 Y584.2 I0.0 J-0.7938
G2 X370.7719 Y583.5126 I-0.7938 J0.0
G2 Y584.8874 I0.3969 J0.6874
G2 X371.1688 Y584.9938 I0.3969 J-0.6874
G1 F120.0 Y585.7875
G2 F3000.0 X372.7563 Y584.2 I0.0 J-1.5875
G2 X370.375 Y582.8252 I-1.5875 J0.0
G2 Y585.5748 I0.7938 J1.3748
G2 X371.1688 Y585.7875 I0.7937 J-1.3748
G0 Z12.0
G0 Y559.1969
G0 Z0.1
G1 F120.0 Z-1.0
G2 F3000.0 X371.5657 Y558.8 I0.0 J-0.3969
G2 X370.9703 Y558.4563 I-0.3969 J0.0
G2 Y559.1437 I0.1984 J0.3437
G2 X371.1688 Y559.1969 I0.1984 J-0.3437
G1 F120.0 Y559.5938
G2 F3000.0 X371.9625 Y558.8 I0.0 J-0.7937
G2 X370.7719 Y558.1126 I-0.7937 J0.0
G2 Y559.4874 I0.3969 J0.6874
G2 X371.1688 Y559.5938 I0.3969 J-0.6874
G1 F120.0 Y560.3875
G2 F3000.0 X372.7563 Y558.8 I0.0 J-1.5875
G2 X370.375 Y557.4252 I-1.5875 J0.0
G2 Y560.1748 I0.7937 J1.3748
G2 X371.1688 Y560.3875 I0.7937 J-1.3748
G0 Z12.0
G0 Y533.7969
G0 Z0.1
G1 F120.0 Z-1.0
G2 F3000.0 X371.5657 Y533.4 I0.0 J-0.3969
G2 X370.9703 Y533.0563 I-0.3969 J0.0
G2 Y533.7437 I0.1984 J0.3437
G2 X371.1688 Y533.7969 I0.1984 J-0.3437
G1 F120.0 Y534.1938
G2 F3000.0 X371.9625 Y533.4 I0.0 J-0.7938
G2 X370.7719 Y532.7126 I-0.7938 J0.0
G2 Y534.0874 I0.3969 J0.6874
G2 X371.1688 Y534.1938 I0.3969 J-0.6874
G1 F120.0 Y534.9875
G2 F3000.0 X372.7563 Y533.4 I0.0 J-1.5875
G2 X370.375 Y532.0252 I-1.5875 J0.0
G2 Y534.7748 I0.7938 J1.3748
G2 X371.1688 Y534.9875 I0.7937 J-1.3748
G0 Z12.0
G0 Y508.3969
G0 Z0.1
G1 F120.0 Z-1.0
G2 F3000.0 X371.5657 Y508.0 I0.0 J-0.3969
G2 X370.9703 Y507.6563 I-0.3969 J0.0
G2 Y508.3437 I0.1984 J0.3437
G2 X371.1688 Y508.3969 I0.1984 J-0.3437
G1 F120.0 Y508.7938
G2 F3000.0 X371.9625 Y508.0 I0.0 J-0.7938
G2 X370.7719 Y507.3126 I-0.7938 J0.0
G2 Y508.6874 I0.3969 J0.6874
G2 X371.1688 Y508.7938 I0.3969 J-0.6874
G1 F120.0 Y509.5875
G2 F3000.0 X372.7563 Y508.0 I0.0 J-1.5875
G2 X370.375 Y506.6252 I-1.5875 J0.0
G2 Y509.3748 I0.7938 J1.3748
G2 X371.1688 Y509.5875 I0.7938 J-1.3748
G0 Z12.0
G0 Y482.9969
G0 Z0.1
G1 F120.0 Z-1.0
G2 F3000.0 X371.5657 Y482.6 I0.0 J-0.3969
G2 X370.9703 Y482.2563 I-0.3969 J0.0
G2 Y482.9437 I0.1984 J0.3437
G2 X371.1688 Y482.9969 I0.1984 J-0.3437
G1 F120.0 Y483.3938
G2 F3000.0 X371.9625 Y482.6 I0.0 J-0.7937
G2 X370.7719 Y481.9126 I-0.7937 J0.0
G2 Y483.2874 I0.3969 J0.6874
G2 X371.1688 Y483.3938 I0.3969 J-0.6874
G1 F120.0 Y484.1875
G2 F3000.0 X372.7563 Y482.6 I0.0 J-1.5875
G2 X370.375 Y481.2252 I-1.5875 J0.0
G2 Y483.9748 I0.7937 J1.3748
G2 X371.1688 Y484.1875 I0.7937 J-1.3748
G0 Z12.0
G0 Y432.1969
G0 Z0.1
G1 F120.0 Z-1.0
G2 F3000.0 X371.5657 Y431.8 I0.0 J-0.3969
G2 X370.9703 Y431.4563 I-0.3969 J0.0
G2 Y432.1437 I0.1984 J0.3437
G2 X371.1688 Y432.1969 I0.1984 J-0.3437
G1 F120.0 Y432.5938
G2 F3000.0 X371.9625 Y431.8 I0.0 J-0.7938
G2 X370.7719 Y431.1126 I-0.7938 J0.0
G2 Y432.4874 I0.3969 J0.6874
G2 X371.1688 Y432.5938 I0.3969 J-0.6874
G1 F120.0 Y433.3875
G2 F3000.0 X372.7563 Y431.8 I0.0 J-1.5875
G2 X370.375 Y430.4252 I-1.5875 J0.0
G2 Y433.1748 I0.7938 J1.3748
G2 X371.1688 Y433.3875 I0.7938 J-1.3748
G0 Z12.0
G0 Y406.7969
G0 Z0.1
G1 F120.0 Z-1.0
G2 F3000.0 X371.5657 Y406.4 I0.0 J-0.3969
G2 X370.9703 Y406.0563 I-0.3969 J0.0
G2 Y406.7437 I0.1984 J0.3437
G2 X371.1688 Y406.7969 I0.1984 J-0.3437
G1 F120.0 Y407.1938
G2 F3000.0 X371.9625 Y406.4 I0.0 J-0.7937
G2 X370.7719 Y405.7126 I-0.7937 J0.0
G2 Y407.0874 I0.3969 J0.6874
G2 X371.1688 Y407.1938 I0.3969 J-0.6874
G1 F120.0 Y407.9875
G2 F3000.0 X372.7563 Y406.4 I0.0 J-1.5875
G2 X370.375 Y405.0252 I-1.5875 J0.0
G2 Y407.7748 I0.7937 J1.3748
G2 X371.1688 Y407.9875 I0.7937 J-1.3748
G0 Z12.0
G0 Y381.3969
G0 Z0.1
G1 F120.0 Z-1.0
G2 F3000.0 X371.5657 Y381.0 I0.0 J-0.3969
G2 X370.9703 Y380.6563 I-0.3969 J0.0
G2 Y381.3437 I0.1984 J0.3437
G2 X371.1688 Y381.3969 I0.1984 J-0.3437
G1 F120.0 Y381.7938
G2 F3000.0 X371.9625 Y381.0 I0.0 J-0.7938
G2 X370.7719 Y380.3126 I-0.7938 J0.0
G2 Y381.6874 I0.3969 J0.6874
G2 X371.1688 Y381.7938 I0.3969 J-0.6874
G1 F120.0 Y382.5875
G2 F3000.0 X372.7563 Y381.0 I0.0 J-1.5875
G2 X370.375 Y379.6252 I-1.5875 J0.0
G2 Y382.3748 I0.7938 J1.3748
G2 X371.1688 Y382.5875 I0.7938 J-1.3748
G0 Z12.0
G0 Y355.9969
G0 Z0.1
G1 F120.0 Z-1.0
G2 F3000.0 X371.5657 Y355.6 I0.0 J-0.3969
G2 X370.9703 Y355.2563 I-0.3969 J0.0
G2 Y355.9437 I0.1984 J0.3437
G2 X371.1688 Y355.9969 I0.1984 J-0.3437
G1 F120.0 Y356.3938
G2 F3000.0 X371.9625 Y355.6 I0.0 J-0.7937
G2 X370.7719 Y354.9126 I-0.7937 J0.0
G2 Y356.2874 I0.3969 J0.6874
G2 X371.1688 Y356.3938 I0.3969 J-0.6874
G1 F120.0 Y357.1875
G2 F3000.0 X372.7563 Y355.6 I0.0 J-1.5875
G2 X370.375 Y354.2252 I-1.5875 J0.0
G2 Y356.9748 I0.7937 J1.3748
G2 X371.1688 Y357.1875 I0.7937 J-1.3748
G0 Z12.0
G0 Y330.5969
G0 Z0.1
G1 F120.0 Z-1.0
G2 F3000.0 X371.5657 Y330.2 I0.0 J-0.3969
G2 X370.9703 Y329.8563 I-0.3969 J0.0
G2 Y330.5437 I0.1984 J0.3437
G2 X371.1688 Y330.5969 I0.1984 J-0.3437
G1 F120.0 Y330.9938
G2 F3000.0 X371.9625 Y330.2 I0.0 J-0.7938
G2 X370.7719 Y329.5126 I-0.7938 J0.0
G2 Y330.8874 I0.3969 J0.6874
G2 X371.1688 Y330.9938 I0.3969 J-0.6874
G1 F120.0 Y331.7875
G2 F3000.0 X372.7563 Y330.2 I0.0 J-1.5875
G2 X370.375 Y328.8252 I-1.5875 J0.0
G2 Y331.5748 I0.7938 J1.3748
G2 X371.1688 Y331.7875 I0.7938 J-1.3748
G0 Z12.0
G0 Y305.1969
G0 Z0.1
G1 F120.0 Z-1.0
G2 F3000.0 X371.5657 Y304.8 I0.0 J-0.3969
G2 X370.9703 Y304.4563 I-0.3969 J0.0
G2 Y305.1437 I0.1984 J0.3437
G2 X371.1688 Y305.1969 I0.1984 J-0.3437
G1 F120.0 Y305.5938
G2 F3000.0 X371.9625 Y304.8 I0.0 J-0.7938
G2 X370.7719 Y304.1126 I-0.7938 J0.0
G2 Y305.4874 I0.3969 J0.6874
G2 X371.1688 Y305.5938 I0.3969 J-0.6874
G1 F120.0 Y306.3875
G2 F3000.0 X372.7563 Y304.8 I0.0 J-1.5875
G2 X370.375 Y303.4252 I-1.5875 J0.0
G2 Y306.1748 I0.7938 J1.3748
G2 X371.1688 Y306.3875 I0.7938 J-1.3748
G0 Z12.0
G0 Y279.7969
G0 Z0.1
G1 F120.0 Z-1.0
G2 F3000.0 X371.5657 Y279.4 I0.0 J-0.3969
G2 X370.9703 Y279.0563 I-0.3969 J0.0
G2 Y279.7437 I0.1984 J0.3437
G2 X371.1688 Y279.7969 I0.1984 J-0.3437
G1 F120.0 Y280.1938
G2 F3000.0 X371.9625 Y279.4 I0.0 J-0.7938
G2 X370.7719 Y278.7126 I-0.7938 J0.0
G2 Y280.0874 I0.3969 J0.6874
G2 X371.1688 Y280.1938 I0.3969 J-0.6874
G1 F120.0 Y280.9875
G2 F3000.0 X372.7563 Y279.4 I0.0 J-1.5875
G2 X370.375 Y278.0252 I-1.5875 J0.0
G2 Y280.7748 I0.7938 J1.3748
G2 X371.1688 Y280.9875 I0.7938 J-1.3748
G0 Z12.0
G0 Y254.3969
G0 Z0.1
G1 F120.0 Z-1.0
G2 F3000.0 X371.5657 Y254.0 I0.0 J-0.3969
G2 X370.9703 Y253.6563 I-0.3969 J0.0
G2 Y254.3437 I0.1984 J0.3437
G2 X371.1688 Y254.3969 I0.1984 J-0.3437
G1 F120.0 Y254.7938
G2 F3000.0 X371.9625 Y254.0 I0.0 J-0.7938
G2 X370.7719 Y253.3126 I-0.7938 J0.0
G2 Y254.6874 I0.3969 J0.6874
G2 X371.1688 Y254.7938 I0.3969 J-0.6874
G1 F120.0 Y255.5875
G2 F3000.0 X372.7563 Y254.0 I0.0 J-1.5875
G2 X370.375 Y252.6252 I-1.5875 J0.0
G2 Y255.3748 I0.7938 J1.3748
G2 X371.1688 Y255.5875 I0.7938 J-1.3748
G0 Z12.0
G0 Y228.9969
G0 Z0.1
G1 F120.0 Z-1.0
G2 F3000.0 X371.5657 Y228.6 I0.0 J-0.3969
G2 X370.9703 Y228.2563 I-0.3969 J0.0
G2 Y228.9437 I0.1984 J0.3437
G2 X371.1688 Y228.9969 I0.1984 J-0.3437
G1 F120.0 Y229.3938
G2 F3000.0 X371.9625 Y228.6 I0.0 J-0.7938
G2 X370.7719 Y227.9126 I-0.7938 J0.0
G2 Y229.2874 I0.3969 J0.6874
G2 X371.1688 Y229.3938 I0.3969 J-0.6874
G1 F120.0 Y230.1875
G2 F3000.0 X372.7563 Y228.6 I0.0 J-1.5875
G2 X370.375 Y227.2252 I-1.5875 J0.0
G2 Y229.9748 I0.7938 J1.3748
G2 X371.1688 Y230.1875 I0.7938 J-1.3748
G0 Z12.0
G0 Y203.5969
G0 Z0.1
G1 F120.0 Z-1.0
G2 F3000.0 X371.5657 Y203.2 I0.0 J-0.3969
G2 X370.9703 Y202.8563 I-0.3969 J0.0
G2 Y203.5437 I0.1984 J0.3437
G2 X371.1688 Y203.5969 I0.1984 J-0.3437
G1 F120.0 Y203.9938
G2 F3000.0 X371.9625 Y203.2 I0.0 J-0.7938
G2 X370.7719 Y202.5126 I-0.7938 J0.0
G2 Y203.8874 I0.3969 J0.6874
G2 X371.1688 Y203.9938 I0.3969 J-0.6874
G1 F120.0 Y204.7875
G2 F3000.0 X372.7563 Y203.2 I0.0 J-1.5875
G2 X370.375 Y201.8252 I-1.5875 J0.0
G2 Y204.5748 I0.7938 J1.3748
G2 X371.1688 Y204.7875 I0.7938 J-1.3748
G0 Z12.0
G0 Y178.1969
G0 Z0.1
G1 F120.0 Z-1.0
G2 F3000.0 X371.5657 Y177.8 I0.0 J-0.3969
G2 X370.9703 Y177.4563 I-0.3969 J0.0
G2 Y178.1437 I0.1984 J0.3437
G2 X371.1688 Y178.1969 I0.1984 J-0.3437
G1 F120.0 Y178.5938
G2 F3000.0 X371.9625 Y177.8 I0.0 J-0.7937
G2 X370.7719 Y177.1126 I-0.7937 J0.0
G2 Y178.4874 I0.3969 J0.6874
G2 X371.1688 Y178.5938 I0.3969 J-0.6874
G1 F120.0 Y179.3875
G2 F3000.0 X372.7563 Y177.8 I0.0 J-1.5875
G2 X370.375 Y176.4252 I-1.5875 J0.0
G2 Y179.1748 I0.7937 J1.3748
G2 X371.1688 Y179.3875 I0.7937 J-1.3748
G0 Z12.0
G0 Y152.7969
G0 Z0.1
G1 F120.0 Z-1.0
G2 F3000.0 X371.5657 Y152.4 I0.0 J-0.3969
G2 X370.9703 Y152.0563 I-0.3969 J0.0
G2 Y152.7437 I0.1984 J0.3437
G2 X371.1688 Y152.7969 I0.1984 J-0.3437
G1 F120.0 Y153.1938
G2 F3000.0 X371.9625 Y152.4 I0.0 J-0.7938
G2 X370.7719 Y151.7126 I-0.7938 J0.0
G2 Y153.0874 I0.3969 J0.6874
G2 X371.1688 Y153.1938 I0.3969 J-0.6874
G1 F120.0 Y153.9875
G2 F3000.0 X372.7563 Y152.4 I0.0 J-1.5875
G2 X370.375 Y151.0252 I-1.5875 J0.0
G2 Y153.7748 I0.7938 J1.3748
G2 X371.1688 Y153.9875 I0.7938 J-1.3748
G0 Z12.0
G0 Y127.3969
G0 Z0.1
G1 F120.0 Z-1.0
G2 F3000.0 X371.5657 Y127.0 I0.0 J-0.3969
G2 X370.9703 Y126.6563 I-0.3969 J0.0
G2 Y127.3437 I0.1984 J0.3437
G2 X371.1688 Y127.3969 I0.1984 J-0.3437
G1 F120.0 Y127.7938
G2 F3000.0 X371.9625 Y127.0 I0.0 J-0.7937
G2 X370.7719 Y126.3126 I-0.7937 J0.0
G2 Y127.6874 I0.3969 J0.6874
G2 X371.1688 Y127.7938 I0.3969 J-0.6874
G1 F120.0 Y128.5875
G2 F3000.0 X372.7563 Y127.0 I0.0 J-1.5875
G2 X370.375 Y125.6252 I-1.5875 J0.0
G2 Y128.3748 I0.7937 J1.3748
G2 X371.1688 Y128.5875 I0.7937 J-1.3748
G0 Z12.0
G0 Y101.9969
G0 Z0.1
G1 F120.0 Z-1.0
G2 F3000.0 X371.5657 Y101.6 I0.0 J-0.3969
G2 X370.9703 Y101.2563 I-0.3969 J0.0
G2 Y101.9437 I0.1984 J0.3437
G2 X371.1688 Y101.9969 I0.1984 J-0.3437
G1 F120.0 Y102.3938
G2 F3000.0 X371.9625 Y101.6 I0.0 J-0.7938
G2 X370.7719 Y100.9126 I-0.7938 J0.0
G2 Y102.2874 I0.3969 J0.6874
G2 X371.1688 Y102.3938 I0.3969 J-0.6874
G1 F120.0 Y103.1875
G2 F3000.0 X372.7563 Y101.6 I0.0 J-1.5875
G2 X370.375 Y100.2252 I-1.5875 J0.0
G2 Y102.9748 I0.7938 J1.3748
G2 X371.1688 Y103.1875 I0.7938 J-1.3748
G0 Z12.0
G0 X562.0657 Y101.6033
G0 Z0.1
G1 F120.0 Z-1.0
G2 F3000.0 X562.2641 Y101.9437 I0.3969 J-0.0033
G2 X562.8594 Y101.6 I0.1984 J-0.3437
G2 X562.2641 Y101.2563 I-0.3969 J0.0
G2 X562.0657 Y101.6033 I0.1984 J0.3437
G1 F120.0 X561.6688 Y101.6066
G2 F3000.0 X562.0657 Y102.2874 I0.7937 J-0.0066
G2 X563.2563 Y101.6 I0.3969 J-0.6874
G2 X562.0657 Y100.9126 I-0.7937 J0.0
G2 X561.6688 Y101.6066 I0.3969 J0.6874
G1 F120.0 X560.8751 Y101.6132
G2 F3000.0 X561.6688 Y102.9748 I1.5874 J-0.0132
G2 X564.05 Y101.6 I0.7937 J-1.3748
G2 X561.6688 Y100.2252 I-1.5875 J0.0
G2 X560.8751 Y101.6132 I0.7937 J1.3748
G0 Z12.0
G0 X562.4378 Y126.6039
G0 Z0.1
G1 F120.0 Z-1.0
G2 F3000.0 X562.2641 Y126.6563 I0.0248 J0.3961
G2 Y127.3437 I0.1984 J0.3437
G2 X562.8594 Y127.0 I0.1984 J-0.3437
G2 X562.4378 Y126.6039 I-0.3969 J0.0
G1 F120.0 X562.413 Y126.2078
G2 F3000.0 X562.0657 Y126.3126 I0.0495 J0.7922
G2 Y127.6874 I0.3969 J0.6874
G2 X563.2563 Y127.0 I0.3969 J-0.6874
G2 X562.413 Y126.2078 I-0.7938 J0.0
G0 Z12.0
G0 X562.3635 Y125.4156
G0 Z0.1
G1 F120.0 Z-1.0
G2 F3000.0 X561.6688 Y125.6252 I0.0991 J1.5844
G2 Y128.3748 I0.7938 J1.3748
G2 X564.05 Y127.0 I0.7938 J-1.3748
G2 X562.3635 Y125.4156 I-1.5875 J0.0
G0 Z12.0
G0 X562.4611 Y152.0031
G0 Z0.1
G1 F120.0 Z-1.0
G2 F3000.0 X562.2641 Y152.0563 I0.0015 J0.3969
G2 Y152.7437 I0.1984 J0.3437
G2 X562.8594 Y152.4 I0.1984 J-0.3437
G2 X562.4611 Y152.0031 I-0.3969 J0.0
G1 F120.0 X562.4596 Y151.6063
G2 F3000.0 X562.0657 Y151.7126 I0.0029 J0.7937
G2 Y153.0874 I0.3969 J0.6874
G2 X563.2563 Y152.4 I0.3969 J-0.6874
G2 X562.4596 Y151.6063 I-0.7938 J0.0
G0 Z12.0
G0 X562.4567 Y150.8125
G0 Z0.1
G1 F120.0 Z-1.0
G2 F3000.0 X561.6688 Y151.0252 I0.0058 J1.5875
G2 Y153.7748 I0.7938 J1.3748
G2 X564.05 Y152.4 I0.7938 J-1.3748
G2 X562.4567 Y150.8125 I-1.5875 J0.0
G0 Z12.0
G0 X562.4624 Y177.4031
G0 Z0.1
G1 F120.0 Z-1.0
G2 F3000.0 X562.2641 Y177.4563 I0.0001 J0.3969
G2 Y178.1437 I0.1984 J0.3437
G2 X562.8594 Y177.8 I0.1984 J-0.3437
G2 X562.4624 Y177.4031 I-0.3969 J0.0
G1 F120.0 Y177.0063
G2 F3000.0 X562.0657 Y177.1126 I0.0002 J0.7937
G2 Y178.4874 I0.3969 J0.6874
G2 X563.2563 Y177.8 I0.3969 J-0.6874
G2 X562.4624 Y177.0063 I-0.7937 J0.0
G0 Z12.0
G0 X562.4622 Y176.2125
G0 Z0.1
G1 F120.0 Z-1.0
G2 F3000.0 X561.6688 Y176.4252 I0.0003 J1.5875
G2 Y179.1748 I0.7937 J1.3748
G2 X564.05 Y177.8 I0.7937 J-1.3748
G2 X562.4622 Y176.2125 I-1.5875 J0.0
G0 Z12.0
G0 X562.4625 Y202.8031
G0 Z0.1
G1 F120.0 Z-1.0
G2 F3000.0 X562.2641 Y202.8563 I0.0 J0.3969
G2 Y203.5437 I0.1984 J0.3437
G2 X562.8594 Y203.2 I0.1984 J-0.3437
G2 X562.4625 Y202.8031 I-0.3969 J0.0
G1 F120.0 Y202.4063
G2 F3000.0 X562.0657 Y202.5126 I0.0 J0.7937
G2 Y203.8874 I0.3969 J0.6874
G2 X563.2563 Y203.2 I0.3969 J-0.6874
G2 X562.4625 Y202.4063 I-0.7938 J0.0
G0 Z12.0
G0 Y201.6125
G0 Z0.1
G1 F120.0 Z-1.0
G2 F3000.0 X561.6688 Y201.8252 I0.0 J1.5875
G2 Y204.5748 I0.7938 J1.3748
G2 X564.05 Y203.2 I0.7938 J-1.3748
G2 X562.4625 Y201.6125 I-1.5875 J0.0
G0 Z12.0
G0 Y228.2031
G0 Z0.1
G1 F120.0 Z-1.0
G2 F3000.0 X562.2641 Y228.2563 I0.0 J0.3969
G2 Y228.9437 I0.1984 J0.3437
G2 X562.8594 Y228.6 I0.1984 J-0.3437
G2 X562.4625 Y228.2031 I-0.3969 J0.0
G1 F120.0 Y227.8063
G2 F3000.0 X562.0657 Y227.9126 I0.0 J0.7937
G2 Y229.2874 I0.3969 J0.6874
G2 X563.2563 Y228.6 I0.3969 J-0.6874
G2 X562.4625 Y227.8063 I-0.7938 J0.0
G0 Z12.0
G0 Y227.0125
G0 Z0.1
G1 F120.0 Z-1.0
G2 F3000.0 X561.6688 Y227.2252 I0.0 J1.5875
G2 Y229.9748 I0.7938 J1.3748
G2 X564.05 Y228.6 I0.7938 J-1.3748
G2 X562.4625 Y227.0125 I-1.5875 J0.0
G0 Z12.0
G0 Y253.6031
G0 Z0.1
G1 F120.0 Z-1.0
G2 F3000.0 X562.2641 Y253.6563 I0.0 J0.3969
G2 Y254.3437 I0.1984 J0.3437
G2 X562.8594 Y254.0 I0.1984 J-0.3437
G2 X562.4625 Y253.6031 I-0.3969 J0.0
G1 F120.0 Y253.2063
G2 F3000.0 X562.0657 Y253.3126 I0.0 J0.7937
G2 Y254.6874 I0.3969 J0.6874
G2 X563.2563 Y254.0 I0.3969 J-0.6874
G2 X562.4625 Y253.2063 I-0.7937 J0.0
G0 Z12.0
G0 Y252.4125
G0 Z0.1
G1 F120.0 Z-1.0
G2 F3000.0 X561.6688 Y252.6252 I0.0 J1.5875
G2 Y255.3748 I0.7937 J1.3748
G2 X564.05 Y254.0 I0.7937 J-1.3748
G2 X562.4625 Y252.4125 I-1.5875 J0.0
G0 Z12.0
G0 Y279.0031
G0 Z0.1
G1 F120.0 Z-1.0
G2 F3000.0 X562.2641 Y279.0563 I0.0 J0.3969
G2 Y279.7437 I0.1984 J0.3437
G2 X562.8594 Y279.4 I0.1984 J-0.3437
G2 X562.4625 Y279.0031 I-0.3969 J0.0
G1 F120.0 Y278.6063
G2 F3000.0 X562.0657 Y278.7126 I0.0 J0.7938
G2 Y280.0874 I0.3969 J0.6874
G2 X563.2563 Y279.4 I0.3969 J-0.6874
G2 X562.4625 Y278.6063 I-0.7938 J0.0
G0 Z12.0
G0 Y277.8125
G0 Z0.1
G1 F120.0 Z-1.0
G2 F3000.0 X561.6688 Y278.0252 I0.0 J1.5875
G2 Y280.7748 I0.7938 J1.3748
G2 X564.05 Y279.4 I0.7938 J-1.3748
G2 X562.4625 Y277.8125 I-1.5875 J0.0
G0 Z12.0
G0 Y304.4031
G0 Z0.1
G1 F120.0 Z-1.0
G2 F3000.0 X562.2641 Y304.4563 I0.0 J0.3969
G2 Y305.1437 I0.1984 J0.3437
G2 X562.8594 Y304.8 I0.1984 J-0.3437
G2 X562.4625 Y304.4031 I-0.3969 J0.0
G1 F120.0 Y304.0063
G2 F3000.0 X562.0657 Y304.1126 I0.0 J0.7937
G2 Y305.4874 I0.3969 J0.6874
G2 X563.2563 Y304.8 I0.3969 J-0.6874
G2 X562.4625 Y304.0063 I-0.7937 J0.0
G0 Z12.0
G0 Y303.2125
G0 Z0.1
G1 F120.0 Z-1.0
G2 F3000.0 X561.6688 Y303.4252 I0.0 J1.5875
G2 Y306.1748 I0.7937 J1.3748
G2 X564.05 Y304.8 I0.7937 J-1.3748
G2 X562.4625 Y303.2125 I-1.5875 J0.0
G0 Z12.0
G0 Y329.8031
G0 Z0.1
G1 F120.0 Z-1.0
G2 F3000.0 X562.2641 Y329.8563 I0.0 J0.3969
G2 Y330.5437 I0.1984 J0.3437
G2 X562.8594 Y330.2 I0.1984 J-0.3437
G2 X562.4625 Y329.8031 I-0.3969 J0.0
G1 F120.0 Y329.4063
G2 F3000.0 X562.0657 Y329.5126 I0.0 J0.7938
G2 Y330.8874 I0.3969 J0.6874
G2 X563.2563 Y330.2 I0.3969 J-0.6874
G2 X562.4625 Y329.4063 I-0.7938 J0.0
G0 Z12.0
G0 Y328.6125
G0 Z0.1
G1 F120.0 Z-1.0
G2 F3000.0 X561.6688 Y328.8252 I0.0 J1.5875
G2 Y331.5748 I0.7938 J1.3748
G2 X564.05 Y330.2 I0.7938 J-1.3748
G2 X562.4625 Y328.6125 I-1.5875 J0.0
G0 Z12.0
G0 Y355.2031
G0 Z0.1
G1 F120.0 Z-1.0
G2 F3000.0 X562.2641 Y355.2563 I0.0 J0.3969
G2 Y355.9437 I0.1984 J0.3437
G2 X562.8594 Y355.6 I0.1984 J-0.3437
G2 X562.4625 Y355.2031 I-0.3969 J0.0
G1 F120.0 Y354.8063
G2 F3000.0 X562.0657 Y354.9126 I0.0 J0.7938
G2 Y356.2874 I0.3969 J0.6874
G2 X563.2563 Y355.6 I0.3969 J-0.6874
G2 X562.4625 Y354.8063 I-0.7938 J0.0
G0 Z12.0
G0 Y354.0125
G0 Z0.1
G1 F120.0 Z-1.0
G2 F3000.0 X561.6688 Y354.2252 I0.0 J1.5875
G2 Y356.9748 I0.7938 J1.3748
G2 X564.05 Y355.6 I0.7938 J-1.3748
G2 X562.4625 Y354.0125 I-1.5875 J0.0
G0 Z12.0
G0 Y380.6031
G0 Z0.1
G1 F120.0 Z-1.0
G2 F3000.0 X562.2641 Y380.6563 I0.0 J0.3969
G2 Y381.3437 I0.1984 J0.3437
G2 X562.8594 Y381.0 I0.1984 J-0.3437
G2 X562.4625 Y380.6031 I-0.3969 J0.0
G1 F120.0 Y380.2063
G2 F3000.0 X562.0657 Y380.3126 I0.0 J0.7937
G2 Y381.6874 I0.3969 J0.6874
G2 X563.2563 Y381.0 I0.3969 J-0.6874
G2 X562.4625 Y380.2063 I-0.7937 J0.0
G0 Z12.0
G0 Y379.4125
G0 Z0.1
G1 F120.0 Z-1.0
G2 F3000.0 X561.6688 Y379.6252 I0.0 J1.5875
G2 Y382.3748 I0.7937 J1.3748
G2 X564.05 Y381.0 I0.7937 J-1.3748
G2 X562.4625 Y379.4125 I-1.5875 J0.0
G0 Z12.0
G0 Y406.0031
G0 Z0.1
G1 F120.0 Z-1.0
G2 F3000.0 X562.2641 Y406.0563 I0.0 J0.3969
G2 Y406.7437 I0.1984 J0.3437
G2 X562.8594 Y406.4 I0.1984 J-0.3437
G2 X562.4625 Y406.0031 I-0.3969 J0.0
G1 F120.0 Y405.6063
G2 F3000.0 X562.0657 Y405.7126 I0.0 J0.7938
G2 Y407.0874 I0.3969 J0.6874
G2 X563.2563 Y406.4 I0.3969 J-0.6874
G2 X562.4625 Y405.6063 I-0.7938 J0.0
G0 Z12.0
G0 Y404.8125
G0 Z0.1
G1 F120.0 Z-1.0
G2 F3000.0 X561.6688 Y405.0252 I0.0 J1.5875
G2 Y407.7748 I0.7938 J1.3748
G2 X564.05 Y406.4 I0.7938 J-1.3748
G2 X562.4625 Y404.8125 I-1.5875 J0.0
G0 Z12.0
G0 Y431.4031
G0 Z0.1
G1 F120.0 Z-1.0
G2 F3000.0 X562.2641 Y431.4563 I0.0 J0.3969
G2 Y432.1437 I0.1984 J0.3437
G2 X562.8594 Y431.8 I0.1984 J-0.3437
G2 X562.4625 Y431.4031 I-0.3969 J0.0
G1 F120.0 Y431.0063
G2 F3000.0 X562.0657 Y431.1126 I0.0 J0.7938
G2 Y432.4874 I0.3969 J0.6874
G2 X563.2563 Y431.8 I0.3969 J-0.6874
G2 X562.4625 Y431.0063 I-0.7938 J0.0
G0 Z12.0
G0 Y430.2125
G0 Z0.1
G1 F120.0 Z-1.0
G2 F3000.0 X561.6688 Y430.4252 I0.0 J1.5875
G2 Y433.1748 I0.7938 J1.3748
G2 X564.05 Y431.8 I0.7938 J-1.3748
G2 X562.4625 Y430.2125 I-1.5875 J0.0
G0 Z12.0
G0 Y482.2031
G0 Z0.1
G1 F120.0 Z-1.0
G2 F3000.0 X562.2641 Y482.2563 I0.0 J0.3969
G2 Y482.9437 I0.1984 J0.3437
G2 X562.8594 Y482.6 I0.1984 J-0.3437
G2 X562.4625 Y482.2031 I-0.3969 J0.0
G1 F120.0 Y481.8063
G2 F3000.0 X562.0657 Y481.9126 I0.0 J0.7938
G2 Y483.2874 I0.3969 J0.6874
G2 X563.2563 Y482.6 I0.3969 J-0.6874
G2 X562.4625 Y481.8063 I-0.7938 J0.0
G0 Z12.0
G0 Y481.0125
G0 Z0.1
G1 F120.0 Z-1.0
G2 F3000.0 X561.6688 Y481.2252 I0.0 J1.5875
G2 Y483.9748 I0.7938 J1.3748
G2 X564.05 Y482.6 I0.7938 J-1.3748
G2 X562.4625 Y481.0125 I-1.5875 J0.0
G0 Z12.0
G0 Y507.6031
G0 Z0.1
G1 F120.0 Z-1.0
G2 F3000.0 X562.2641 Y507.6563 I0.0 J0.3969
G2 Y508.3437 I0.1984 J0.3437
G2 X562.8594 Y508.0 I0.1984 J-0.3437
G2 X562.4625 Y507.6031 I-0.3969 J0.0
G1 F120.0 Y507.2063
G2 F3000.0 X562.0657 Y507.3126 I0.0 J0.7937
G2 Y508.6874 I0.3969 J0.6874
G2 X563.2563 Y508.0 I0.3969 J-0.6874
G2 X562.4625 Y507.2063 I-0.7937 J0.0
G0 Z12.0
G0 Y506.4125
G0 Z0.1
G1 F120.0 Z-1.0
G2 F3000.0 X561.6688 Y506.6252 I0.0 J1.5875
G2 Y509.3748 I0.7937 J1.3748
G2 X564.05 Y508.0 I0.7937 J-1.3748
G2 X562.4625 Y506.4125 I-1.5875 J0.0
G0 Z12.0
G0 Y533.0031
G0 Z0.1
G1 F120.0 Z-1.0
G2 F3000.0 X562.2641 Y533.0563 I0.0 J0.3969
G2 Y533.7437 I0.1984 J0.3437
G2 X562.8594 Y533.4 I0.1984 J-0.3437
G2 X562.4625 Y533.0031 I-0.3969 J0.0
G1 F120.0 Y532.6063
G2 F3000.0 X562.0657 Y532.7126 I0.0 J0.7938
G2 Y534.0874 I0.3969 J0.6874
G2 X563.2563 Y533.4 I0.3969 J-0.6874
G2 X562.4625 Y532.6063 I-0.7938 J0.0
G0 Z12.0
G0 Y531.8125
G0 Z0.1
G1 F120.0 Z-1.0
G2 F3000.0 X561.6688 Y532.0252 I0.0 J1.5875
G2 Y534.7748 I0.7938 J1.3748
G2 X564.05 Y533.4 I0.7938 J-1.3748
G2 X562.4625 Y531.8125 I-1.5875 J0.0
G0 Z12.0
G0 Y558.4031
G0 Z0.1
G1 F120.0 Z-1.0
G2 F3000.0 X562.2641 Y558.4563 I0.0 J0.3969
G2 Y559.1437 I0.1984 J0.3437
G2 X562.8594 Y558.8 I0.1984 J-0.3437
G2 X562.4625 Y558.4031 I-0.3969 J0.0
G1 F120.0 Y558.0063
G2 F3000.0 X562.0657 Y558.1126 I0.0 J0.7937
G2 Y559.4874 I0.3969 J0.6874
G2 X563.2563 Y558.8 I0.3969 J-0.6874
G2 X562.4625 Y558.0063 I-0.7937 J0.0
G0 Z12.0
G0 Y557.2125
G0 Z0.1
G1 F120.0 Z-1.0
G2 F3000.0 X561.6688 Y557.4252 I0.0 J1.5875
G2 Y560.1748 I0.7937 J1.3748
G2 X564.05 Y558.8 I0.7937 J-1.3748
G2 X562.4625 Y557.2125 I-1.5875 J0.0
G0 Z12.0
G0 Y583.8031
G0 Z0.1
G1 F120.0 Z-1.0
G2 F3000.0 X562.2641 Y583.8563 I0.0 J0.3969
G2 Y584.5437 I0.1984 J0.3437
G2 X562.8594 Y584.2 I0.1984 J-0.3437
G2 X562.4625 Y583.8031 I-0.3969 J0.0
G1 F120.0 Y583.4063
G2 F3000.0 X562.0657 Y583.5126 I0.0 J0.7938
G2 Y584.8874 I0.3969 J0.6874
G2 X563.2563 Y584.2 I0.3969 J-0.6874
G2 X562.4625 Y583.4063 I-0.7938 J0.0
G0 Z12.0
G0 Y582.6125
G0 Z0.1
G1 F120.0 Z-1.0
G2 F3000.0 X561.6688 Y582.8252 I0.0 J1.5875
G2 Y585.5748 I0.7938 J1.3748
G2 X564.05 Y584.2 I0.7938 J-1.3748
G2 X562.4625 Y582.6125 I-1.5875 J0.0
G0 Z12.0
G0 Y609.2031
G0 Z0.1
G1 F120.0 Z-1.0
G2 F3000.0 X562.2641 Y609.2563 I0.0 J0.3969
G2 Y609.9437 I0.1984 J0.3437
G2 X562.8594 Y609.6 I0.1984 J-0.3437
G2 X562.4625 Y609.2031 I-0.3969 J0.0
G1 F120.0 Y608.8063
G2 F3000.0 X562.0657 Y608.9126 I0.0 J0.7937
G2 Y610.2874 I0.3969 J0.6874
G2 X563.2563 Y609.6 I0.3969 J-0.6874
G2 X562.4625 Y608.8063 I-0.7937 J0.0
G0 Z12.0
G0 Y608.0125
G0 Z0.1
G1 F120.0 Z-1.0
G2 F3000.0 X561.6688 Y608.2252 I0.0 J1.5875
G2 Y610.9748 I0.7937 J1.3748
G2 X564.05 Y609.6 I0.7937 J-1.3748
G2 X562.4625 Y608.0125 I-1.5875 J0.0
G0 Z12.0
G0 Y634.6031
G0 Z0.1
G1 F120.0 Z-1.0
G2 F3000.0 X562.2641 Y634.6563 I0.0 J0.3969
G2 Y635.3437 I0.1984 J0.3437
G2 X562.8594 Y635.0 I0.1984 J-0.3437
G2 X562.4625 Y634.6031 I-0.3969 J0.0
G1 F120.0 Y634.2063
G2 F3000.0 X562.0657 Y634.3126 I0.0 J0.7938
G2 Y635.6874 I0.3969 J0.6874
G2 X563.2563 Y635.0 I0.3969 J-0.6874
G2 X562.4625 Y634.2063 I-0.7938 J0.0
G0 Z12.0
G0 Y633.4125
G0 Z0.1
G1 F120.0 Z-1.0
G2 F3000.0 X561.6688 Y633.6252 I0.0 J1.5875
G2 Y636.3748 I0.7938 J1.3748
G2 X564.05 Y635.0 I0.7938 J-1.3748
G2 X562.4625 Y633.4125 I-1.5875 J0.0
G0 Z12.0
G0 Y660.0031
G0 Z0.1
G1 F120.0 Z-1.0
G2 F3000.0 X562.2641 Y660.0563 I0.0 J0.3969
G2 Y660.7437 I0.1984 J0.3437
G2 X562.8594 Y660.4 I0.1984 J-0.3437
G2 X562.4625 Y660.0031 I-0.3969 J0.0
G1 F120.0 Y659.6063
G2 F3000.0 X562.0657 Y659.7126 I0.0 J0.7938
G2 Y661.0874 I0.3969 J0.6874
G2 X563.2563 Y660.4 I0.3969 J-0.6874
G2 X562.4625 Y659.6063 I-0.7938 J0.0
G0 Z12.0
G0 Y658.8125
G0 Z0.1
G1 F120.0 Z-1.0
G2 F3000.0 X561.6688 Y659.0252 I0.0 J1.5875
G2 Y661.7748 I0.7938 J1.3748
G2 X564.05 Y660.4 I0.7938 J-1.3748
G2 X562.4625 Y658.8125 I-1.5875 J0.0
G0 Z12.0
G0 Y685.4031
G0 Z0.1
G1 F120.0 Z-1.0
G2 F3000.0 X562.2641 Y685.4563 I0.0 J0.3969
G2 Y686.1437 I0.1984 J0.3437
G2 X562.8594 Y685.8 I0.1984 J-0.3437
G2 X562.4625 Y685.4031 I-0.3969 J0.0
G1 F120.0 Y685.0063
G2 F3000.0 X562.0657 Y685.1126 I0.0 J0.7938
G2 Y686.4874 I0.3969 J0.6874
G2 X563.2563 Y685.8 I0.3969 J-0.6874
G2 X562.4625 Y685.0063 I-0.7938 J0.0
G0 Z12.0
G0 Y684.2125
G0 Z0.1
G1 F120.0 Z-1.0
G2 F3000.0 X561.6688 Y684.4252 I0.0 J1.5875
G2 Y687.1748 I0.7938 J1.3748
G2 X564.05 Y685.8 I0.7938 J-1.3748
G2 X562.4625 Y684.2125 I-1.5875 J0.0
G0 Z12.0
G0 Y710.8031
G0 Z0.1
G1 F120.0 Z-1.0
G2 F3000.0 X562.2641 Y710.8563 I0.0 J0.3969
G2 Y711.5437 I0.1984 J0.3437
G2 X562.8594 Y711.2 I0.1984 J-0.3437
G2 X562.4625 Y710.8031 I-0.3969 J0.0
G1 F120.0 Y710.4063
G2 F3000.0 X562.0657 Y710.5126 I0.0 J0.7938
G2 Y711.8874 I0.3969 J0.6874
G2 X563.2563 Y711.2 I0.3969 J-0.6874
G2 X562.4625 Y710.4063 I-0.7938 J0.0
G0 Z12.0
G0 Y709.6125
G0 Z0.1
G1 F120.0 Z-1.0
G2 F3000.0 X561.6688 Y709.8252 I0.0 J1.5875
G2 Y712.5748 I0.7938 J1.3748
G2 X564.05 Y711.2 I0.7938 J-1.3748
G2 X562.4625 Y709.6125 I-1.5875 J0.0
G0 Z12.0
G0 Y736.2031
G0 Z0.1
G1 F120.0 Z-1.0
G2 F3000.0 X562.2641 Y736.2563 I0.0 J0.3969
G2 Y736.9437 I0.1984 J0.3437
G2 X562.8594 Y736.6 I0.1984 J-0.3437
G2 X562.4625 Y736.2031 I-0.3969 J0.0
G1 F120.0 Y735.8063
G2 F3000.0 X562.0657 Y735.9126 I0.0 J0.7937
G2 Y737.2874 I0.3969 J0.6874
G2 X563.2563 Y736.6 I0.3969 J-0.6874
G2 X562.4625 Y735.8063 I-0.7937 J0.0
G0 Z12.0
G0 Y735.0125
G0 Z0.1
G1 F120.0 Z-1.0
G2 F3000.0 X561.6688 Y735.2252 I0.0 J1.5875
G2 Y737.9748 I0.7937 J1.3748
G2 X564.05 Y736.6 I0.7937 J-1.3748
G2 X562.4625 Y735.0125 I-1.5875 J0.0
G0 Z12.0
G0 Y761.6031
G0 Z0.1
G1 F120.0 Z-1.0
G2 F3000.0 X562.2641 Y761.6563 I0.0 J0.3969
G2 Y762.3437 I0.1984 J0.3437
G2 X562.8594 Y762.0 I0.1984 J-0.3437
G2 X562.4625 Y761.6031 I-0.3969 J0.0
G1 F120.0 Y761.2063
G2 F3000.0 X562.0657 Y761.3126 I0.0 J0.7938
G2 Y762.6874 I0.3969 J0.6874
G2 X563.2563 Y762.0 I0.3969 J-0.6874
G2 X562.4625 Y761.2063 I-0.7938 J0.0
G0 Z12.0
G0 Y760.4125
G0 Z0.1
G1 F120.0 Z-1.0
G2 F3000.0 X561.6688 Y760.6252 I0.0 J1.5875
G2 Y763.3748 I0.7938 J1.3748
G2 X564.05 Y762.0 I0.7938 J-1.3748
G2 X562.4625 Y760.4125 I-1.5875 J0.0
G0 Z12.0
G0 Y787.0031
G0 Z0.1
G1 F120.0 Z-1.0
G2 F3000.0 X562.2641 Y787.0563 I0.0 J0.3969
G2 Y787.7437 I0.1984 J0.3437
G2 X562.8594 Y787.4 I0.1984 J-0.3437
G2 X562.4625 Y787.0031 I-0.3969 J0.0
G1 F120.0 Y786.6063
G2 F3000.0 X562.0657 Y786.7126 I0.0 J0.7937
G2 Y788.0874 I0.3969 J0.6874
G2 X563.2563 Y787.4 I0.3969 J-0.6874
G2 X562.4625 Y786.6063 I-0.7937 J0.0
G0 Z12.0
G0 Y785.8125
G0 Z0.1
G1 F120.0 Z-1.0
G2 F3000.0 X561.6688 Y786.0252 I0.0 J1.5875
G2 Y788.7748 I0.7937 J1.3748
G2 X564.05 Y787.4 I0.7937 J-1.3748
G2 X562.4625 Y785.8125 I-1.5875 J0.0
G0 Z12.0
G0 Y812.4031
G0 Z0.1
G1 F120.0 Z-1.0
G2 F3000.0 X562.2641 Y812.4563 I0.0 J0.3969
G2 Y813.1437 I0.1984 J0.3437
G2 X562.8594 Y812.8 I0.1984 J-0.3437
G2 X562.4625 Y812.4031 I-0.3969 J0.0
G1 F120.0 Y812.0063
G2 F3000.0 X562.0657 Y812.1126 I0.0 J0.7938
G2 Y813.4874 I0.3969 J0.6874
G2 X563.2563 Y812.8 I0.3969 J-0.6874
G2 X562.4625 Y812.0063 I-0.7938 J0.0
G0 Z12.0
G0 Y811.2125
G0 Z0.1
G1 F120.0 Z-1.0
G2 F3000.0 X561.6688 Y811.4252 I0.0 J1.5875
G2 Y814.1748 I0.7938 J1.3748
G2 X564.05 Y812.8 I0.7938 J-1.3748
G2 X562.4625 Y811.2125 I-1.5875 J0.0
G0 Z12.0
G0 X653.6094 Y812.7931
G0 Z0.1
G1 F120.0 Z-1.0
G2 F3000.0 X653.8078 Y813.1437 I0.3968 J0.0069
G2 X654.4031 Y812.8 I0.1984 J-0.3437
G2 X653.8078 Y812.4563 I-0.3969 J0.0
G2 X653.6094 Y812.7931 I0.1984 J0.3437
G1 F120.0 X653.2126 Y812.7862
G2 F3000.0 X653.6093 Y813.4874 I0.7936 J0.0138
G2 X654.8 Y812.8 I0.3969 J-0.6874
G2 X653.6093 Y812.1126 I-0.7938 J0.0
G2 X653.2126 Y812.7862 I0.3969 J0.6874
G0 Z12.0
G0 X652.4189 Y812.7725
G0 Z0.1
G1 F120.0 Z-1.0
G2 F3000.0 X653.2125 Y814.1748 I1.5873 J0.0275
G2 X655.5937 Y812.8 I0.7938 J-1.3748
G2 X653.2125 Y811.4252 I-1.5875 J0.0
G2 X652.4189 Y812.7725 I0.7938 J1.3748
G0 Z12.0
G0 X653.9814 Y787.7961
G0 Z0.1
G1 F120.0 Z-1.0
G2 F3000.0 X654.4031 Y787.4 I0.0248 J-0.3961
G2 X653.8078 Y787.0563 I-0.3969 J0.0
G2 Y787.7437 I0.1984 J0.3437
G2 X653.9814 Y787.7961 I0.1984 J-0.3437
G1 F120.0 X653.9566 Y788.1922
G2 F3000.0 X654.8 Y787.4 I0.0496 J-0.7922
G2 X653.6093 Y786.7126 I-0.7937 J0.0
G2 Y788.0874 I0.3969 J0.6874
G2 X653.9566 Y788.1922 I0.3969 J-0.6874
G1 F120.0 X653.9071 Y788.9844
G2 F3000.0 X655.5937 Y787.4 I0.0991 J-1.5844
G2 X653.2125 Y786.0252 I-1.5875 J0.0
G2 Y788.7748 I0.7937 J1.3748
G2 X653.9071 Y788.9844 I0.7937 J-1.3748
G0 Z12.0
G0 X654.0047 Y762.3969
G0 Z0.1
G1 F120.0 Z-1.0
G2 F3000.0 X654.4031 Y762.0 I0.0015 J-0.3969
G2 X653.8078 Y761.6563 I-0.3969 J0.0
G2 Y762.3437 I0.1984 J0.3437
G2 X654.0047 Y762.3969 I0.1984 J-0.3437
G1 F120.0 X654.0033 Y762.7937
G2 F3000.0 X654.8 Y762.0 I0.0029 J-0.7937
G2 X653.6093 Y761.3126 I-0.7938 J0.0
G2 Y762.6874 I0.3969 J0.6874
G2 X654.0033 Y762.7937 I0.3969 J-0.6874
G0 Z12.0
G0 X654.0004 Y763.5875
G0 Z0.1
G1 F120.0 Z-1.0
G2 F3000.0 X655.5937 Y762.0 I0.0058 J-1.5875
G2 X653.2125 Y760.6252 I-1.5875 J0.0
G2 Y763.3748 I0.7938 J1.3748
G2 X654.0004 Y763.5875 I0.7938 J-1.3748
G0 Z12.0
G0 X654.0061 Y736.9969
G0 Z0.1
G1 F120.0 Z-1.0
G2 F3000.0 X654.4031 Y736.6 I0.0001 J-0.3969
G2 X653.8078 Y736.2563 I-0.3969 J0.0
G2 Y736.9437 I0.1984 J0.3437
G2 X654.0061 Y736.9969 I0.1984 J-0.3437
G1 F120.0 X654.006 Y737.3937
G2 F3000.0 X654.8 Y736.6 I0.0002 J-0.7937
G2 X653.6093 Y735.9126 I-0.7938 J0.0
G2 Y737.2874 I0.3969 J0.6874
G2 X654.006 Y737.3937 I0.3969 J-0.6874
G0 Z12.0
G0 X654.0059 Y738.1875
G0 Z0.1
G1 F120.0 Z-1.0
G2 F3000.0 X655.5937 Y736.6 I0.0003 J-1.5875
G2 X653.2125 Y735.2252 I-1.5875 J0.0
G2 Y737.9748 I0.7938 J1.3748
G2 X654.0059 Y738.1875 I0.7937 J-1.3748
G0 Z12.0
G0 X654.0062 Y711.5969
G0 Z0.1
G1 F120.0 Z-1.0
G2 F3000.0 X654.4031 Y711.2 I0.0 J-0.3969
G2 X653.8078 Y710.8563 I-0.3969 J0.0
G2 Y711.5437 I0.1984 J0.3437
G2 X654.0062 Y711.5969 I0.1984 J-0.3437
G1 F120.0 Y711.9937
G2 F3000.0 X654.8 Y711.2 I0.0 J-0.7937
G2 X653.6093 Y710.5126 I-0.7937 J0.0
G2 Y711.8874 I0.3969 J0.6874
G2 X654.0062 Y711.9937 I0.3969 J-0.6874
G0 Z12.0
G0 Y712.7875
G0 Z0.1
G1 F120.0 Z-1.0
G2 F3000.0 X655.5937 Y711.2 I0.0 J-1.5875
G2 X653.2125 Y709.8252 I-1.5875 J0.0
G2 Y712.5748 I0.7937 J1.3748
G2 X654.0062 Y712.7875 I0.7937 J-1.3748
G0 Z12.0
G0 Y686.1969
G0 Z0.1
G1 F120.0 Z-1.0
G2 F3000.0 X654.4031 Y685.8 I0.0 J-0.3969
G2 X653.8078 Y685.4563 I-0.3969 J0.0
G2 Y686.1437 I0.1984 J0.3437
G2 X654.0062 Y686.1969 I0.1984 J-0.3437
G1 F120.0 Y686.5938
G2 F3000.0 X654.8 Y685.8 I0.0 J-0.7937
G2 X653.6093 Y685.1126 I-0.7938 J0.0
G2 Y686.4874 I0.3969 J0.6874
G2 X654.0062 Y686.5938 I0.3969 J-0.6874
G1 F120.0 Y687.3875
G2 F3000.0 X655.5937 Y685.8 I0.0 J-1.5875
G2 X653.2125 Y684.4252 I-1.5875 J0.0
G2 Y687.1748 I0.7938 J1.3748
G2 X654.0062 Y687.3875 I0.7938 J-1.3748
G0 Z12.0
G0 Y660.7969
G0 Z0.1
G1 F120.0 Z-1.0
G2 F3000.0 X654.4031 Y660.4 I0.0 J-0.3969
G2 X653.8078 Y660.0563 I-0.3969 J0.0
G2 Y660.7437 I0.1984 J0.3437
G2 X654.0062 Y660.7969 I0.1984 J-0.3437
G1 F120.0 Y661.1938
G2 F3000.0 X654.8 Y660.4 I0.0 J-0.7937
G2 X653.6093 Y659.7126 I-0.7937 J0.0
G2 Y661.0874 I0.3969 J0.6874
G2 X654.0062 Y661.1938 I0.3969 J-0.6874
G1 F120.0 Y661.9875
G2 F3000.0 X655.5937 Y660.4 I0.0 J-1.5875
G2 X653.2125 Y659.0252 I-1.5875 J0.0
G2 Y661.7748 I0.7937 J1.3748
G2 X654.0062 Y661.9875 I0.7937 J-1.3748
G0 Z12.0
G0 Y635.3969
G0 Z0.1
G1 F120.0 Z-1.0
G2 F3000.0 X654.4031 Y635.0 I0.0 J-0.3969
G2 X653.8078 Y634.6563 I-0.3969 J0.0
G2 Y635.3437 I0.1984 J0.3437
G2 X654.0062 Y635.3969 I0.1984 J-0.3437
G1 F120.0 Y635.7938
G2 F3000.0 X654.8 Y635.0 I0.0 J-0.7938
G2 X653.6093 Y634.3126 I-0.7938 J0.0
G2 Y635.6874 I0.3969 J0.6874
G2 X654.0062 Y635.7938 I0.3969 J-0.6874
G1 F120.0 Y636.5875
G2 F3000.0 X655.5937 Y635.0 I0.0 J-1.5875
G2 X653.2125 Y633.6252 I-1.5875 J0.0
G2 Y636.3748 I0.7938 J1.3748
G2 X654.0062 Y636.5875 I0.7938 J-1.3748
G0 Z12.0
G0 Y609.9969
G0 Z0.1
G1 F120.0 Z-1.0
G2 F3000.0 X654.4031 Y609.6 I0.0 J-0.3969
G2 X653.8078 Y609.2563 I-0.3969 J0.0
G2 Y609.9437 I0.1984 J0.3437
G2 X654.0062 Y609.9969 I0.1984 J-0.3437
G1 F120.0 Y610.3938
G2 F3000.0 X654.8 Y609.6 I0.0 J-0.7938
G2 X653.6093 Y608.9126 I-0.7938 J0.0
G2 Y610.2874 I0.3969 J0.6874
G2 X654.0062 Y610.3938 I0.3969 J-0.6874
G1 F120.0 Y611.1875
G2 F3000.0 X655.5937 Y609.6 I0.0 J-1.5875
G2 X653.2125 Y608.2252 I-1.5875 J0.0
G2 Y610.9748 I0.7938 J1.3748
G2 X654.0062 Y611.1875 I0.7938 J-1.3748
G0 Z12.0
G0 Y584.5969
G0 Z0.1
G1 F120.0 Z-1.0
G2 F3000.0 X654.4031 Y584.2 I0.0 J-0.3969
G2 X653.8078 Y583.8563 I-0.3969 J0.0
G2 Y584.5437 I0.1984 J0.3437
G2 X654.0062 Y584.5969 I0.1984 J-0.3437
G1 F120.0 Y584.9938
G2 F3000.0 X654.8 Y584.2 I0.0 J-0.7937
G2 X653.6093 Y583.5126 I-0.7937 J0.0
G2 Y584.8874 I0.3969 J0.6874
G2 X654.0062 Y584.9938 I0.3969 J-0.6874
G1 F120.0 Y585.7875
G2 F3000.0 X655.5937 Y584.2 I0.0 J-1.5875
G2 X653.2125 Y582.8252 I-1.5875 J0.0
G2 Y585.5748 I0.7937 J1.3748
G2 X654.0062 Y585.7875 I0.7937 J-1.3748
G0 Z12.0
G0 Y559.1969
G0 Z0.1
G1 F120.0 Z-1.0
G2 F3000.0 X654.4031 Y558.8 I0.0 J-0.3969
G2 X653.8078 Y558.4563 I-0.3969 J0.0
G2 Y559.1437 I0.1984 J0.3437
G2 X654.0062 Y559.1969 I0.1984 J-0.3437
G1 F120.0 Y559.5938
G2 F3000.0 X654.8 Y558.8 I0.0 J-0.7938
G2 X653.6093 Y558.1126 I-0.7938 J0.0
G2 Y559.4874 I0.3969 J0.6874
G2 X654.0062 Y559.5938 I0.3969 J-0.6874
G1 F120.0 Y560.3875
G2 F3000.0 X655.5937 Y558.8 I0.0 J-1.5875
G2 X653.2125 Y557.4252 I-1.5875 J0.0
G2 Y560.1748 I0.7938 J1.3748
G2 X654.0062 Y560.3875 I0.7938 J-1.3748
G0 Z12.0
G0 Y533.7969
G0 Z0.1
G1 F120.0 Z-1.0
G2 F3000.0 X654.4031 Y533.4 I0.0 J-0.3969
G2 X653.8078 Y533.0563 I-0.3969 J0.0
G2 Y533.7437 I0.1984 J0.3437
G2 X654.0062 Y533.7969 I0.1984 J-0.3437
G1 F120.0 Y534.1938
G2 F3000.0 X654.8 Y533.4 I0.0 J-0.7937
G2 X653.6093 Y532.7126 I-0.7937 J0.0
G2 Y534.0874 I0.3969 J0.6874
G2 X654.0062 Y534.1938 I0.3969 J-0.6874
G1 F120.0 Y534.9875
G2 F3000.0 X655.5937 Y533.4 I0.0 J-1.5875
G2 X653.2125 Y532.0252 I-1.5875 J0.0
G2 Y534.7748 I0.7937 J1.3748
G2 X654.0062 Y534.9875 I0.7937 J-1.3748
G0 Z12.0
G0 Y508.3969
G0 Z0.1
G1 F120.0 Z-1.0
G2 F3000.0 X654.4031 Y508.0 I0.0 J-0.3969
G2 X653.8078 Y507.6563 I-0.3969 J0.0
G2 Y508.3437 I0.1984 J0.3437
G2 X654.0062 Y508.3969 I0.1984 J-0.3437
G1 F120.0 Y508.7938
G2 F3000.0 X654.8 Y508.0 I0.0 J-0.7938
G2 X653.6093 Y507.3126 I-0.7938 J0.0
G2 Y508.6874 I0.3969 J0.6874
G2 X654.0062 Y508.7938 I0.3969 J-0.6874
G1 F120.0 Y509.5875
G2 F3000.0 X655.5937 Y508.0 I0.0 J-1.5875
G2 X653.2125 Y506.6252 I-1.5875 J0.0
G2 Y509.3748 I0.7938 J1.3748
G2 X654.0062 Y509.5875 I0.7938 J-1.3748
G0 Z12.0
G0 Y482.9969
G0 Z0.1
G1 F120.0 Z-1.0
G2 F3000.0 X654.4031 Y482.6 I0.0 J-0.3969
G2 X653.8078 Y482.2563 I-0.3969 J0.0
G2 Y482.9437 I0.1984 J0.3437
G2 X654.0062 Y482.9969 I0.1984 J-0.3437
G1 F120.0 Y483.3938
G2 F3000.0 X654.8 Y482.6 I0.0 J-0.7938
G2 X653.6093 Y481.9126 I-0.7938 J0.0
G2 Y483.2874 I0.3969 J0.6874
G2 X654.0062 Y483.3938 I0.3969 J-0.6874
G1 F120.0 Y484.1875
G2 F3000.0 X655.5937 Y482.6 I0.0 J-1.5875
G2 X653.2125 Y481.2252 I-1.5875 J0.0
G2 Y483.9748 I0.7938 J1.3748
G2 X654.0062 Y484.1875 I0.7938 J-1.3748
G0 Z12.0
G0 Y432.1969
G0 Z0.1
G1 F120.0 Z-1.0
G2 F3000.0 X654.4031 Y431.8 I0.0 J-0.3969
G2 X653.8078 Y431.4563 I-0.3969 J0.0
G2 Y432.1437 I0.1984 J0.3437
G2 X654.0062 Y432.1969 I0.1984 J-0.3437
G1 F120.0 Y432.5938
G2 F3000.0 X654.8 Y431.8 I0.0 J-0.7938
G2 X653.6093 Y431.1126 I-0.7938 J0.0
G2 Y432.4874 I0.3969 J0.6874
G2 X654.0062 Y432.5938 I0.3969 J-0.6874
G1 F120.0 Y433.3875
G2 F3000.0 X655.5937 Y431.8 I0.0 J-1.5875
G2 X653.2125 Y430.4252 I-1.5875 J0.0
G2 Y433.1748 I0.7938 J1.3748
G2 X654.0062 Y433.3875 I0.7938 J-1.3748
G0 Z12.0
G0 Y406.7969
G0 Z0.1
G1 F120.0 Z-1.0
G2 F3000.0 X654.4031 Y406.4 I0.0 J-0.3969
G2 X653.8078 Y406.0563 I-0.3969 J0.0
G2 Y406.7437 I0.1984 J0.3437
G2 X654.0062 Y406.7969 I0.1984 J-0.3437
G1 F120.0 Y407.1938
G2 F3000.0 X654.8 Y406.4 I0.0 J-0.7937
G2 X653.6093 Y405.7126 I-0.7937 J0.0
G2 Y407.0874 I0.3969 J0.6874
G2 X654.0062 Y407.1938 I0.3969 J-0.6874
G1 F120.0 Y407.9875
G2 F3000.0 X655.5937 Y406.4 I0.0 J-1.5875
G2 X653.2125 Y405.0252 I-1.5875 J0.0
G2 Y407.7748 I0.7937 J1.3748
G2 X654.0062 Y407.9875 I0.7937 J-1.3748
G0 Z12.0
G0 Y381.3969
G0 Z0.1
G1 F120.0 Z-1.0
G2 F3000.0 X654.4031 Y381.0 I0.0 J-0.3969
G2 X653.8078 Y380.6563 I-0.3969 J0.0
G2 Y381.3437 I0.1984 J0.3437
G2 X654.0062 Y381.3969 I0.1984 J-0.3437
G1 F120.0 Y381.7938
G2 F3000.0 X654.8 Y381.0 I0.0 J-0.7938
G2 X653.6093 Y380.3126 I-0.7938 J0.0
G2 Y381.6874 I0.3969 J0.6874
G2 X654.0062 Y381.7938 I0.3969 J-0.6874
G1 F120.0 Y382.5875
G2 F3000.0 X655.5937 Y381.0 I0.0 J-1.5875
G2 X653.2125 Y379.6252 I-1.5875 J0.0
G2 Y382.3748 I0.7938 J1.3748
G2 X654.0062 Y382.5875 I0.7938 J-1.3748
G0 Z12.0
G0 Y355.9969
G0 Z0.1
G1 F120.0 Z-1.0
G2 F3000.0 X654.4031 Y355.6 I0.0 J-0.3969
G2 X653.8078 Y355.2563 I-0.3969 J0.0
G2 Y355.9437 I0.1984 J0.3437
G2 X654.0062 Y355.9969 I0.1984 J-0.3437
G1 F120.0 Y356.3938
G2 F3000.0 X654.8 Y355.6 I0.0 J-0.7937
G2 X653.6093 Y354.9126 I-0.7937 J0.0
G2 Y356.2874 I0.3969 J0.6874
G2 X654.0062 Y356.3938 I0.3969 J-0.6874
G1 F120.0 Y357.1875
G2 F3000.0 X655.5937 Y355.6 I0.0 J-1.5875
G2 X653.2125 Y354.2252 I-1.5875 J0.0
G2 Y356.9748 I0.7937 J1.3748
G2 X654.0062 Y357.1875 I0.7937 J-1.3748
G0 Z12.0
G0 Y330.5969
G0 Z0.1
G1 F120.0 Z-1.0
G2 F3000.0 X654.4031 Y330.2 I0.0 J-0.3969
G2 X653.8078 Y329.8563 I-0.3969 J0.0
G2 Y330.5437 I0.1984 J0.3437
G2 X654.0062 Y330.5969 I0.1984 J-0.3437
G1 F120.0 Y330.9938
G2 F3000.0 X654.8 Y330.2 I0.0 J-0.7938
G2 X653.6093 Y329.5126 I-0.7938 J0.0
G2 Y330.8874 I0.3969 J0.6874
G2 X654.0062 Y330.9938 I0.3969 J-0.6874
G1 F120.0 Y331.7875
G2 F3000.0 X655.5937 Y330.2 I0.0 J-1.5875
G2 X653.2125 Y328.8252 I-1.5875 J0.0
G2 Y331.5748 I0.7938 J1.3748
G2 X654.0062 Y331.7875 I0.7938 J-1.3748
G0 Z12.0
G0 Y305.1969
G0 Z0.1
G1 F120.0 Z-1.0
G2 F3000.0 X654.4031 Y304.8 I0.0 J-0.3969
G2 X653.8078 Y304.4563 I-0.3969 J0.0
G2 Y305.1437 I0.1984 J0.3437
G2 X654.0062 Y305.1969 I0.1984 J-0.3437
G1 F120.0 Y305.5938
G2 F3000.0 X654.8 Y304.8 I0.0 J-0.7938
G2 X653.6093 Y304.1126 I-0.7938 J0.0
G2 Y305.4874 I0.3969 J0.6874
G2 X654.0062 Y305.5938 I0.3969 J-0.6874
G1 F120.0 Y306.3875
G2 F3000.0 X655.5937 Y304.8 I0.0 J-1.5875
G2 X653.2125 Y303.4252 I-1.5875 J0.0
G2 Y306.1748 I0.7938 J1.3748
G2 X654.0062 Y306.3875 I0.7938 J-1.3748
G0 Z12.0
G0 Y279.7969
G0 Z0.1
G1 F120.0 Z-1.0
G2 F3000.0 X654.4031 Y279.4 I0.0 J-0.3969
G2 X653.8078 Y279.0563 I-0.3969 J0.0
G2 Y279.7437 I0.1984 J0.3437
G2 X654.0062 Y279.7969 I0.1984 J-0.3437
G1 F120.0 Y280.1938
G2 F3000.0 X654.8 Y279.4 I0.0 J-0.7937
G2 X653.6093 Y278.7126 I-0.7937 J0.0
G2 Y280.0874 I0.3969 J0.6874
G2 X654.0062 Y280.1938 I0.3969 J-0.6874
G1 F120.0 Y280.9875
G2 F3000.0 X655.5937 Y279.4 I0.0 J-1.5875
G2 X653.2125 Y278.0252 I-1.5875 J0.0
G2 Y280.7748 I0.7937 J1.3748
G2 X654.0062 Y280.9875 I0.7937 J-1.3748
G0 Z12.0
G0 Y254.3969
G0 Z0.1
G1 F120.0 Z-1.0
G2 F3000.0 X654.4031 Y254.0 I0.0 J-0.3969
G2 X653.8078 Y253.6563 I-0.3969 J0.0
G2 Y254.3437 I0.1984 J0.3437
G2 X654.0062 Y254.3969 I0.1984 J-0.3437
G1 F120.0 Y254.7938
G2 F3000.0 X654.8 Y254.0 I0.0 J-0.7938
G2 X653.6093 Y253.3126 I-0.7938 J0.0
G2 Y254.6874 I0.3969 J0.6874
G2 X654.0062 Y254.7938 I0.3969 J-0.6874
G1 F120.0 Y255.5875
G2 F3000.0 X655.5937 Y254.0 I0.0 J-1.5875
G2 X653.2125 Y252.6252 I-1.5875 J0.0
G2 Y255.3748 I0.7938 J1.3748
G2 X654.0062 Y255.5875 I0.7938 J-1.3748
G0 Z12.0
G0 Y228.9969
G0 Z0.1
G1 F120.0 Z-1.0
G2 F3000.0 X654.4031 Y228.6 I0.0 J-0.3969
G2 X653.8078 Y228.2563 I-0.3969 J0.0
G2 Y228.9437 I0.1984 J0.3437
G2 X654.0062 Y228.9969 I0.1984 J-0.3437
G1 F120.0 Y229.3938
G2 F3000.0 X654.8 Y228.6 I0.0 J-0.7937
G2 X653.6093 Y227.9126 I-0.7937 J0.0
G2 Y229.2874 I0.3969 J0.6874
G2 X654.0062 Y229.3938 I0.3969 J-0.6874
G1 F120.0 Y230.1875
G2 F3000.0 X655.5937 Y228.6 I0.0 J-1.5875
G2 X653.2125 Y227.2252 I-1.5875 J0.0
G2 Y229.9748 I0.7937 J1.3748
G2 X654.0062 Y230.1875 I0.7937 J-1.3748
G0 Z12.0
G0 Y203.5969
G0 Z0.1
G1 F120.0 Z-1.0
G2 F3000.0 X654.4031 Y203.2 I0.0 J-0.3969
G2 X653.8078 Y202.8563 I-0.3969 J0.0
G2 Y203.5437 I0.1984 J0.3437
G2 X654.0062 Y203.5969 I0.1984 J-0.3437
G1 F120.0 Y203.9938
G2 F3000.0 X654.8 Y203.2 I0.0 J-0.7938
G2 X653.6093 Y202.5126 I-0.7938 J0.0
G2 Y203.8874 I0.3969 J0.6874
G2 X654.0062 Y203.9938 I0.3969 J-0.6874
G1 F120.0 Y204.7875
G2 F3000.0 X655.5937 Y203.2 I0.0 J-1.5875
G2 X653.2125 Y201.8252 I-1.5875 J0.0
G2 Y204.5748 I0.7938 J1.3748
G2 X654.0062 Y204.7875 I0.7938 J-1.3748
G0 Z12.0
G0 Y178.1969
G0 Z0.1
G1 F120.0 Z-1.0
G2 F3000.0 X654.4031 Y177.8 I0.0 J-0.3969
G2 X653.8078 Y177.4563 I-0.3969 J0.0
G2 Y178.1437 I0.1984 J0.3437
G2 X654.0062 Y178.1969 I0.1984 J-0.3437
G1 F120.0 Y178.5938
G2 F3000.0 X654.8 Y177.8 I0.0 J-0.7937
G2 X653.6093 Y177.1126 I-0.7937 J0.0
G2 Y178.4874 I0.3969 J0.6874
G2 X654.0062 Y178.5938 I0.3969 J-0.6874
G1 F120.0 Y179.3875
G2 F3000.0 X655.5937 Y177.8 I0.0 J-1.5875
G2 X653.2125 Y176.4252 I-1.5875 J0.0
G2 Y179.1748 I0.7937 J1.3748
G2 X654.0062 Y179.3875 I0.7937 J-1.3748
G0 Z12.0
G0 Y152.7969
G0 Z0.1
G1 F120.0 Z-1.0
G2 F3000.0 X654.4031 Y152.4 I0.0 J-0.3969
G2 X653.8078 Y152.0563 I-0.3969 J0.0
G2 Y152.7437 I0.1984 J0.3437
G2 X654.0062 Y152.7969 I0.1984 J-0.3437
G1 F120.0 Y153.1938
G2 F3000.0 X654.8 Y152.4 I0.0 J-0.7938
G2 X653.6093 Y151.7126 I-0.7938 J0.0
G2 Y153.0874 I0.3969 J0.6874
G2 X654.0062 Y153.1938 I0.3969 J-0.6874
G1 F120.0 Y153.9875
G2 F3000.0 X655.5937 Y152.4 I0.0 J-1.5875
G2 X653.2125 Y151.0252 I-1.5875 J0.0
G2 Y153.7748 I0.7938 J1.3748
G2 X654.0062 Y153.9875 I0.7938 J-1.3748
G0 Z12.0
G0 Y127.3969
G0 Z0.1
G1 F120.0 Z-1.0
G2 F3000.0 X654.4031 Y127.0 I0.0 J-0.3969
G2 X653.8078 Y126.6563 I-0.3969 J0.0
G2 Y127.3437 I0.1984 J0.3437
G2 X654.0062 Y127.3969 I0.1984 J-0.3437
G1 F120.0 Y127.7938
G2 F3000.0 X654.8 Y127.0 I0.0 J-0.7938
G2 X653.6093 Y126.3126 I-0.7938 J0.0
G2 Y127.6874 I0.3969 J0.6874
G2 X654.0062 Y127.7938 I0.3969 J-0.6874
G1 F120.0 Y128.5875
G2 F3000.0 X655.5937 Y127.0 I0.0 J-1.5875
G2 X653.2125 Y125.6252 I-1.5875 J0.0
G2 Y128.3748 I0.7938 J1.3748
G2 X654.0062 Y128.5875 I0.7938 J-1.3748
G0 Z12.0
G0 Y101.9969
G0 Z0.1
G1 F120.0 Z-1.0
G2 F3000.0 X654.4031 Y101.6 I0.0 J-0.3969
G2 X653.8078 Y101.2563 I-0.3969 J0.0
G2 Y101.9437 I0.1984 J0.3437
G2 X654.0062 Y101.9969 I0.1984 J-0.3437
G1 F120.0 Y102.3938
G2 F3000.0 X654.8 Y101.6 I0.0 J-0.7937
G2 X653.6093 Y100.9126 I-0.7937 J0.0
G2 Y102.2874 I0.3969 J0.6874
G2 X654.0062 Y102.3938 I0.3969 J-0.6874
G1 F120.0 Y103.1875
G2 F3000.0 X655.5937 Y101.6 I0.0 J-1.5875
G2 X653.2125 Y100.2252 I-1.5875 J0.0
G2 Y102.9748 I0.7937 J1.3748
G2 X654.0062 Y103.1875 I0.7937 J-1.3748
G0 Z12.0
G0 X844.9031 Y101.6033
G0 Z0.1
G1 F120.0 Z-1.0
G2 F3000.0 X845.1015 Y101.9437 I0.3969 J-0.0033
G2 X845.6968 Y101.6 I0.1984 J-0.3437
G2 X845.1015 Y101.2563 I-0.3969 J0.0
G2 X844.9031 Y101.6033 I0.1984 J0.3437
G1 F120.0 X844.5062 Y101.6066
G2 F3000.0 X844.9031 Y102.2874 I0.7937 J-0.0066
G2 X846.0937 Y101.6 I0.3969 J-0.6874
G2 X844.9031 Y100.9126 I-0.7938 J0.0
G2 X844.5062 Y101.6066 I0.3969 J0.6874
G1 F120.0 X843.7125 Y101.6132
G2 F3000.0 X844.5062 Y102.9748 I1.5874 J-0.0132
G2 X846.8875 Y101.6 I0.7938 J-1.3748
G2 X844.5062 Y100.2252 I-1.5875 J0.0
G2 X843.7125 Y101.6132 I0.7938 J1.3748
G0 Z12.0
G0 X845.2752 Y126.6039
G0 Z0.1
G1 F120.0 Z-1.0
G2 F3000.0 X845.1015 Y126.6563 I0.0248 J0.3961
G2 Y127.3437 I0.1984 J0.3437
G2 X845.6968 Y127.0 I0.1984 J-0.3437
G2 X845.2752 Y126.6039 I-0.3969 J0.0
G1 F120.0 X845.2504 Y126.2078
G2 F3000.0 X844.9031 Y126.3126 I0.0495 J0.7922
G2 Y127.6874 I0.3969 J0.6874
G2 X846.0937 Y127.0 I0.3969 J-0.6874
G2 X845.2504 Y126.2078 I-0.7938 J0.0
G0 Z12.0
G0 X845.2009 Y125.4156
G0 Z0.1
G1 F120.0 Z-1.0
G2 F3000.0 X844.5062 Y125.6252 I0.0991 J1.5844
G2 Y128.3748 I0.7938 J1.3748
G2 X846.8875 Y127.0 I0.7938 J-1.3748
G2 X845.2009 Y125.4156 I-1.5875 J0.0
G0 Z12.0
G0 X845.2985 Y152.0031
G0 Z0.1
G1 F120.0 Z-1.0
G2 F3000.0 X845.1015 Y152.0563 I0.0015 J0.3969
G2 Y152.7437 I0.1984 J0.3437
G2 X845.6968 Y152.4 I0.1984 J-0.3437
G2 X845.2985 Y152.0031 I-0.3969 J0.0
G1 F120.0 X845.297 Y151.6063
G2 F3000.0 X844.9031 Y151.7126 I0.0029 J0.7937
G2 Y153.0874 I0.3969 J0.6874
G2 X846.0937 Y152.4 I0.3969 J-0.6874
G2 X845.297 Y151.6063 I-0.7938 J0.0
G0 Z12.0
G0 X845.2941 Y150.8125
G0 Z0.1
G1 F120.0 Z-1.0
G2 F3000.0 X844.5062 Y151.0252 I0.0058 J1.5875
G2 Y153.7748 I0.7938 J1.3748
G2 X846.8875 Y152.4 I0.7938 J-1.3748
G2 X845.2941 Y150.8125 I-1.5875 J0.0
G0 Z12.0
G0 X845.2999 Y177.4031
G0 Z0.1
G1 F120.0 Z-1.0
G2 F3000.0 X845.1015 Y177.4563 I0.0001 J0.3969
G2 Y178.1437 I0.1984 J0.3437
G2 X845.6968 Y177.8 I0.1984 J-0.3437
G2 X845.2999 Y177.4031 I-0.3969 J0.0
G1 F120.0 X845.2998 Y177.0063
G2 F3000.0 X844.9031 Y177.1126 I0.0002 J0.7937
G2 Y178.4874 I0.3969 J0.6874
G2 X846.0937 Y177.8 I0.3969 J-0.6874
G2 X845.2998 Y177.0063 I-0.7937 J0.0
G0 Z12.0
G0 X845.2996 Y176.2125
G0 Z0.1
G1 F120.0 Z-1.0
G2 F3000.0 X844.5062 Y176.4252 I0.0003 J1.5875
G2 Y179.1748 I0.7937 J1.3748
G2 X846.8875 Y177.8 I0.7937 J-1.3748
G2 X845.2996 Y176.2125 I-1.5875 J0.0
G0 Z12.0
G0 X845.3 Y202.8031
G0 Z0.1
G1 F120.0 Z-1.0
G2 F3000.0 X845.1015 Y202.8563 I0.0 J0.3969
G2 Y203.5437 I0.1984 J0.3437
G2 X845.6968 Y203.2 I0.1984 J-0.3437
G2 X845.3 Y202.8031 I-0.3969 J0.0
G1 F120.0 X845.2999 Y202.4063
G2 F3000.0 X844.9031 Y202.5126 I0.0 J0.7937
G2 Y203.8874 I0.3969 J0.6874
G2 X846.0937 Y203.2 I0.3969 J-0.6874
G2 X845.2999 Y202.4063 I-0.7938 J0.0
G0 Z12.0
G0 Y201.6125
G0 Z0.1
G1 F120.0 Z-1.0
G2 F3000.0 X844.5062 Y201.8252 I0.0 J1.5875
G2 Y204.5748 I0.7938 J1.3748
G2 X846.8875 Y203.2 I0.7938 J-1.3748
G2 X845.2999 Y201.6125 I-1.5875 J0.0
G0 Z12.0
G0 X845.3 Y228.2031
G0 Z0.1
G1 F120.0 Z-1.0
G2 F3000.0 X845.1015 Y228.2563 I0.0 J0.3969
G2 Y228.9437 I0.1984 J0.3437
G2 X845.6968 Y228.6 I0.1984 J-0.3437
G2 X845.3 Y228.2031 I-0.3969 J0.0
G1 F120.0 Y227.8063
G2 F3000.0 X844.9031 Y227.9126 I0.0 J0.7937
G2 Y229.2874 I0.3969 J0.6874
G2 X846.0937 Y228.6 I0.3969 J-0.6874
G2 X845.3 Y227.8063 I-0.7937 J0.0
G0 Z12.0
G0 Y227.0125
G0 Z0.1
G1 F120.0 Z-1.0
G2 F3000.0 X844.5062 Y227.2252 I0.0 J1.5875
G2 Y229.9748 I0.7937 J1.3748
G2 X846.8875 Y228.6 I0.7937 J-1.3748
G2 X845.3 Y227.0125 I-1.5875 J0.0
G0 Z12.0
G0 Y253.6031
G0 Z0.1
G1 F120.0 Z-1.0
G2 F3000.0 X845.1015 Y253.6563 I0.0 J0.3969
G2 Y254.3437 I0.1984 J0.3437
G2 X845.6968 Y254.0 I0.1984 J-0.3437
G2 X845.3 Y253.6031 I-0.3969 J0.0
G1 F120.0 Y253.2063
G2 F3000.0 X844.9031 Y253.3126 I0.0 J0.7938
G2 Y254.6874 I0.3969 J0.6874
G2 X846.0937 Y254.0 I0.3969 J-0.6874
G2 X845.3 Y253.2063 I-0.7938 J0.0
G0 Z12.0
G0 Y252.4125
G0 Z0.1
G1 F120.0 Z-1.0
G2 F3000.0 X844.5062 Y252.6252 I0.0 J1.5875
G2 Y255.3748 I0.7938 J1.3748
G2 X846.8875 Y254.0 I0.7938 J-1.3748
G2 X845.3 Y252.4125 I-1.5875 J0.0
G0 Z12.0
G0 Y279.0031
G0 Z0.1
G1 F120.0 Z-1.0
G2 F3000.0 X845.1015 Y279.0563 I0.0 J0.3969
G2 Y279.7437 I0.1984 J0.3437
G2 X845.6968 Y279.4 I0.1984 J-0.3437
G2 X845.3 Y279.0031 I-0.3969 J0.0
G1 F120.0 Y278.6063
G2 F3000.0 X844.9031 Y278.7126 I0.0 J0.7938
G2 Y280.0874 I0.3969 J0.6874
G2 X846.0937 Y279.4 I0.3969 J-0.6874
G2 X845.3 Y278.6063 I-0.7938 J0.0
G0 Z12.0
G0 Y277.8125
G0 Z0.1
G1 F120.0 Z-1.0
G2 F3000.0 X844.5062 Y278.0252 I0.0 J1.5875
G2 Y280.7748 I0.7938 J1.3748
G2 X846.8875 Y279.4 I0.7938 J-1.3748
G2 X845.3 Y277.8125 I-1.5875 J0.0
G0 Z12.0
G0 Y304.4031
G0 Z0.1
G1 F120.0 Z-1.0
G2 F3000.0 X845.1015 Y304.4563 I0.0 J0.3969
G2 Y305.1437 I0.1984 J0.3437
G2 X845.6968 Y304.8 I0.1984 J-0.3437
G2 X845.3 Y304.4031 I-0.3969 J0.0
G1 F120.0 Y304.0063
G2 F3000.0 X844.9031 Y304.1126 I0.0 J0.7937
G2 Y305.4874 I0.3969 J0.6874
G2 X846.0937 Y304.8 I0.3969 J-0.6874
G2 X845.3 Y304.0063 I-0.7937 J0.0
G0 Z12.0
G0 Y303.2125
G0 Z0.1
G1 F120.0 Z-1.0
G2 F3000.0 X844.5062 Y303.4252 I0.0 J1.5875
G2 Y306.1748 I0.7937 J1.3748
G2 X846.8875 Y304.8 I0.7937 J-1.3748
G2 X845.3 Y303.2125 I-1.5875 J0.0
G0 Z12.0
G0 Y329.8031
G0 Z0.1
G1 F120.0 Z-1.0
G2 F3000.0 X845.1015 Y329.8563 I0.0 J0.3969
G2 Y330.5437 I0.1984 J0.3437
G2 X845.6968 Y330.2 I0.1984 J-0.3437
G2 X845.3 Y329.8031 I-0.3969 J0.0
G1 F120.0 Y329.4063
G2 F3000.0 X844.9031 Y329.5126 I0.0 J0.7938
G2 Y330.8874 I0.3969 J0.6874
G2 X846.0937 Y330.2 I0.3969 J-0.6874
G2 X845.3 Y329.4063 I-0.7938 J0.0
G0 Z12.0
G0 Y328.6125
G0 Z0.1
G1 F120.0 Z-1.0
G2 F3000.0 X844.5062 Y328.8252 I0.0 J1.5875
G2 Y331.5748 I0.7938 J1.3748
G2 X846.8875 Y330.2 I0.7938 J-1.3748
G2 X845.3 Y328.6125 I-1.5875 J0.0
G0 Z12.0
G0 Y355.2031
G0 Z0.1
G1 F120.0 Z-1.0
G2 F3000.0 X845.1015 Y355.2563 I0.0 J0.3969
G2 Y355.9437 I0.1984 J0.3437
G2 X845.6968 Y355.6 I0.1984 J-0.3437
G2 X845.3 Y355.2031 I-0.3969 J0.0
G1 F120.0 Y354.8063
G2 F3000.0 X844.9031 Y354.9126 I0.0 J0.7938
G2 Y356.2874 I0.3969 J0.6874
G2 X846.0937 Y355.6 I0.3969 J-0.6874
G2 X845.3 Y354.8063 I-0.7938 J0.0
G0 Z12.0
G0 Y354.0125
G0 Z0.1
G1 F120.0 Z-1.0
G2 F3000.0 X844.5062 Y354.2252 I0.0 J1.5875
G2 Y356.9748 I0.7938 J1.3748
G2 X846.8875 Y355.6 I0.7938 J-1.3748
G2 X845.3 Y354.0125 I-1.5875 J0.0
G0 Z12.0
G0 Y380.6031
G0 Z0.1
G1 F120.0 Z-1.0
G2 F3000.0 X845.1015 Y380.6563 I0.0 J0.3969
G2 Y381.3437 I0.1984 J0.3437
G2 X845.6968 Y381.0 I0.1984 J-0.3437
G2 X845.3 Y380.6031 I-0.3969 J0.0
G1 F120.0 Y380.2063
G2 F3000.0 X844.9031 Y380.3126 I0.0 J0.7938
G2 Y381.6874 I0.3969 J0.6874
G2 X846.0937 Y381.0 I0.3969 J-0.6874
G2 X845.3 Y380.2063 I-0.7938 J0.0
G0 Z12.0
G0 Y379.4125
G0 Z0.1
G1 F120.0 Z-1.0
G2 F3000.0 X844.5062 Y379.6252 I0.0 J1.5875
G2 Y382.3748 I0.7938 J1.3748
G2 X846.8875 Y381.0 I0.7938 J-1.3748
G2 X845.3 Y379.4125 I-1.5875 J0.0
G0 Z12.0
G0 Y406.0031
G0 Z0.1
G1 F120.0 Z-1.0
G2 F3000.0 X845.1015 Y406.0563 I0.0 J0.3969
G2 Y406.7437 I0.1984 J0.3437
G2 X845.6968 Y406.4 I0.1984 J-0.3437
G2 X845.3 Y406.0031 I-0.3969 J0.0
G1 F120.0 Y405.6063
G2 F3000.0 X844.9031 Y405.7126 I0.0 J0.7938
G2 Y407.0874 I0.3969 J0.6874
G2 X846.0937 Y406.4 I0.3969 J-0.6874
G2 X845.3 Y405.6063 I-0.7938 J0.0
G0 Z12.0
G0 Y404.8125
G0 Z0.1
G1 F120.0 Z-1.0
G2 F3000.0 X844.5062 Y405.0252 I0.0 J1.5875
G2 Y407.7748 I0.7938 J1.3748
G2 X846.8875 Y406.4 I0.7938 J-1.3748
G2 X845.3 Y404.8125 I-1.5875 J0.0
G0 Z12.0
G0 Y431.4031
G0 Z0.1
G1 F120.0 Z-1.0
G2 F3000.0 X845.1015 Y431.4563 I0.0 J0.3969
G2 Y432.1437 I0.1984 J0.3437
G2 X845.6968 Y431.8 I0.1984 J-0.3437
G2 X845.3 Y431.4031 I-0.3969 J0.0
G1 F120.0 Y431.0063
G2 F3000.0 X844.9031 Y431.1126 I0.0 J0.7937
G2 Y432.4874 I0.3969 J0.6874
G2 X846.0937 Y431.8 I0.3969 J-0.6874
G2 X845.3 Y431.0063 I-0.7937 J0.0
G0 Z12.0
G0 Y430.2125
G0 Z0.1
G1 F120.0 Z-1.0
G2 F3000.0 X844.5062 Y430.4252 I0.0 J1.5875
G2 Y433.1748 I0.7937 J1.3748
G2 X846.8875 Y431.8 I0.7937 J-1.3748
G2 X845.3 Y430.2125 I-1.5875 J0.0
G0 Z12.0
G0 Y482.2031
G0 Z0.1
G1 F120.0 Z-1.0
G2 F3000.0 X845.1015 Y482.2563 I0.0 J0.3969
G2 Y482.9437 I0.1984 J0.3437
G2 X845.6968 Y482.6 I0.1984 J-0.3437
G2 X845.3 Y482.2031 I-0.3969 J0.0
G1 F120.0 Y481.8063
G2 F3000.0 X844.9031 Y481.9126 I0.0 J0.7938
G2 Y483.2874 I0.3969 J0.6874
G2 X846.0937 Y482.6 I0.3969 J-0.6874
G2 X845.3 Y481.8063 I-0.7938 J0.0
G0 Z12.0
G0 Y481.0125
G0 Z0.1
G1 F120.0 Z-1.0
G2 F3000.0 X844.5062 Y481.2252 I0.0 J1.5875
G2 Y483.9748 I0.7938 J1.3748
G2 X846.8875 Y482.6 I0.7938 J-1.3748
G2 X845.3 Y481.0125 I-1.5875 J0.0
G0 Z12.0
G0 Y507.6031
G0 Z0.1
G1 F120.0 Z-1.0
G2 F3000.0 X845.1015 Y507.6563 I0.0 J0.3969
G2 Y508.3437 I0.1984 J0.3437
G2 X845.6968 Y508.0 I0.1984 J-0.3437
G2 X845.3 Y507.6031 I-0.3969 J0.0
G1 F120.0 Y507.2063
G2 F3000.0 X844.9031 Y507.3126 I0.0 J0.7937
G2 Y508.6874 I0.3969 J0.6874
G2 X846.0937 Y508.0 I0.3969 J-0.6874
G2 X845.3 Y507.2063 I-0.7937 J0.0
G0 Z12.0
G0 Y506.4125
G0 Z0.1
G1 F120.0 Z-1.0
G2 F3000.0 X844.5062 Y506.6252 I0.0 J1.5875
G2 Y509.3748 I0.7937 J1.3748
G2 X846.8875 Y508.0 I0.7937 J-1.3748
G2 X845.3 Y506.4125 I-1.5875 J0.0
G0 Z12.0
G0 Y533.0031
G0 Z0.1
G1 F120.0 Z-1.0
G2 F3000.0 X845.1015 Y533.0563 I0.0 J0.3969
G2 Y533.7437 I0.1984 J0.3437
G2 X845.6968 Y533.4 I0.1984 J-0.3437
G2 X845.3 Y533.0031 I-0.3969 J0.0
G1 F120.0 Y532.6063
G2 F3000.0 X844.9031 Y532.7126 I0.0 J0.7938
G2 Y534.0874 I0.3969 J0.6874
G2 X846.0937 Y533.4 I0.3969 J-0.6874
G2 X845.3 Y532.6063 I-0.7938 J0.0
G0 Z12.0
G0 Y531.8125
G0 Z0.1
G1 F120.0 Z-1.0
G2 F3000.0 X844.5062 Y532.0252 I0.0 J1.5875
G2 Y534.7748 I0.7938 J1.3748
G2 X846.8875 Y533.4 I0.7938 J-1.3748
G2 X845.3 Y531.8125 I-1.5875 J0.0
G0 Z12.0
G0 Y558.4031
G0 Z0.1
G1 F120.0 Z-1.0
G2 F3000.0 X845.1015 Y558.4563 I0.0 J0.3969
G2 Y559.1437 I0.1984 J0.3437
G2 X845.6968 Y558.8 I0.1984 J-0.3437
G2 X845.3 Y558.4031 I-0.3969 J0.0
G1 F120.0 Y558.0063
G2 F3000.0 X844.9031 Y558.1126 I0.0 J0.7937
G2 Y559.4874 I0.3969 J0.6874
G2 X846.0937 Y558.8 I0.3969 J-0.6874
G2 X845.3 Y558.0063 I-0.7937 J0.0
G0 Z12.0
G0 Y557.2125
G0 Z0.1
G1 F120.0 Z-1.0
G2 F3000.0 X844.5062 Y557.4252 I0.0 J1.5875
G2 Y560.1748 I0.7937 J1.3748
G2 X846.8875 Y558.8 I0.7937 J-1.3748
G2 X845.3 Y557.2125 I-1.5875 J0.0
G0 Z12.0
G0 Y583.8031
G0 Z0.1
G1 F120.0 Z-1.0
G2 F3000.0 X845.1015 Y583.8563 I0.0 J0.3969
G2 Y584.5437 I0.1984 J0.3437
G2 X845.6968 Y584.2 I0.1984 J-0.3437
G2 X845.3 Y583.8031 I-0.3969 J0.0
G1 F120.0 Y583.4063
G2 F3000.0 X844.9031 Y583.5126 I0.0 J0.7938
G2 Y584.8874 I0.3969 J0.6874
G2 X846.0937 Y584.2 I0.3969 J-0.6874
G2 X845.3 Y583.4063 I-0.7938 J0.0
G0 Z12.0
G0 Y582.6125
G0 Z0.1
G1 F120.0 Z-1.0
G2 F3000.0 X844.5062 Y582.8252 I0.0 J1.5875
G2 Y585.5748 I0.7938 J1.3748
G2 X846.8875 Y584.2 I0.7938 J-1.3748
G2 X845.3 Y582.6125 I-1.5875 J0.0
G0 Z12.0
G0 Y609.2031
G0 Z0.1
G1 F120.0 Z-1.0
G2 F3000.0 X845.1015 Y609.2563 I0.0 J0.3969
G2 Y609.9437 I0.1984 J0.3437
G2 X845.6968 Y609.6 I0.1984 J-0.3437
G2 X845.3 Y609.2031 I-0.3969 J0.0
G1 F120.0 Y608.8063
G2 F3000.0 X844.9031 Y608.9126 I0.0 J0.7938
G2 Y610.2874 I0.3969 J0.6874
G2 X846.0937 Y609.6 I0.3969 J-0.6874
G2 X845.3 Y608.8063 I-0.7938 J0.0
G0 Z12.0
G0 Y608.0125
G0 Z0.1
G1 F120.0 Z-1.0
G2 F3000.0 X844.5062 Y608.2252 I0.0 J1.5875
G2 Y610.9748 I0.7938 J1.3748
G2 X846.8875 Y609.6 I0.7938 J-1.3748
G2 X845.3 Y608.0125 I-1.5875 J0.0
G0 Z12.0
G0 Y634.6031
G0 Z0.1
G1 F120.0 Z-1.0
G2 F3000.0 X845.1015 Y634.6563 I0.0 J0.3969
G2 Y635.3437 I0.1984 J0.3437
G2 X845.6968 Y635.0 I0.1984 J-0.3437
G2 X845.3 Y634.6031 I-0.3969 J0.0
G1 F120.0 Y634.2063
G2 F3000.0 X844.9031 Y634.3126 I0.0 J0.7937
G2 Y635.6874 I0.3969 J0.6874
G2 X846.0937 Y635.0 I0.3969 J-0.6874
G2 X845.3 Y634.2063 I-0.7937 J0.0
G0 Z12.0
G0 Y633.4125
G0 Z0.1
G1 F120.0 Z-1.0
G2 F3000.0 X844.5062 Y633.6252 I0.0 J1.5875
G2 Y636.3748 I0.7937 J1.3748
G2 X846.8875 Y635.0 I0.7937 J-1.3748
G2 X845.3 Y633.4125 I-1.5875 J0.0
G0 Z12.0
G0 Y660.0031
G0 Z0.1
G1 F120.0 Z-1.0
G2 F3000.0 X845.1015 Y660.0563 I0.0 J0.3969
G2 Y660.7437 I0.1984 J0.3437
G2 X845.6968 Y660.4 I0.1984 J-0.3437
G2 X845.3 Y660.0031 I-0.3969 J0.0
G1 F120.0 Y659.6063
G2 F3000.0 X844.9031 Y659.7126 I0.0 J0.7938
G2 Y661.0874 I0.3969 J0.6874
G2 X846.0937 Y660.4 I0.3969 J-0.6874
G2 X845.3 Y659.6063 I-0.7938 J0.0
G0 Z12.0
G0 Y658.8125
G0 Z0.1
G1 F120.0 Z-1.0
G2 F3000.0 X844.5062 Y659.0252 I0.0 J1.5875
G2 Y661.7748 I0.7938 J1.3748
G2 X846.8875 Y660.4 I0.7938 J-1.3748
G2 X845.3 Y658.8125 I-1.5875 J0.0
G0 Z12.0
G0 Y685.4031
G0 Z0.1
G1 F120.0 Z-1.0
G2 F3000.0 X845.1015 Y685.4563 I0.0 J0.3969
G2 Y686.1437 I0.1984 J0.3437
G2 X845.6968 Y685.8 I0.1984 J-0.3437
G2 X845.3 Y685.4031 I-0.3969 J0.0
G1 F120.0 Y685.0063
G2 F3000.0 X844.9031 Y685.1126 I0.0 J0.7937
G2 Y686.4874 I0.3969 J0.6874
G2 X846.0937 Y685.8 I0.3969 J-0.6874
G2 X845.3 Y685.0063 I-0.7937 J0.0
G0 Z12.0
G0 Y684.2125
G0 Z0.1
G1 F120.0 Z-1.0
G2 F3000.0 X844.5062 Y684.4252 I0.0 J1.5875
G2 Y687.1748 I0.7937 J1.3748
G2 X846.8875 Y685.8 I0.7937 J-1.3748
G2 X845.3 Y684.2125 I-1.5875 J0.0
G0 Z12.0
G0 Y710.8031
G0 Z0.1
G1 F120.0 Z-1.0
G2 F3000.0 X845.1015 Y710.8563 I0.0 J0.3969
G2 Y711.5437 I0.1984 J0.3437
G2 X845.6968 Y711.2 I0.1984 J-0.3437
G2 X845.3 Y710.8031 I-0.3969 J0.0
G1 F120.0 Y710.4063
G2 F3000.0 X844.9031 Y710.5126 I0.0 J0.7938
G2 Y711.8874 I0.3969 J0.6874
G2 X846.0937 Y711.2 I0.3969 J-0.6874
G2 X845.3 Y710.4063 I-0.7938 J0.0
G0 Z12.0
G0 Y709.6125
G0 Z0.1
G1 F120.0 Z-1.0
G2 F3000.0 X844.5062 Y709.8252 I0.0 J1.5875
G2 Y712.5748 I0.7938 J1.3748
G2 X846.8875 Y711.2 I0.7938 J-1.3748
G2 X845.3 Y709.6125 I-1.5875 J0.0
G0 Z12.0
G0 Y736.2031
G0 Z0.1
G1 F120.0 Z-1.0
G2 F3000.0 X845.1015 Y736.2563 I0.0 J0.3969
G2 Y736.9437 I0.1984 J0.3437
G2 X845.6968 Y736.6 I0.1984 J-0.3437
G2 X845.3 Y736.2031 I-0.3969 J0.0
G1 F120.0 Y735.8063
G2 F3000.0 X844.9031 Y735.9126 I0.0 J0.7938
G2 Y737.2874 I0.3969 J0.6874
G2 X846.0937 Y736.6 I0.3969 J-0.6874
G2 X845.3 Y735.8063 I-0.7938 J0.0
G0 Z12.0
G0 Y735.0125
G0 Z0.1
G1 F120.0 Z-1.0
G2 F3000.0 X844.5062 Y735.2252 I0.0 J1.5875
G2 Y737.9748 I0.7938 J1.3748
G2 X846.8875 Y736.6 I0.7938 J-1.3748
G2 X845.3 Y735.0125 I-1.5875 J0.0
G0 Z12.0
G0 Y761.6031
G0 Z0.1
G1 F120.0 Z-1.0
G2 F3000.0 X845.1015 Y761.6563 I0.0 J0.3969
G2 Y762.3437 I0.1984 J0.3437
G2 X845.6968 Y762.0 I0.1984 J-0.3437
G2 X845.3 Y761.6031 I-0.3969 J0.0
G1 F120.0 Y761.2063
G2 F3000.0 X844.9031 Y761.3126 I0.0 J0.7938
G2 Y762.6874 I0.3969 J0.6874
G2 X846.0937 Y762.0 I0.3969 J-0.6874
G2 X845.3 Y761.2063 I-0.7938 J0.0
G0 Z12.0
G0 Y760.4125
G0 Z0.1
G1 F120.0 Z-1.0
G2 F3000.0 X844.5062 Y760.6252 I0.0 J1.5875
G2 Y763.3748 I0.7938 J1.3748
G2 X846.8875 Y762.0 I0.7938 J-1.3748
G2 X845.3 Y760.4125 I-1.5875 J0.0
G0 Z12.0
G0 Y787.0031
G0 Z0.1
G1 F120.0 Z-1.0
G2 F3000.0 X845.1015 Y787.0563 I0.0 J0.3969
G2 Y787.7437 I0.1984 J0.3437
G2 X845.6968 Y787.4 I0.1984 J-0.3437
G2 X845.3 Y787.0031 I-0.3969 J0.0
G1 F120.0 Y786.6063
G2 F3000.0 X844.9031 Y786.7126 I0.0 J0.7938
G2 Y788.0874 I0.3969 J0.6874
G2 X846.0937 Y787.4 I0.3969 J-0.6874
G2 X845.3 Y786.6063 I-0.7938 J0.0
G0 Z12.0
G0 Y785.8125
G0 Z0.1
G1 F120.0 Z-1.0
G2 F3000.0 X844.5062 Y786.0252 I0.0 J1.5875
G2 Y788.7748 I0.7938 J1.3748
G2 X846.8875 Y787.4 I0.7938 J-1.3748
G2 X845.3 Y785.8125 I-1.5875 J0.0
G0 Z12.0
G0 Y812.4031
G0 Z0.1
G1 F120.0 Z-1.0
G2 F3000.0 X845.1015 Y812.4563 I0.0 J0.3969
G2 Y813.1437 I0.1984 J0.3437
G2 X845.6968 Y812.8 I0.1984 J-0.3437
G2 X845.3 Y812.4031 I-0.3969 J0.0
G1 F120.0 Y812.0063
G2 F3000.0 X844.9031 Y812.1126 I0.0 J0.7937
G2 Y813.4874 I0.3969 J0.6874
G2 X846.0937 Y812.8 I0.3969 J-0.6874
G2 X845.3 Y812.0063 I-0.7937 J0.0
G0 Z12.0
G0 Y811.2125
G0 Z0.1
G1 F120.0 Z-1.0
G2 F3000.0 X844.5062 Y811.4252 I0.0 J1.5875
G2 Y814.1748 I0.7937 J1.3748
G2 X846.8875 Y812.8 I0.7937 J-1.3748
G2 X845.3 Y811.2125 I-1.5875 J0.0
G0 Z12.0
G0 X989.4094 Y812.7956
G0 Z0.1
G1 F120.0 Z-1.0
G2 F3000.0 X989.6078 Y813.1437 I0.3969 J0.0044
G2 X990.2031 Y812.8 I0.1984 J-0.3437
G2 X989.6078 Y812.4563 I-0.3969 J0.0
G2 X989.4094 Y812.7956 I0.1984 J0.3437
G1 F120.0 X989.0125 Y812.7913
G2 F3000.0 X989.4094 Y813.4874 I0.7937 J0.0087
G2 X990.6 Y812.8 I0.3969 J-0.6874
G2 X989.4094 Y812.1126 I-0.7937 J0.0
G2 X989.0125 Y812.7913 I0.3969 J0.6874
G1 F120.0 X988.2188 Y812.7826
G2 F3000.0 X989.0125 Y814.1748 I1.5874 J0.0174
G2 X991.3938 Y812.8 I0.7937 J-1.3748
G2 X989.0125 Y811.4252 I-1.5875 J0.0
G2 X988.2188 Y812.7826 I0.7937 J1.3748
G0 Z12.0
G0 X989.7815 Y787.7961
G0 Z0.1
G1 F120.0 Z-1.0
G2 F3000.0 X990.2031 Y787.4 I0.0248 J-0.3961
G2 X989.6078 Y787.0563 I-0.3969 J0.0
G2 Y787.7437 I0.1984 J0.3437
G2 X989.7815 Y787.7961 I0.1984 J-0.3437
G1 F120.0 X989.7567 Y788.1922
G2 F3000.0 X990.6 Y787.4 I0.0495 J-0.7922
G2 X989.4094 Y786.7126 I-0.7937 J0.0
G2 Y788.0874 I0.3969 J0.6874
G2 X989.7567 Y788.1922 I0.3969 J-0.6874
G0 Z12.0
G0 X989.7072 Y788.9844
G0 Z0.1
G1 F120.0 Z-1.0
G2 F3000.0 X991.3938 Y787.4 I0.0991 J-1.5844
G2 X989.0125 Y786.0252 I-1.5875 J0.0
G2 Y788.7748 I0.7937 J1.3748
G2 X989.7072 Y788.9844 I0.7937 J-1.3748
G0 Z12.0
G0 X989.8048 Y762.3969
G0 Z0.1
G1 F120.0 Z-1.0
G2 F3000.0 X990.2031 Y762.0 I0.0015 J-0.3969
G2 X989.6078 Y761.6563 I-0.3969 J0.0
G2 Y762.3437 I0.1984 J0.3437
G2 X989.8048 Y762.3969 I0.1984 J-0.3437
G1 F120.0 X989.8033 Y762.7937
G2 F3000.0 X990.6 Y762.0 I0.0029 J-0.7937
G2 X989.4094 Y761.3126 I-0.7938 J0.0
G2 Y762.6874 I0.3969 J0.6874
G2 X989.8033 Y762.7937 I0.3969 J-0.6874
G0 Z12.0
G0 X989.8004 Y763.5875
G0 Z0.1
G1 F120.0 Z-1.0
G2 F3000.0 X991.3938 Y762.0 I0.0058 J-1.5875
G2 X989.0125 Y760.6252 I-1.5875 J0.0
G2 Y763.3748 I0.7938 J1.3748
G2 X989.8004 Y763.5875 I0.7938 J-1.3748
G0 Z12.0
G0 X989.8062 Y736.9969
G0 Z0.1
G1 F120.0 Z-1.0
G2 F3000.0 X990.2031 Y736.6 I0.0001 J-0.3969
G2 X989.6078 Y736.2563 I-0.3969 J0.0
G2 Y736.9437 I0.1984 J0.3437
G2 X989.8062 Y736.9969 I0.1984 J-0.3437
G1 F120.0 X989.8061 Y737.3937
G2 F3000.0 X990.6 Y736.6 I0.0002 J-0.7937
G2 X989.4094 Y735.9126 I-0.7937 J0.0
G2 Y737.2874 I0.3969 J0.6874
G2 X989.8061 Y737.3937 I0.3969 J-0.6874
G0 Z12.0
G0 X989.8059 Y738.1875
G0 Z0.1
G1 F120.0 Z-1.0
G2 F3000.0 X991.3938 Y736.6 I0.0003 J-1.5875
G2 X989.0125 Y735.2252 I-1.5875 J0.0
G2 Y737.9748 I0.7937 J1.3748
G2 X989.8059 Y738.1875 I0.7937 J-1.3748
G0 Z12.0
G0 X989.8062 Y711.5969
G0 Z0.1
G1 F120.0 Z-1.0
G2 F3000.0 X990.2031 Y711.2 I0.0 J-0.3969
G2 X989.6078 Y710.8563 I-0.3969 J0.0
G2 Y711.5437 I0.1984 J0.3437
G2 X989.8062 Y711.5969 I0.1984 J-0.3437
G1 F120.0 Y711.9937
G2 F3000.0 X990.6 Y711.2 I0.0 J-0.7937
G2 X989.4094 Y710.5126 I-0.7937 J0.0
G2 Y711.8874 I0.3969 J0.6874
G2 X989.8062 Y711.9937 I0.3969 J-0.6874
G0 Z12.0
G0 Y712.7875
G0 Z0.1
G1 F120.0 Z-1.0
G2 F3000.0 X991.3938 Y711.2 I0.0 J-1.5875
G2 X989.0125 Y709.8252 I-1.5875 J0.0
G2 Y712.5748 I0.7937 J1.3748
G2 X989.8062 Y712.7875 I0.7937 J-1.3748
G0 Z12.0
G0 Y686.1969
G0 Z0.1
G1 F120.0 Z-1.0
G2 F3000.0 X990.2031 Y685.8 I0.0 J-0.3969
G2 X989.6078 Y685.4563 I-0.3969 J0.0
G2 Y686.1437 I0.1984 J0.3437
G2 X989.8062 Y686.1969 I0.1984 J-0.3437
G1 F120.0 Y686.5938
G2 F3000.0 X990.6 Y685.8 I0.0 J-0.7938
G2 X989.4094 Y685.1126 I-0.7938 J0.0
G2 Y686.4874 I0.3969 J0.6874
G2 X989.8062 Y686.5938 I0.3969 J-0.6874
G1 F120.0 Y687.3875
G2 F3000.0 X991.3938 Y685.8 I0.0 J-1.5875
G2 X989.0125 Y684.4252 I-1.5875 J0.0
G2 Y687.1748 I0.7938 J1.3748
G2 X989.8062 Y687.3875 I0.7938 J-1.3748
G0 Z12.0
G0 Y660.7969
G0 Z0.1
G1 F120.0 Z-1.0
G2 F3000.0 X990.2031 Y660.4 I0.0 J-0.3969
G2 X989.6078 Y660.0563 I-0.3969 J0.0
G2 Y660.7437 I0.1984 J0.3437
G2 X989.8062 Y660.7969 I0.1984 J-0.3437
G1 F120.0 Y661.1938
G2 F3000.0 X990.6 Y660.4 I0.0 J-0.7937
G2 X989.4094 Y659.7126 I-0.7937 J0.0
G2 Y661.0874 I0.3969 J0.6874
G2 X989.8062 Y661.1938 I0.3969 J-0.6874
G1 F120.0 Y661.9875
G2 F3000.0 X991.3938 Y660.4 I0.0 J-1.5875
G2 X989.0125 Y659.0252 I-1.5875 J0.0
G2 Y661.7748 I0.7937 J1.3748
G2 X989.8062 Y661.9875 I0.7937 J-1.3748
G0 Z12.0
G0 Y635.3969
G0 Z0.1
G1 F120.0 Z-1.0
G2 F3000.0 X990.2031 Y635.0 I0.0 J-0.3969
G2 X989.6078 Y634.6563 I-0.3969 J0.0
G2 Y635.3437 I0.1984 J0.3437
G2 X989.8062 Y635.3969 I0.1984 J-0.3437
G1 F120.0 Y635.7938
G2 F3000.0 X990.6 Y635.0 I0.0 J-0.7937
G2 X989.4094 Y634.3126 I-0.7937 J0.0
G2 Y635.6874 I0.3969 J0.6874
G2 X989.8062 Y635.7938 I0.3969 J-0.6874
G1 F120.0 Y636.5875
G2 F3000.0 X991.3938 Y635.0 I0.0 J-1.5875
G2 X989.0125 Y633.6252 I-1.5875 J0.0
G2 Y636.3748 I0.7937 J1.3748
G2 X989.8062 Y636.5875 I0.7937 J-1.3748
G0 Z12.0
G0 Y609.9969
G0 Z0.1
G1 F120.0 Z-1.0
G2 F3000.0 X990.2031 Y609.6 I0.0 J-0.3969
G2 X989.6078 Y609.2563 I-0.3969 J0.0
G2 Y609.9437 I0.1984 J0.3437
G2 X989.8062 Y609.9969 I0.1984 J-0.3437
G1 F120.0 Y610.3938
G2 F3000.0 X990.6 Y609.6 I0.0 J-0.7938
G2 X989.4094 Y608.9126 I-0.7938 J0.0
G2 Y610.2874 I0.3969 J0.6874
G2 X989.8062 Y610.3938 I0.3969 J-0.6874
G1 F120.0 Y611.1875
G2 F3000.0 X991.3938 Y609.6 I0.0 J-1.5875
G2 X989.0125 Y608.2252 I-1.5875 J0.0
G2 Y610.9748 I0.7938 J1.3748
G2 X989.8062 Y611.1875 I0.7938 J-1.3748
G0 Z12.0
G0 Y584.5969
G0 Z0.1
G1 F120.0 Z-1.0
G2 F3000.0 X990.2031 Y584.2 I0.0 J-0.3969
G2 X989.6078 Y583.8563 I-0.3969 J0.0
G2 Y584.5437 I0.1984 J0.3437
G2 X989.8062 Y584.5969 I0.1984 J-0.3437
G1 F120.0 Y584.9938
G2 F3000.0 X990.6 Y584.2 I0.0 J-0.7937
G2 X989.4094 Y583.5126 I-0.7937 J0.0
G2 Y584.8874 I0.3969 J0.6874
G2 X989.8062 Y584.9938 I0.3969 J-0.6874
G1 F120.0 Y585.7875
G2 F3000.0 X991.3938 Y584.2 I0.0 J-1.5875
G2 X989.0125 Y582.8252 I-1.5875 J0.0
G2 Y585.5748 I0.7937 J1.3748
G2 X989.8062 Y585.7875 I0.7937 J-1.3748
G0 Z12.0
G0 X989.8063 Y559.1969
G0 Z0.1
G1 F120.0 Z-1.0
G2 F3000.0 X990.2031 Y558.8 I0.0 J-0.3969
G2 X989.6078 Y558.4563 I-0.3969 J0.0
G2 Y559.1437 I0.1984 J0.3437
G2 X989.8063 Y559.1969 I0.1984 J-0.3437
G1 F120.0 Y559.5938
G2 F3000.0 X990.6 Y558.8 I0.0 J-0.7937
G2 X989.4094 Y558.1126 I-0.7937 J0.0
G2 Y559.4874 I0.3969 J0.6874
G2 X989.8063 Y559.5938 I0.3969 J-0.6874
G1 F120.0 X989.8062 Y560.3875
G2 F3000.0 X991.3938 Y558.8 I0.0 J-1.5875
G2 X989.0125 Y557.4252 I-1.5875 J0.0
G2 Y560.1748 I0.7937 J1.3748
G2 X989.8062 Y560.3875 I0.7937 J-1.3748
G0 Z12.0
G0 X989.8063 Y533.7969
G0 Z0.1
G1 F120.0 Z-1.0
G2 F3000.0 X990.2031 Y533.4 I0.0 J-0.3969
G2 X989.6078 Y533.0563 I-0.3969 J0.0
G2 Y533.7437 I0.1984 J0.3437
G2 X989.8063 Y533.7969 I0.1984 J-0.3437
G1 F120.0 Y534.1938
G2 F3000.0 X990.6 Y533.4 I0.0 J-0.7938
G2 X989.4094 Y532.7126 I-0.7938 J0.0
G2 Y534.0874 I0.3969 J0.6874
G2 X989.8063 Y534.1938 I0.3969 J-0.6874
G1 F120.0 Y534.9875
G2 F3000.0 X991.3938 Y533.4 I0.0 J-1.5875
G2 X989.0125 Y532.0252 I-1.5875 J0.0
G2 Y534.7748 I0.7938 J1.3748
G2 X989.8063 Y534.9875 I0.7938 J-1.3748
G0 Z12.0
G0 Y508.3969
G0 Z0.1
G1 F120.0 Z-1.0
G2 F3000.0 X990.2031 Y508.0 I0.0 J-0.3969
G2 X989.6078 Y507.6563 I-0.3969 J0.0
G2 Y508.3437 I0.1984 J0.3437
G2 X989.8063 Y508.3969 I0.1984 J-0.3437
G1 F120.0 Y508.7938
G2 F3000.0 X990.6 Y508.0 I0.0 J-0.7937
G2 X989.4094 Y507.3126 I-0.7937 J0.0
G2 Y508.6874 I0.3969 J0.6874
G2 X989.8063 Y508.7938 I0.3969 J-0.6874
G1 F120.0 Y509.5875
G2 F3000.0 X991.3938 Y508.0 I0.0 J-1.5875
G2 X989.0125 Y506.6252 I-1.5875 J0.0
G2 Y509.3748 I0.7937 J1.3748
G2 X989.8063 Y509.5875 I0.7937 J-1.3748
G0 Z12.0
G0 Y482.9969
G0 Z0.1
G1 F120.0 Z-1.0
G2 F3000.0 X990.2031 Y482.6 I0.0 J-0.3969
G2 X989.6078 Y482.2563 I-0.3969 J0.0
G2 Y482.9437 I0.1984 J0.3437
G2 X989.8063 Y482.9969 I0.1984 J-0.3437
G1 F120.0 Y483.3938
G2 F3000.0 X990.6 Y482.6 I0.0 J-0.7937
G2 X989.4094 Y481.9126 I-0.7937 J0.0
G2 Y483.2874 I0.3969 J0.6874
G2 X989.8063 Y483.3938 I0.3969 J-0.6874
G1 F120.0 Y484.1875
G2 F3000.0 X991.3938 Y482.6 I0.0 J-1.5875
G2 X989.0125 Y481.2252 I-1.5875 J0.0
G2 Y483.9748 I0.7937 J1.3748
G2 X989.8063 Y484.1875 I0.7937 J-1.3748
G0 Z12.0
G0 Y432.1969
G0 Z0.1
G1 F120.0 Z-1.0
G2 F3000.0 X990.2031 Y431.8 I0.0 J-0.3969
G2 X989.6078 Y431.4563 I-0.3969 J0.0
G2 Y432.1437 I0.1984 J0.3437
G2 X989.8063 Y432.1969 I0.1984 J-0.3437
G1 F120.0 Y432.5938
G2 F3000.0 X990.6 Y431.8 I0.0 J-0.7937
G2 X989.4094 Y431.1126 I-0.7937 J0.0
G2 Y432.4874 I0.3969 J0.6874
G2 X989.8063 Y432.5938 I0.3969 J-0.6874
G1 F120.0 Y433.3875
G2 F3000.0 X991.3938 Y431.8 I0.0 J-1.5875
G2 X989.0125 Y430.4252 I-1.5875 J0.0
G2 Y433.1748 I0.7937 J1.3748
G2 X989.8063 Y433.3875 I0.7937 J-1.3748
G0 Z12.0
G0 Y406.7969
G0 Z0.1
G1 F120.0 Z-1.0
G2 F3000.0 X990.2031 Y406.4 I0.0 J-0.3969
G2 X989.6078 Y406.0563 I-0.3969 J0.0
G2 Y406.7437 I0.1984 J0.3437
G2 X989.8063 Y406.7969 I0.1984 J-0.3437
G1 F120.0 Y407.1938
G2 F3000.0 X990.6 Y406.4 I0.0 J-0.7937
G2 X989.4094 Y405.7126 I-0.7937 J0.0
G2 Y407.0874 I0.3969 J0.6874
G2 X989.8063 Y407.1938 I0.3969 J-0.6874
G1 F120.0 Y407.9875
G2 F3000.0 X991.3938 Y406.4 I0.0 J-1.5875
G2 X989.0125 Y405.0252 I-1.5875 J0.0
G2 Y407.7748 I0.7937 J1.3748
G2 X989.8063 Y407.9875 I0.7937 J-1.3748
G0 Z12.0
G0 Y381.3969
G0 Z0.1
G1 F120.0 Z-1.0
G2 F3000.0 X990.2031 Y381.0 I0.0 J-0.3969
G2 X989.6078 Y380.6563 I-0.3969 J0.0
G2 Y381.3437 I0.1984 J0.3437
G2 X989.8063 Y381.3969 I0.1984 J-0.3437
G1 F120.0 Y381.7938
G2 F3000.0 X990.6 Y381.0 I0.0 J-0.7937
G2 X989.4094 Y380.3126 I-0.7937 J0.0
G2 Y381.6874 I0.3969 J0.6874
G2 X989.8063 Y381.7938 I0.3969 J-0.6874
G1 F120.0 Y382.5875
G2 F3000.0 X991.3938 Y381.0 I0.0 J-1.5875
G2 X989.0125 Y379.6252 I-1.5875 J0.0
G2 Y382.3748 I0.7937 J1.3748
G2 X989.8063 Y382.5875 I0.7937 J-1.3748
G0 Z12.0
G0 Y355.9969
G0 Z0.1
G1 F120.0 Z-1.0
G2 F3000.0 X990.2031 Y355.6 I0.0 J-0.3969
G2 X989.6078 Y355.2563 I-0.3969 J0.0
G2 Y355.9437 I0.1984 J0.3437
G2 X989.8063 Y355.9969 I0.1984 J-0.3437
G1 F120.0 Y356.3938
G2 F3000.0 X990.6 Y355.6 I0.0 J-0.7938
G2 X989.4094 Y354.9126 I-0.7938 J0.0
G2 Y356.2874 I0.3969 J0.6874
G2 X989.8063 Y356.3938 I0.3969 J-0.6874
G1 F120.0 Y357.1875
G2 F3000.0 X991.3938 Y355.6 I0.0 J-1.5875
G2 X989.0125 Y354.2252 I-1.5875 J0.0
G2 Y356.9748 I0.7938 J1.3748
G2 X989.8063 Y357.1875 I0.7938 J-1.3748
G0 Z12.0
G0 Y330.5969
G0 Z0.1
G1 F120.0 Z-1.0
G2 F3000.0 X990.2031 Y330.2 I0.0 J-0.3969
G2 X989.6078 Y329.8563 I-0.3969 J0.0
G2 Y330.5437 I0.1984 J0.3437
G2 X989.8063 Y330.5969 I0.1984 J-0.3437
G1 F120.0 Y330.9938
G2 F3000.0 X990.6 Y330.2 I0.0 J-0.7937
G2 X989.4094 Y329.5126 I-0.7937 J0.0
G2 Y330.8874 I0.3969 J0.6874
G2 X989.8063 Y330.9938 I0.3969 J-0.6874
G1 F120.0 Y331.7875
G2 F3000.0 X991.3938 Y330.2 I0.0 J-1.5875
G2 X989.0125 Y328.8252 I-1.5875 J0.0
G2 Y331.5748 I0.7937 J1.3748
G2 X989.8063 Y331.7875 I0.7937 J-1.3748
G0 Z12.0
G0 Y305.1969
G0 Z0.1
G1 F120.0 Z-1.0
G2 F3000.0 X990.2031 Y304.8 I0.0 J-0.3969
G2 X989.6078 Y304.4563 I-0.3969 J0.0
G2 Y305.1437 I0.1984 J0.3437
G2 X989.8063 Y305.1969 I0.1984 J-0.3437
G1 F120.0 Y305.5938
G2 F3000.0 X990.6 Y304.8 I0.0 J-0.7937
G2 X989.4094 Y304.1126 I-0.7937 J0.0
G2 Y305.4874 I0.3969 J0.6874
G2 X989.8063 Y305.5938 I0.3969 J-0.6874
G1 F120.0 Y306.3875
G2 F3000.0 X991.3938 Y304.8 I0.0 J-1.5875
G2 X989.0125 Y303.4252 I-1.5875 J0.0
G2 Y306.1748 I0.7937 J1.3748
G2 X989.8063 Y306.3875 I0.7937 J-1.3748
G0 Z12.0
G0 Y279.7969
G0 Z0.1
G1 F120.0 Z-1.0
G2 F3000.0 X990.2031 Y279.4 I0.0 J-0.3969
G2 X989.6078 Y279.0563 I-0.3969 J0.0
G2 Y279.7437 I0.1984 J0.3437
G2 X989.8063 Y279.7969 I0.1984 J-0.3437
G1 F120.0 Y280.1938
G2 F3000.0 X990.6 Y279.4 I0.0 J-0.7938
G2 X989.4094 Y278.7126 I-0.7938 J0.0
G2 Y280.0874 I0.3969 J0.6874
G2 X989.8063 Y280.1938 I0.3969 J-0.6874
G1 F120.0 Y280.9875
G2 F3000.0 X991.3938 Y279.4 I0.0 J-1.5875
G2 X989.0125 Y278.0252 I-1.5875 J0.0
G2 Y280.7748 I0.7938 J1.3748
G2 X989.8063 Y280.9875 I0.7938 J-1.3748
G0 Z12.0
G0 Y254.3969
G0 Z0.1
G1 F120.0 Z-1.0
G2 F3000.0 X990.2031 Y254.0 I0.0 J-0.3969
G2 X989.6078 Y253.6563 I-0.3969 J0.0
G2 Y254.3437 I0.1984 J0.3437
G2 X989.8063 Y254.3969 I0.1984 J-0.3437
G1 F120.0 Y254.7938
G2 F3000.0 X990.6 Y254.0 I0.0 J-0.7937
G2 X989.4094 Y253.3126 I-0.7937 J0.0
G2 Y254.6874 I0.3969 J0.6874
G2 X989.8063 Y254.7938 I0.3969 J-0.6874
G1 F120.0 Y255.5875
G2 F3000.0 X991.3938 Y254.0 I0.0 J-1.5875
G2 X989.0125 Y252.6252 I-1.5875 J0.0
G2 Y255.3748 I0.7937 J1.3748
G2 X989.8063 Y255.5875 I0.7937 J-1.3748
G0 Z12.0
G0 Y228.9969
G0 Z0.1
G1 F120.0 Z-1.0
G2 F3000.0 X990.2031 Y228.6 I0.0 J-0.3969
G2 X989.6078 Y228.2563 I-0.3969 J0.0
G2 Y228.9437 I0.1984 J0.3437
G2 X989.8063 Y228.9969 I0.1984 J-0.3437
G1 F120.0 Y229.3938
G2 F3000.0 X990.6 Y228.6 I0.0 J-0.7937
G2 X989.4094 Y227.9126 I-0.7937 J0.0
G2 Y229.2874 I0.3969 J0.6874
G2 X989.8063 Y229.3938 I0.3969 J-0.6874
G1 F120.0 Y230.1875
G2 F3000.0 X991.3938 Y228.6 I0.0 J-1.5875
G2 X989.0125 Y227.2252 I-1.5875 J0.0
G2 Y229.9748 I0.7937 J1.3748
G2 X989.8063 Y230.1875 I0.7937 J-1.3748
G0 Z12.0
G0 Y203.5969
G0 Z0.1
G1 F120.0 Z-1.0
G2 F3000.0 X990.2031 Y203.2 I0.0 J-0.3969
G2 X989.6078 Y202.8563 I-0.3969 J0.0
G2 Y203.5437 I0.1984 J0.3437
G2 X989.8063 Y203.5969 I0.1984 J-0.3437
G1 F120.0 Y203.9938
G2 F3000.0 X990.6 Y203.2 I0.0 J-0.7937
G2 X989.4094 Y202.5126 I-0.7937 J0.0
G2 Y203.8874 I0.3969 J0.6874
G2 X989.8063 Y203.9938 I0.3969 J-0.6874
G1 F120.0 Y204.7875
G2 F3000.0 X991.3938 Y203.2 I0.0 J-1.5875
G2 X989.0125 Y201.8252 I-1.5875 J0.0
G2 Y204.5748 I0.7937 J1.3748
G2 X989.8063 Y204.7875 I0.7937 J-1.3748
G0 Z12.0
G0 Y178.1969
G0 Z0.1
G1 F120.0 Z-1.0
G2 F3000.0 X990.2031 Y177.8 I0.0 J-0.3969
G2 X989.6078 Y177.4563 I-0.3969 J0.0
G2 Y178.1437 I0.1984 J0.3437
G2 X989.8063 Y178.1969 I0.1984 J-0.3437
G1 F120.0 Y178.5938
G2 F3000.0 X990.6 Y177.8 I0.0 J-0.7938
G2 X989.4094 Y177.1126 I-0.7938 J0.0
G2 Y178.4874 I0.3969 J0.6874
G2 X989.8063 Y178.5938 I0.3969 J-0.6874
G1 F120.0 Y179.3875
G2 F3000.0 X991.3938 Y177.8 I0.0 J-1.5875
G2 X989.0125 Y176.4252 I-1.5875 J0.0
G2 Y179.1748 I0.7938 J1.3748
G2 X989.8063 Y179.3875 I0.7938 J-1.3748
G0 Z12.0
G0 Y152.7969
G0 Z0.1
G1 F120.0 Z-1.0
G2 F3000.0 X990.2031 Y152.4 I0.0 J-0.3969
G2 X989.6078 Y152.0563 I-0.3969 J0.0
G2 Y152.7437 I0.1984 J0.3437
G2 X989.8063 Y152.7969 I0.1984 J-0.3437
G1 F120.0 Y153.1938
G2 F3000.0 X990.6 Y152.4 I0.0 J-0.7937
G2 X989.4094 Y151.7126 I-0.7937 J0.0
G2 Y153.0874 I0.3969 J0.6874
G2 X989.8063 Y153.1938 I0.3969 J-0.6874
G1 F120.0 Y153.9875
G2 F3000.0 X991.3938 Y152.4 I0.0 J-1.5875
G2 X989.0125 Y151.0252 I-1.5875 J0.0
G2 Y153.7748 I0.7937 J1.3748
G2 X989.8063 Y153.9875 I0.7937 J-1.3748
G0 Z12.0
G0 Y127.3969
G0 Z0.1
G1 F120.0 Z-1.0
G2 F3000.0 X990.2031 Y127.0 I0.0 J-0.3969
G2 X989.6078 Y126.6563 I-0.3969 J0.0
G2 Y127.3437 I0.1984 J0.3437
G2 X989.8063 Y127.3969 I0.1984 J-0.3437
G1 F120.0 Y127.7938
G2 F3000.0 X990.6 Y127.0 I0.0 J-0.7937
G2 X989.4094 Y126.3126 I-0.7937 J0.0
G2 Y127.6874 I0.3969 J0.6874
G2 X989.8063 Y127.7938 I0.3969 J-0.6874
G1 F120.0 Y128.5875
G2 F3000.0 X991.3938 Y127.0 I0.0 J-1.5875
G2 X989.0125 Y125.6252 I-1.5875 J0.0
G2 Y128.3748 I0.7937 J1.3748
G2 X989.8063 Y128.5875 I0.7937 J-1.3748
G0 Z12.0
G0 Y101.9969
G0 Z0.1
G1 F120.0 Z-1.0
G2 F3000.0 X990.2031 Y101.6 I0.0 J-0.3969
G2 X989.6078 Y101.2563 I-0.3969 J0.0
G2 Y101.9437 I0.1984 J0.3437
G2 X989.8063 Y101.9969 I0.1984 J-0.3437
G1 F120.0 Y102.3938
G2 F3000.0 X990.6 Y101.6 I0.0 J-0.7938
G2 X989.4094 Y100.9126 I-0.7938 J0.0
G2 Y102.2874 I0.3969 J0.6874
G2 X989.8063 Y102.3938 I0.3969 J-0.6874
G1 F120.0 Y103.1875
G2 F3000.0 X991.3938 Y101.6 I0.0 J-1.5875
G2 X989.0125 Y100.2252 I-1.5875 J0.0
G2 Y102.9748 I0.7938 J1.3748
G2 X989.8063 Y103.1875 I0.7938 J-1.3748
G0 Z12.0
G0 X1180.7031 Y101.6033
G0 Z0.1
G1 F120.0 Z-1.0
G2 F3000.0 X1180.9016 Y101.9437 I0.3969 J-0.0033
G2 X1181.4969 Y101.6 I0.1984 J-0.3437
G2 X1180.9016 Y101.2563 I-0.3969 J0.0
G2 X1180.7031 Y101.6033 I0.1984 J0.3437
G1 F120.0 X1180.3063 Y101.6066
G2 F3000.0 X1180.7031 Y102.2874 I0.7937 J-0.0066
G2 X1181.8938 Y101.6 I0.3969 J-0.6874
G2 X1180.7031 Y100.9126 I-0.7937 J0.0
G2 X1180.3063 Y101.6066 I0.3969 J0.6874
G0 Z12.0
G0 X1179.5126 Y101.6132
G0 Z0.1
G1 F120.0 Z-1.0
G2 F3000.0 X1180.3063 Y102.9748 I1.5874 J-0.0132
G2 X1182.6875 Y101.6 I0.7937 J-1.3748
G2 X1180.3063 Y100.2252 I-1.5875 J0.0
G2 X1179.5126 Y101.6132 I0.7937 J1.3748
G0 Z12.0
G0 X1181.0752 Y126.6039
G0 Z0.1
G1 F120.0 Z-1.0
G2 F3000.0 X1180.9016 Y126.6563 I0.0248 J0.3961
G2 Y127.3437 I0.1984 J0.3437
G2 X1181.4969 Y127.0 I0.1984 J-0.3437
G2 X1181.0752 Y126.6039 I-0.3969 J0.0
G1 F120.0 X1181.0505 Y126.2078
G2 F3000.0 X1180.7031 Y126.3126 I0.0495 J0.7922
G2 Y127.6874 I0.3969 J0.6874
G2 X1181.8938 Y127.0 I0.3969 J-0.6874
G2 X1181.0505 Y126.2078 I-0.7937 J0.0
G0 Z12.0
G0 X1181.0009 Y125.4156
G0 Z0.1
G1 F120.0 Z-1.0
G2 F3000.0 X1180.3063 Y125.6252 I0.0991 J1.5844
G2 Y128.3748 I0.7937 J1.3748
G2 X1182.6875 Y127.0 I0.7937 J-1.3748
G2 X1181.0009 Y125.4156 I-1.5875 J0.0
G0 Z12.0
G0 X1181.0985 Y152.0031
G0 Z0.1
G1 F120.0 Z-1.0
G2 F3000.0 X1180.9016 Y152.0563 I0.0015 J0.3969
G2 Y152.7437 I0.1984 J0.3437
G2 X1181.4969 Y152.4 I0.1984 J-0.3437
G2 X1181.0985 Y152.0031 I-0.3969 J0.0
G1 F120.0 X1181.0971 Y151.6063
G2 F3000.0 X1180.7031 Y151.7126 I0.0029 J0.7937
G2 Y153.0874 I0.3969 J0.6874
G2 X1181.8938 Y152.4 I0.3969 J-0.6874
G2 X1181.0971 Y151.6063 I-0.7937 J0.0
G0 Z12.0
G0 X1181.0942 Y150.8125
G0 Z0.1
G1 F120.0 Z-1.0
G2 F3000.0 X1180.3063 Y151.0252 I0.0058 J1.5875
G2 Y153.7748 I0.7937 J1.3748
G2 X1182.6875 Y152.4 I0.7937 J-1.3748
G2 X1181.0942 Y150.8125 I-1.5875 J0.0
G0 Z12.0
G0 X1181.0999 Y177.4031
G0 Z0.1
G1 F120.0 Z-1.0
G2 F3000.0 X1180.9016 Y177.4563 I0.0001 J0.3969
G2 Y178.1437 I0.1984 J0.3437
G2 X1181.4969 Y177.8 I0.1984 J-0.3437
G2 X1181.0999 Y177.4031 I-0.3969 J0.0
G1 F120.0 X1181.0998 Y177.0063
G2 F3000.0 X1180.7031 Y177.1126 I0.0002 J0.7937
G2 Y178.4874 I0.3969 J0.6874
G2 X1181.8938 Y177.8 I0.3969 J-0.6874
G2 X1181.0998 Y177.0063 I-0.7938 J0.0
G0 Z12.0
G0 X1181.0997 Y176.2125
G0 Z0.1
G1 F120.0 Z-1.0
G2 F3000.0 X1180.3063 Y176.4252 I0.0003 J1.5875
G2 Y179.1748 I0.7938 J1.3748
G2 X1182.6875 Y177.8 I0.7938 J-1.3748
G2 X1181.0997 Y176.2125 I-1.5875 J0.0
G0 Z12.0
G0 X1181.1 Y202.8031
G0 Z0.1
G1 F120.0 Z-1.0
G2 F3000.0 X1180.9016 Y202.8563 I0.0 J0.3969
G2 Y203.5437 I0.1984 J0.3437
G2 X1181.4969 Y203.2 I0.1984 J-0.3437
G2 X1181.1 Y202.8031 I-0.3969 J0.0
G1 F120.0 Y202.4063
G2 F3000.0 X1180.7031 Y202.5126 I0.0 J0.7937
G2 Y203.8874 I0.3969 J0.6874
G2 X1181.8938 Y203.2 I0.3969 J-0.6874
G2 X1181.1 Y202.4063 I-0.7937 J0.0
G0 Z12.0
G0 Y201.6125
G0 Z0.1
G1 F120.0 Z-1.0
G2 F3000.0 X1180.3063 Y201.8252 I0.0 J1.5875
G2 Y204.5748 I0.7937 J1.3748
G2 X1182.6875 Y203.2 I0.7937 J-1.3748
G2 X1181.1 Y201.6125 I-1.5875 J0.0
G0 Z12.0
G0 Y228.2031
G0 Z0.1
G1 F120.0 Z-1.0
G2 F3000.0 X1180.9016 Y228.2563 I0.0 J0.3969
G2 Y228.9437 I0.1984 J0.3437
G2 X1181.4969 Y228.6 I0.1984 J-0.3437
G2 X1181.1 Y228.2031 I-0.3969 J0.0
G1 F120.0 Y227.8063
G2 F3000.0 X1180.7031 Y227.9126 I0.0 J0.7937
G2 Y229.2874 I0.3969 J0.6874
G2 X1181.8938 Y228.6 I0.3969 J-0.6874
G2 X1181.1 Y227.8063 I-0.7937 J0.0
G0 Z12.0
G0 Y227.0125
G0 Z0.1
G1 F120.0 Z-1.0
G2 F3000.0 X1180.3063 Y227.2252 I0.0 J1.5875
G2 Y229.9748 I0.7937 J1.3748
G2 X1182.6875 Y228.6 I0.7937 J-1.3748
G2 X1181.1 Y227.0125 I-1.5875 J0.0
G0 Z12.0
G0 Y253.6031
G0 Z0.1
G1 F120.0 Z-1.0
G2 F3000.0 X1180.9016 Y253.6563 I0.0 J0.3969
G2 Y254.3437 I0.1984 J0.3437
G2 X1181.4969 Y254.0 I0.1984 J-0.3437
G2 X1181.1 Y253.6031 I-0.3969 J0.0
G1 F120.0 Y253.2063
G2 F3000.0 X1180.7031 Y253.3126 I0.0 J0.7938
G2 Y254.6874 I0.3969 J0.6874
G2 X1181.8938 Y254.0 I0.3969 J-0.6874
G2 X1181.1 Y253.2063 I-0.7938 J0.0
G0 Z12.0
G0 Y252.4125
G0 Z0.1
G1 F120.0 Z-1.0
G2 F3000.0 X1180.3063 Y252.6252 I0.0 J1.5875
G2 Y255.3748 I0.7938 J1.3748
G2 X1182.6875 Y254.0 I0.7938 J-1.3748
G2 X1181.1 Y252.4125 I-1.5875 J0.0
G0 Z12.0
G0 Y279.0031
G0 Z0.1
G1 F120.0 Z-1.0
G2 F3000.0 X1180.9016 Y279.0563 I0.0 J0.3969
G2 Y279.7437 I0.1984 J0.3437
G2 X1181.4969 Y279.4 I0.1984 J-0.3437
G2 X1181.1 Y279.0031 I-0.3969 J0.0
G1 F120.0 Y278.6063
G2 F3000.0 X1180.7031 Y278.7126 I0.0 J0.7937
G2 Y280.0874 I0.3969 J0.6874
G2 X1181.8938 Y279.4 I0.3969 J-0.6874
G2 X1181.1 Y278.6063 I-0.7937 J0.0
G0 Z12.0
G0 Y277.8125
G0 Z0.1
G1 F120.0 Z-1.0
G2 F3000.0 X1180.3063 Y278.0252 I0.0 J1.5875
G2 Y280.7748 I0.7937 J1.3748
G2 X1182.6875 Y279.4 I0.7937 J-1.3748
G2 X1181.1 Y277.8125 I-1.5875 J0.0
G0 Z12.0
G0 Y304.4031
G0 Z0.1
G1 F120.0 Z-1.0
G2 F3000.0 X1180.9016 Y304.4563 I0.0 J0.3969
G2 Y305.1437 I0.1984 J0.3437
G2 X1181.4969 Y304.8 I0.1984 J-0.3437
G2 X1181.1 Y304.4031 I-0.3969 J0.0
G1 F120.0 Y304.0063
G2 F3000.0 X1180.7031 Y304.1126 I0.0 J0.7937
G2 Y305.4874 I0.3969 J0.6874
G2 X1181.8938 Y304.8 I0.3969 J-0.6874
G2 X1181.1 Y304.0063 I-0.7937 J0.0
G0 Z12.0
G0 Y303.2125
G0 Z0.1
G1 F120.0 Z-1.0
G2 F3000.0 X1180.3063 Y303.4252 I0.0 J1.5875
G2 Y306.1748 I0.7937 J1.3748
G2 X1182.6875 Y304.8 I0.7937 J-1.3748
G2 X1181.1 Y303.2125 I-1.5875 J0.0
G0 Z12.0
G0 Y329.8031
G0 Z0.1
G1 F120.0 Z-1.0
G2 F3000.0 X1180.9016 Y329.8563 I0.0 J0.3969
G2 Y330.5437 I0.1984 J0.3437
G2 X1181.4969 Y330.2 I0.1984 J-0.3437
G2 X1181.1 Y329.8031 I-0.3969 J0.0
G1 F120.0 Y329.4062
G2 F3000.0 X1180.7031 Y329.5126 I0.0 J0.7938
G2 Y330.8874 I0.3969 J0.6874
G2 X1181.8938 Y330.2 I0.3969 J-0.6874
G2 X1181.1 Y329.4062 I-0.7938 J0.0
G1 F120.0 Y328.6125
G2 F3000.0 X1180.3063 Y328.8252 I0.0 J1.5875
G2 Y331.5748 I0.7938 J1.3748
G2 X1182.6875 Y330.2 I0.7938 J-1.3748
G2 X1181.1 Y328.6125 I-1.5875 J0.0
G0 Z12.0
G0 Y355.2031
G0 Z0.1
G1 F120.0 Z-1.0
G2 F3000.0 X1180.9016 Y355.2563 I0.0 J0.3969
G2 Y355.9437 I0.1984 J0.3437
G2 X1181.4969 Y355.6 I0.1984 J-0.3437
G2 X1181.1 Y355.2031 I-0.3969 J0.0
G1 F120.0 Y354.8063
G2 F3000.0 X1180.7031 Y354.9126 I0.0 J0.7937
G2 Y356.2874 I0.3969 J0.6874
G2 X1181.8938 Y355.6 I0.3969 J-0.6874
G2 X1181.1 Y354.8063 I-0.7937 J0.0
G0 Z12.0
G0 Y354.0125
G0 Z0.1
G1 F120.0 Z-1.0
G2 F3000.0 X1180.3063 Y354.2252 I0.0 J1.5875
G2 Y356.9748 I0.7937 J1.3748
G2 X1182.6875 Y355.6 I0.7937 J-1.3748
G2 X1181.1 Y354.0125 I-1.5875 J0.0
G0 Z12.0
G0 Y380.6031
G0 Z0.1
G1 F120.0 Z-1.0
G2 F3000.0 X1180.9016 Y380.6563 I0.0 J0.3969
G2 Y381.3437 I0.1984 J0.3437
G2 X1181.4969 Y381.0 I0.1984 J-0.3437
G2 X1181.1 Y380.6031 I-0.3969 J0.0
G1 F120.0 Y380.2063
G2 F3000.0 X1180.7031 Y380.3126 I0.0 J0.7937
G2 Y381.6874 I0.3969 J0.6874
G2 X1181.8938 Y381.0 I0.3969 J-0.6874
G2 X1181.1 Y380.2063 I-0.7937 J0.0
G0 Z12.0
G0 Y379.4125
G0 Z0.1
G1 F120.0 Z-1.0
G2 F3000.0 X1180.3063 Y379.6252 I0.0 J1.5875
G2 Y382.3748 I0.7937 J1.3748
G2 X1182.6875 Y381.0 I0.7937 J-1.3748
G2 X1181.1 Y379.4125 I-1.5875 J0.0
G0 Z12.0
G0 Y406.0031
G0 Z0.1
G1 F120.0 Z-1.0
G2 F3000.0 X1180.9016 Y406.0563 I0.0 J0.3969
G2 Y406.7437 I0.1984 J0.3437
G2 X1181.4969 Y406.4 I0.1984 J-0.3437
G2 X1181.1 Y406.0031 I-0.3969 J0.0
G1 F120.0 Y405.6062
G2 F3000.0 X1180.7031 Y405.7126 I0.0 J0.7938
G2 Y407.0874 I0.3969 J0.6874
G2 X1181.8938 Y406.4 I0.3969 J-0.6874
G2 X1181.1 Y405.6062 I-0.7938 J0.0
G1 F120.0 Y404.8125
G2 F3000.0 X1180.3063 Y405.0252 I0.0 J1.5875
G2 Y407.7748 I0.7938 J1.3748
G2 X1182.6875 Y406.4 I0.7938 J-1.3748
G2 X1181.1 Y404.8125 I-1.5875 J0.0
G0 Z12.0
G0 Y431.4031
G0 Z0.1
G1 F120.0 Z-1.0
G2 F3000.0 X1180.9016 Y431.4563 I0.0 J0.3969
G2 Y432.1437 I0.1984 J0.3437
G2 X1181.4969 Y431.8 I0.1984 J-0.3437
G2 X1181.1 Y431.4031 I-0.3969 J0.0
G1 F120.0 Y431.0062
G2 F3000.0 X1180.7031 Y431.1126 I0.0 J0.7938
G2 Y432.4874 I0.3969 J0.6874
G2 X1181.8938 Y431.8 I0.3969 J-0.6874
G2 X1181.1 Y431.0062 I-0.7938 J0.0
G1 F120.0 Y430.2125
G2 F3000.0 X1180.3063 Y430.4252 I0.0 J1.5875
G2 Y433.1748 I0.7938 J1.3748
G2 X1182.6875 Y431.8 I0.7938 J-1.3748
G2 X1181.1 Y430.2125 I-1.5875 J0.0
G0 Z12.0
G0 Y482.2031
G0 Z0.1
G1 F120.0 Z-1.0
G2 F3000.0 X1180.9016 Y482.2563 I0.0 J0.3969
G2 Y482.9437 I0.1984 J0.3437
G2 X1181.4969 Y482.6 I0.1984 J-0.3437
G2 X1181.1 Y482.2031 I-0.3969 J0.0
G1 F120.0 Y481.8063
