( Made using CamBam - http://www.cambam.co.uk )
( Top_Bottom_Panels 1/1/2020 8:47:02 PM )
( T18 : 3.175 )
G21 G90 G91.1 G64 G40
G0 Z25.0
( T18 : 3.175 )
T18 M6
( Profile1 )
G17
M3 S12000
G0 X0.0 Y-1.5875
G0 Z0.1
G1 F120.0 Z-1.0
G1 F3000.0 X292.895
G3 X294.4825 Y0.0 I0.0 J1.5875
G1 Y573.0875
G3 X292.895 Y574.675 I-1.5875 J0.0
G1 X0.0
G3 X-1.5875 Y573.0875 I0.0 J-1.5875
G1 Y0.0
G3 X0.0 Y-1.5875 I1.5875 J0.0
G1 F120.0 Z-2.0
G1 F3000.0 X292.895
G3 X294.4825 Y0.0 I0.0 J1.5875
G1 Y573.0875
G3 X292.895 Y574.675 I-1.5875 J0.0
G1 X0.0
G3 X-1.5875 Y573.0875 I0.0 J-1.5875
G1 Y0.0
G3 X0.0 Y-1.5875 I1.5875 J0.0
G1 F120.0 Z-3.0
G1 F3000.0 X292.895
G3 X294.4825 Y0.0 I0.0 J1.5875
G1 Y573.0875
G3 X292.895 Y574.675 I-1.5875 J0.0
G1 X0.0
G3 X-1.5875 Y573.0875 I0.0 J-1.5875
G1 Y0.0
G3 X0.0 Y-1.5875 I1.5875 J0.0
G1 F120.0 Z-4.0
G1 F3000.0 X292.895
G3 X294.4825 Y0.0 I0.0 J1.5875
G1 Y573.0875
G3 X292.895 Y574.675 I-1.5875 J0.0
G1 X0.0
G3 X-1.5875 Y573.0875 I0.0 J-1.5875
G1 Y0.0
G3 X0.0 Y-1.5875 I1.5875 J0.0
G1 F120.0 Z-5.0
G1 F3000.0 X292.895
G3 X294.4825 Y0.0 I0.0 J1.5875
G1 Y573.0875
G3 X292.895 Y574.675 I-1.5875 J0.0
G1 X0.0
G3 X-1.5875 Y573.0875 I0.0 J-1.5875
G1 Y0.0
G3 X0.0 Y-1.5875 I1.5875 J0.0
G1 F120.0 Z-6.0
G1 F3000.0 X292.895
G3 X294.4825 Y0.0 I0.0 J1.5875
G1 Y573.0875
G3 X292.895 Y574.675 I-1.5875 J0.0
G1 X0.0
G3 X-1.5875 Y573.0875 I0.0 J-1.5875
G1 Y0.0
G3 X0.0 Y-1.5875 I1.5875 J0.0
G1 F120.0 Z-7.0
G1 F3000.0 X292.895
G3 X294.4825 Y0.0 I0.0 J1.5875
G1 Y573.0875
G3 X292.895 Y574.675 I-1.5875 J0.0
G1 X0.0
G3 X-1.5875 Y573.0875 I0.0 J-1.5875
G1 Y0.0
G3 X0.0 Y-1.5875 I1.5875 J0.0
G1 F120.0 Z-8.0
G1 F3000.0 X292.895
G3 X294.4825 Y0.0 I0.0 J1.5875
G1 Y573.0875
G3 X292.895 Y574.675 I-1.5875 J0.0
G1 X0.0
G3 X-1.5875 Y573.0875 I0.0 J-1.5875
G1 Y0.0
G3 X0.0 Y-1.5875 I1.5875 J0.0
G1 F120.0 Z-9.0
G1 F3000.0 X292.895
G3 X294.4825 Y0.0 I0.0 J1.5875
G1 Y573.0875
G3 X292.895 Y574.675 I-1.5875 J0.0
G1 X0.0
G3 X-1.5875 Y573.0875 I0.0 J-1.5875
G1 Y0.0
G3 X0.0 Y-1.5875 I1.5875 J0.0
G1 F120.0 Z-10.0
G1 F3000.0 X292.895
G3 X294.4825 Y0.0 I0.0 J1.5875
G1 Y573.0875
G3 X292.895 Y574.675 I-1.5875 J0.0
G1 X0.0
G3 X-1.5875 Y573.0875 I0.0 J-1.5875
G1 Y0.0
G3 X0.0 Y-1.5875 I1.5875 J0.0
G1 F120.0 Z-11.0
G1 F3000.0 X20.4125
G0 Z-10.0
G1 X29.5875
G1 F120.0 Z-11.0
G1 F3000.0 X70.4125
G0 Z-10.0
G1 X79.5875
G1 F120.0 Z-11.0
G1 F3000.0 X120.4125
G0 Z-10.0
G1 X129.5875
G1 F120.0 Z-11.0
G1 F3000.0 X170.4125
G0 Z-10.0
G1 X179.5875
G1 F120.0 Z-11.0
G1 F3000.0 X220.4125
G0 Z-10.0
G1 X229.5875
G1 F120.0 Z-11.0
G1 F3000.0 X270.4125
G0 Z-10.0
G1 X279.5875
G1 F120.0 Z-11.0
G1 F3000.0 X292.895
G3 X294.4825 Y0.0 I0.0 J1.5875
G1 Y27.5175
G0 Z-10.0
G1 Y36.6925
G1 F120.0 Z-11.0
G1 F3000.0 Y77.5175
G0 Z-10.0
G1 Y86.6925
G1 F120.0 Z-11.0
G1 F3000.0 Y127.5175
G0 Z-10.0
G1 Y136.6925
G1 F120.0 Z-11.0
G1 F3000.0 Y177.5175
G0 Z-10.0
G1 Y186.6925
G1 F120.0 Z-11.0
G1 F3000.0 Y227.5175
G0 Z-10.0
G1 Y236.6925
G1 F120.0 Z-11.0
G1 F3000.0 Y277.5175
G0 Z-10.0
G1 Y286.6925
G1 F120.0 Z-11.0
G1 F3000.0 Y327.5175
G0 Z-10.0
G1 Y336.6925
G1 F120.0 Z-11.0
G1 F3000.0 Y377.5175
G0 Z-10.0
G1 Y386.6925
G1 F120.0 Z-11.0
G1 F3000.0 Y427.5175
G0 Z-10.0
G1 Y436.6925
G1 F120.0 Z-11.0
G1 F3000.0 Y477.5175
G0 Z-10.0
G1 Y486.6925
G1 F120.0 Z-11.0
G1 F3000.0 Y527.5175
G0 Z-10.0
G1 Y536.6925
G1 F120.0 Z-11.0
G1 F3000.0 Y573.0875
G3 X292.895 Y574.675 I-1.5875 J0.0
G1 X288.465
G0 Z-10.0
G1 X279.29
G1 F120.0 Z-11.0
G1 F3000.0 X238.465
G0 Z-10.0
G1 X229.29
G1 F120.0 Z-11.0
G1 F3000.0 X188.465
G0 Z-10.0
G1 X179.29
G1 F120.0 Z-11.0
G1 F3000.0 X138.465
G0 Z-10.0
G1 X129.29
G1 F120.0 Z-11.0
G1 F3000.0 X88.465
G0 Z-10.0
G1 X79.29
G1 F120.0 Z-11.0
G1 F3000.0 X38.465
G0 Z-10.0
G1 X29.29
G1 F120.0 Z-11.0
G1 F3000.0 X0.0
G3 X-1.5875 Y573.0875 I0.0 J-1.5875
G1 Y561.5525
G0 Z-10.0
G1 Y552.3775
G1 F120.0 Z-11.0
G1 F3000.0 Y511.5525
G0 Z-10.0
G1 Y502.3775
G1 F120.0 Z-11.0
G1 F3000.0 Y461.5525
G0 Z-10.0
G1 Y452.3775
G1 F120.0 Z-11.0
G1 F3000.0 Y411.5525
G0 Z-10.0
G1 Y402.3775
G1 F120.0 Z-11.0
G1 F3000.0 Y361.5525
G0 Z-10.0
G1 Y352.3775
G1 F120.0 Z-11.0
G1 F3000.0 Y311.5525
G0 Z-10.0
G1 Y302.3775
G1 F120.0 Z-11.0
G1 F3000.0 Y261.5525
G0 Z-10.0
G1 Y252.3775
G1 F120.0 Z-11.0
G1 F3000.0 Y211.5525
G0 Z-10.0
G1 Y202.3775
G1 F120.0 Z-11.0
G1 F3000.0 Y161.5525
G0 Z-10.0
G1 Y152.3775
G1 F120.0 Z-11.0
G1 F3000.0 Y111.5525
G0 Z-10.0
G1 Y102.3775
G1 F120.0 Z-11.0
G1 F3000.0 Y61.5525
G0 Z-10.0
G1 Y52.3775
G1 F120.0 Z-11.0
G1 F3000.0 Y11.5525
G0 Z-10.0
G1 Y2.3775
G1 F120.0 Z-11.0
G1 F3000.0 Y0.0
G3 X0.0 Y-1.5875 I1.5875 J0.0
G1 F120.0 Z-12.0
G1 F3000.0 X20.4125
G0 Z-10.0
G1 X29.5875
G0 Z-10.9
G1 F120.0 Z-12.0
G1 F3000.0 X70.4125
G0 Z-10.0
G1 X79.5875
G0 Z-10.9
G1 F120.0 Z-12.0
G1 F3000.0 X120.4125
G0 Z-10.0
G1 X129.5875
G0 Z-10.9
G1 F120.0 Z-12.0
G1 F3000.0 X170.4125
G0 Z-10.0
G1 X179.5875
G0 Z-10.9
G1 F120.0 Z-12.0
G1 F3000.0 X220.4125
G0 Z-10.0
G1 X229.5875
G0 Z-10.9
G1 F120.0 Z-12.0
G1 F3000.0 X270.4125
G0 Z-10.0
G1 X279.5875
G0 Z-10.9
G1 F120.0 Z-12.0
G1 F3000.0 X292.895
G3 X294.4825 Y0.0 I0.0 J1.5875
G1 Y27.5175
G0 Z-10.0
G1 Y36.6925
G0 Z-10.9
G1 F120.0 Z-12.0
G1 F3000.0 Y77.5175
G0 Z-10.0
G1 Y86.6925
G0 Z-10.9
G1 F120.0 Z-12.0
G1 F3000.0 Y127.5175
G0 Z-10.0
G1 Y136.6925
G0 Z-10.9
G1 F120.0 Z-12.0
G1 F3000.0 Y177.5175
G0 Z-10.0
G1 Y186.6925
G0 Z-10.9
G1 F120.0 Z-12.0
G1 F3000.0 Y227.5175
G0 Z-10.0
G1 Y236.6925
G0 Z-10.9
G1 F120.0 Z-12.0
G1 F3000.0 Y277.5175
G0 Z-10.0
G1 Y286.6925
G0 Z-10.9
G1 F120.0 Z-12.0
G1 F3000.0 Y327.5175
G0 Z-10.0
G1 Y336.6925
G0 Z-10.9
G1 F120.0 Z-12.0
G1 F3000.0 Y377.5175
G0 Z-10.0
G1 Y386.6925
G0 Z-10.9
G1 F120.0 Z-12.0
G1 F3000.0 Y427.5175
G0 Z-10.0
G1 Y436.6925
G0 Z-10.9
G1 F120.0 Z-12.0
G1 F3000.0 Y477.5175
G0 Z-10.0
G1 Y486.6925
G0 Z-10.9
G1 F120.0 Z-12.0
G1 F3000.0 Y527.5175
G0 Z-10.0
G1 Y536.6925
G0 Z-10.9
G1 F120.0 Z-12.0
G1 F3000.0 Y573.0875
G3 X292.895 Y574.675 I-1.5875 J0.0
G1 X288.465
G0 Z-10.0
G1 X279.29
G0 Z-10.9
G1 F120.0 Z-12.0
G1 F3000.0 X238.465
G0 Z-10.0
G1 X229.29
G0 Z-10.9
G1 F120.0 Z-12.0
G1 F3000.0 X188.465
G0 Z-10.0
G1 X179.29
G0 Z-10.9
G1 F120.0 Z-12.0
G1 F3000.0 X138.465
G0 Z-10.0
G1 X129.29
G0 Z-10.9
G1 F120.0 Z-12.0
G1 F3000.0 X88.465
G0 Z-10.0
G1 X79.29
G0 Z-10.9
G1 F120.0 Z-12.0
G1 F3000.0 X38.465
G0 Z-10.0
G1 X29.29
G0 Z-10.9
G1 F120.0 Z-12.0
G1 F3000.0 X0.0
G3 X-1.5875 Y573.0875 I0.0 J-1.5875
G1 Y561.5525
G0 Z-10.0
G1 Y552.3775
G0 Z-10.9
G1 F120.0 Z-12.0
G1 F3000.0 Y511.5525
G0 Z-10.0
G1 Y502.3775
G0 Z-10.9
G1 F120.0 Z-12.0
G1 F3000.0 Y461.5525
G0 Z-10.0
G1 Y452.3775
G0 Z-10.9
G1 F120.0 Z-12.0
G1 F3000.0 Y411.5525
G0 Z-10.0
G1 Y402.3775
G0 Z-10.9
G1 F120.0 Z-12.0
G1 F3000.0 Y361.5525
G0 Z-10.0
G1 Y352.3775
G0 Z-10.9
G1 F120.0 Z-12.0
G1 F3000.0 Y311.5525
G0 Z-10.0
G1 Y302.3775
G0 Z-10.9
G1 F120.0 Z-12.0
G1 F3000.0 Y261.5525
G0 Z-10.0
G1 Y252.3775
G0 Z-10.9
G1 F120.0 Z-12.0
G1 F3000.0 Y211.5525
G0 Z-10.0
G1 Y202.3775
G0 Z-10.9
G1 F120.0 Z-12.0
G1 F3000.0 Y161.5525
G0 Z-10.0
G1 Y152.3775
G0 Z-10.9
G1 F120.0 Z-12.0
G1 F3000.0 Y111.5525
G0 Z-10.0
G1 Y102.3775
G0 Z-10.9
G1 F120.0 Z-12.0
G1 F3000.0 Y61.5525
G0 Z-10.0
G1 Y52.3775
G0 Z-10.9
G1 F120.0 Z-12.0
G1 F3000.0 Y11.5525
G0 Z-10.0
G1 Y2.3775
G0 Z-10.9
G1 F120.0 Z-12.0
G1 F3000.0 Y0.0
G3 X0.0 Y-1.5875 I1.5875 J0.0
G1 F120.0 Z-13.0
G1 F3000.0 X20.4125
G0 Z-10.0
G1 X29.5875
G0 Z-11.9
G1 F120.0 Z-13.0
G1 F3000.0 X70.4125
G0 Z-10.0
G1 X79.5875
G0 Z-11.9
G1 F120.0 Z-13.0
G1 F3000.0 X120.4125
G0 Z-10.0
G1 X129.5875
G0 Z-11.9
G1 F120.0 Z-13.0
G1 F3000.0 X170.4125
G0 Z-10.0
G1 X179.5875
G0 Z-11.9
G1 F120.0 Z-13.0
G1 F3000.0 X220.4125
G0 Z-10.0
G1 X229.5875
G0 Z-11.9
G1 F120.0 Z-13.0
G1 F3000.0 X270.4125
G0 Z-10.0
G1 X279.5875
G0 Z-11.9
G1 F120.0 Z-13.0
G1 F3000.0 X292.895
G3 X294.4825 Y0.0 I0.0 J1.5875
G1 Y27.5175
G0 Z-10.0
G1 Y36.6925
G0 Z-11.9
G1 F120.0 Z-13.0
G1 F3000.0 Y77.5175
G0 Z-10.0
G1 Y86.6925
G0 Z-11.9
G1 F120.0 Z-13.0
G1 F3000.0 Y127.5175
G0 Z-10.0
G1 Y136.6925
G0 Z-11.9
G1 F120.0 Z-13.0
G1 F3000.0 Y177.5175
G0 Z-10.0
G1 Y186.6925
G0 Z-11.9
G1 F120.0 Z-13.0
G1 F3000.0 Y227.5175
G0 Z-10.0
G1 Y236.6925
G0 Z-11.9
G1 F120.0 Z-13.0
G1 F3000.0 Y277.5175
G0 Z-10.0
G1 Y286.6925
G0 Z-11.9
G1 F120.0 Z-13.0
G1 F3000.0 Y327.5175
G0 Z-10.0
G1 Y336.6925
G0 Z-11.9
G1 F120.0 Z-13.0
G1 F3000.0 Y377.5175
G0 Z-10.0
G1 Y386.6925
G0 Z-11.9
G1 F120.0 Z-13.0
G1 F3000.0 Y427.5175
G0 Z-10.0
G1 Y436.6925
G0 Z-11.9
G1 F120.0 Z-13.0
G1 F3000.0 Y477.5175
G0 Z-10.0
G1 Y486.6925
G0 Z-11.9
G1 F120.0 Z-13.0
G1 F3000.0 Y527.5175
G0 Z-10.0
G1 Y536.6925
G0 Z-11.9
G1 F120.0 Z-13.0
G1 F3000.0 Y573.0875
G3 X292.895 Y574.675 I-1.5875 J0.0
G1 X288.465
G0 Z-10.0
G1 X279.29
G0 Z-11.9
G1 F120.0 Z-13.0
G1 F3000.0 X238.465
G0 Z-10.0
G1 X229.29
G0 Z-11.9
G1 F120.0 Z-13.0
G1 F3000.0 X188.465
G0 Z-10.0
G1 X179.29
G0 Z-11.9
G1 F120.0 Z-13.0
G1 F3000.0 X138.465
G0 Z-10.0
G1 X129.29
G0 Z-11.9
G1 F120.0 Z-13.0
G1 F3000.0 X88.465
G0 Z-10.0
G1 X79.29
G0 Z-11.9
G1 F120.0 Z-13.0
G1 F3000.0 X38.465
G0 Z-10.0
G1 X29.29
G0 Z-11.9
G1 F120.0 Z-13.0
G1 F3000.0 X0.0
G3 X-1.5875 Y573.0875 I0.0 J-1.5875
G1 Y561.5525
G0 Z-10.0
G1 Y552.3775
G0 Z-11.9
G1 F120.0 Z-13.0
G1 F3000.0 Y511.5525
G0 Z-10.0
G1 Y502.3775
G0 Z-11.9
G1 F120.0 Z-13.0
G1 F3000.0 Y461.5525
G0 Z-10.0
G1 Y452.3775
G0 Z-11.9
G1 F120.0 Z-13.0
G1 F3000.0 Y411.5525
G0 Z-10.0
G1 Y402.3775
G0 Z-11.9
G1 F120.0 Z-13.0
G1 F3000.0 Y361.5525
G0 Z-10.0
G1 Y352.3775
G0 Z-11.9
G1 F120.0 Z-13.0
G1 F3000.0 Y311.5525
G0 Z-10.0
G1 Y302.3775
G0 Z-11.9
G1 F120.0 Z-13.0
G1 F3000.0 Y261.5525
G0 Z-10.0
G1 Y252.3775
G0 Z-11.9
G1 F120.0 Z-13.0
G1 F3000.0 Y211.5525
G0 Z-10.0
G1 Y202.3775
G0 Z-11.9
G1 F120.0 Z-13.0
G1 F3000.0 Y161.5525
G0 Z-10.0
G1 Y152.3775
G0 Z-11.9
G1 F120.0 Z-13.0
G1 F3000.0 Y111.5525
G0 Z-10.0
G1 Y102.3775
G0 Z-11.9
G1 F120.0 Z-13.0
G1 F3000.0 Y61.5525
G0 Z-10.0
G1 Y52.3775
G0 Z-11.9
G1 F120.0 Z-13.0
G1 F3000.0 Y11.5525
G0 Z-10.0
G1 Y2.3775
G0 Z-11.9
G1 F120.0 Z-13.0
G1 F3000.0 Y0.0
G3 X0.0 Y-1.5875 I1.5875 J0.0
G1 F120.0 Z-14.0
G1 F3000.0 X20.4125
G0 Z-10.0
G1 X29.5875
G0 Z-12.9
G1 F120.0 Z-14.0
G1 F3000.0 X70.4125
G0 Z-10.0
G1 X79.5875
G0 Z-12.9
G1 F120.0 Z-14.0
G1 F3000.0 X120.4125
G0 Z-10.0
G1 X129.5875
G0 Z-12.9
G1 F120.0 Z-14.0
G1 F3000.0 X170.4125
G0 Z-10.0
G1 X179.5875
G0 Z-12.9
G1 F120.0 Z-14.0
G1 F3000.0 X220.4125
G0 Z-10.0
G1 X229.5875
G0 Z-12.9
G1 F120.0 Z-14.0
G1 F3000.0 X270.4125
G0 Z-10.0
G1 X279.5875
G0 Z-12.9
G1 F120.0 Z-14.0
G1 F3000.0 X292.895
G3 X294.4825 Y0.0 I0.0 J1.5875
G1 Y27.5175
G0 Z-10.0
G1 Y36.6925
G0 Z-12.9
G1 F120.0 Z-14.0
G1 F3000.0 Y77.5175
G0 Z-10.0
G1 Y86.6925
G0 Z-12.9
G1 F120.0 Z-14.0
G1 F3000.0 Y127.5175
G0 Z-10.0
G1 Y136.6925
G0 Z-12.9
G1 F120.0 Z-14.0
G1 F3000.0 Y177.5175
G0 Z-10.0
G1 Y186.6925
G0 Z-12.9
G1 F120.0 Z-14.0
G1 F3000.0 Y227.5175
G0 Z-10.0
G1 Y236.6925
G0 Z-12.9
G1 F120.0 Z-14.0
G1 F3000.0 Y277.5175
G0 Z-10.0
G1 Y286.6925
G0 Z-12.9
G1 F120.0 Z-14.0
G1 F3000.0 Y327.5175
G0 Z-10.0
G1 Y336.6925
G0 Z-12.9
G1 F120.0 Z-14.0
G1 F3000.0 Y377.5175
G0 Z-10.0
G1 Y386.6925
G0 Z-12.9
G1 F120.0 Z-14.0
G1 F3000.0 Y427.5175
G0 Z-10.0
G1 Y436.6925
G0 Z-12.9
G1 F120.0 Z-14.0
G1 F3000.0 Y477.5175
G0 Z-10.0
G1 Y486.6925
G0 Z-12.9
G1 F120.0 Z-14.0
G1 F3000.0 Y527.5175
G0 Z-10.0
G1 Y536.6925
G0 Z-12.9
G1 F120.0 Z-14.0
G1 F3000.0 Y573.0875
G3 X292.895 Y574.675 I-1.5875 J0.0
G1 X288.465
G0 Z-10.0
G1 X279.29
G0 Z-12.9
G1 F120.0 Z-14.0
G1 F3000.0 X238.465
G0 Z-10.0
G1 X229.29
G0 Z-12.9
G1 F120.0 Z-14.0
G1 F3000.0 X188.465
G0 Z-10.0
G1 X179.29
G0 Z-12.9
G1 F120.0 Z-14.0
G1 F3000.0 X138.465
G0 Z-10.0
G1 X129.29
G0 Z-12.9
G1 F120.0 Z-14.0
G1 F3000.0 X88.465
G0 Z-10.0
G1 X79.29
G0 Z-12.9
G1 F120.0 Z-14.0
G1 F3000.0 X38.465
G0 Z-10.0
G1 X29.29
G0 Z-12.9
G1 F120.0 Z-14.0
G1 F3000.0 X0.0
G3 X-1.5875 Y573.0875 I0.0 J-1.5875
G1 Y561.5525
G0 Z-10.0
G1 Y552.3775
G0 Z-12.9
G1 F120.0 Z-14.0
G1 F3000.0 Y511.5525
G0 Z-10.0
G1 Y502.3775
G0 Z-12.9
G1 F120.0 Z-14.0
G1 F3000.0 Y461.5525
G0 Z-10.0
G1 Y452.3775
G0 Z-12.9
G1 F120.0 Z-14.0
G1 F3000.0 Y411.5525
G0 Z-10.0
G1 Y402.3775
G0 Z-12.9
G1 F120.0 Z-14.0
G1 F3000.0 Y361.5525
G0 Z-10.0
G1 Y352.3775
G0 Z-12.9
G1 F120.0 Z-14.0
G1 F3000.0 Y311.5525
G0 Z-10.0
G1 Y302.3775
G0 Z-12.9
G1 F120.0 Z-14.0
G1 F3000.0 Y261.5525
G0 Z-10.0
G1 Y252.3775
G0 Z-12.9
G1 F120.0 Z-14.0
G1 F3000.0 Y211.5525
G0 Z-10.0
G1 Y202.3775
G0 Z-12.9
G1 F120.0 Z-14.0
G1 F3000.0 Y161.5525
G0 Z-10.0
G1 Y152.3775
G0 Z-12.9
G1 F120.0 Z-14.0
G1 F3000.0 Y111.5525
G0 Z-10.0
G1 Y102.3775
G0 Z-12.9
G1 F120.0 Z-14.0
G1 F3000.0 Y61.5525
G0 Z-10.0
G1 Y52.3775
G0 Z-12.9
G1 F120.0 Z-14.0
G1 F3000.0 Y11.5525
G0 Z-10.0
G1 Y2.3775
G0 Z-12.9
G1 F120.0 Z-14.0
G1 F3000.0 Y0.0
G3 X0.0 Y-1.5875 I1.5875 J0.0
G1 F120.0 Z-15.0
G1 F3000.0 X20.4125
G0 Z-10.0
G1 X29.5875
G0 Z-13.9
G1 F120.0 Z-15.0
G1 F3000.0 X70.4125
G0 Z-10.0
G1 X79.5875
G0 Z-13.9
G1 F120.0 Z-15.0
G1 F3000.0 X120.4125
G0 Z-10.0
G1 X129.5875
G0 Z-13.9
G1 F120.0 Z-15.0
G1 F3000.0 X170.4125
G0 Z-10.0
G1 X179.5875
G0 Z-13.9
G1 F120.0 Z-15.0
G1 F3000.0 X220.4125
G0 Z-10.0
G1 X229.5875
G0 Z-13.9
G1 F120.0 Z-15.0
G1 F3000.0 X270.4125
G0 Z-10.0
G1 X279.5875
G0 Z-13.9
G1 F120.0 Z-15.0
G1 F3000.0 X292.895
G3 X294.4825 Y0.0 I0.0 J1.5875
G1 Y27.5175
G0 Z-10.0
G1 Y36.6925
G0 Z-13.9
G1 F120.0 Z-15.0
G1 F3000.0 Y77.5175
G0 Z-10.0
G1 Y86.6925
G0 Z-13.9
G1 F120.0 Z-15.0
G1 F3000.0 Y127.5175
G0 Z-10.0
G1 Y136.6925
G0 Z-13.9
G1 F120.0 Z-15.0
G1 F3000.0 Y177.5175
G0 Z-10.0
G1 Y186.6925
G0 Z-13.9
G1 F120.0 Z-15.0
G1 F3000.0 Y227.5175
G0 Z-10.0
G1 Y236.6925
G0 Z-13.9
G1 F120.0 Z-15.0
G1 F3000.0 Y277.5175
G0 Z-10.0
G1 Y286.6925
G0 Z-13.9
G1 F120.0 Z-15.0
G1 F3000.0 Y327.5175
G0 Z-10.0
G1 Y336.6925
G0 Z-13.9
G1 F120.0 Z-15.0
G1 F3000.0 Y377.5175
G0 Z-10.0
G1 Y386.6925
G0 Z-13.9
G1 F120.0 Z-15.0
G1 F3000.0 Y427.5175
G0 Z-10.0
G1 Y436.6925
G0 Z-13.9
G1 F120.0 Z-15.0
G1 F3000.0 Y477.5175
G0 Z-10.0
G1 Y486.6925
G0 Z-13.9
G1 F120.0 Z-15.0
G1 F3000.0 Y527.5175
G0 Z-10.0
G1 Y536.6925
G0 Z-13.9
G1 F120.0 Z-15.0
G1 F3000.0 Y573.0875
G3 X292.895 Y574.675 I-1.5875 J0.0
G1 X288.465
G0 Z-10.0
G1 X279.29
G0 Z-13.9
G1 F120.0 Z-15.0
G1 F3000.0 X238.465
G0 Z-10.0
G1 X229.29
G0 Z-13.9
G1 F120.0 Z-15.0
G1 F3000.0 X188.465
G0 Z-10.0
G1 X179.29
G0 Z-13.9
G1 F120.0 Z-15.0
G1 F3000.0 X138.465
G0 Z-10.0
G1 X129.29
G0 Z-13.9
G1 F120.0 Z-15.0
G1 F3000.0 X88.465
G0 Z-10.0
G1 X79.29
G0 Z-13.9
G1 F120.0 Z-15.0
G1 F3000.0 X38.465
G0 Z-10.0
G1 X29.29
G0 Z-13.9
G1 F120.0 Z-15.0
G1 F3000.0 X0.0
G3 X-1.5875 Y573.0875 I0.0 J-1.5875
G1 Y561.5525
G0 Z-10.0
G1 Y552.3775
G0 Z-13.9
G1 F120.0 Z-15.0
G1 F3000.0 Y511.5525
G0 Z-10.0
G1 Y502.3775
G0 Z-13.9
G1 F120.0 Z-15.0
G1 F3000.0 Y461.5525
G0 Z-10.0
G1 Y452.3775
G0 Z-13.9
G1 F120.0 Z-15.0
G1 F3000.0 Y411.5525
G0 Z-10.0
G1 Y402.3775
G0 Z-13.9
G1 F120.0 Z-15.0
G1 F3000.0 Y361.5525
G0 Z-10.0
G1 Y352.3775
G0 Z-13.9
G1 F120.0 Z-15.0
G1 F3000.0 Y311.5525
G0 Z-10.0
G1 Y302.3775
G0 Z-13.9
G1 F120.0 Z-15.0
G1 F3000.0 Y261.5525
G0 Z-10.0
G1 Y252.3775
G0 Z-13.9
G1 F120.0 Z-15.0
G1 F3000.0 Y211.5525
G0 Z-10.0
G1 Y202.3775
G0 Z-13.9
G1 F120.0 Z-15.0
G1 F3000.0 Y161.5525
G0 Z-10.0
G1 Y152.3775
G0 Z-13.9
G1 F120.0 Z-15.0
G1 F3000.0 Y111.5525
G0 Z-10.0
G1 Y102.3775
G0 Z-13.9
G1 F120.0 Z-15.0
G1 F3000.0 Y61.5525
G0 Z-10.0
G1 Y52.3775
G0 Z-13.9
G1 F120.0 Z-15.0
G1 F3000.0 Y11.5525
G0 Z-10.0
G1 Y2.3775
G0 Z-13.9
G1 F120.0 Z-15.0
G1 F3000.0 Y0.0
G3 X0.0 Y-1.5875 I1.5875 J0.0
G1 F120.0 Z-16.0
G1 F3000.0 X20.4125
G0 Z-10.0
G1 X29.5875
G0 Z-14.9
G1 F120.0 Z-16.0
G1 F3000.0 X70.4125
G0 Z-10.0
G1 X79.5875
G0 Z-14.9
G1 F120.0 Z-16.0
G1 F3000.0 X120.4125
G0 Z-10.0
G1 X129.5875
G0 Z-14.9
G1 F120.0 Z-16.0
G1 F3000.0 X170.4125
G0 Z-10.0
G1 X179.5875
G0 Z-14.9
G1 F120.0 Z-16.0
G1 F3000.0 X220.4125
G0 Z-10.0
G1 X229.5875
G0 Z-14.9
G1 F120.0 Z-16.0
G1 F3000.0 X270.4125
G0 Z-10.0
G1 X279.5875
G0 Z-14.9
G1 F120.0 Z-16.0
G1 F3000.0 X292.895
G3 X294.4825 Y0.0 I0.0 J1.5875
G1 Y27.5175
G0 Z-10.0
G1 Y36.6925
G0 Z-14.9
G1 F120.0 Z-16.0
G1 F3000.0 Y77.5175
G0 Z-10.0
G1 Y86.6925
G0 Z-14.9
G1 F120.0 Z-16.0
G1 F3000.0 Y127.5175
G0 Z-10.0
G1 Y136.6925
G0 Z-14.9
G1 F120.0 Z-16.0
G1 F3000.0 Y177.5175
G0 Z-10.0
G1 Y186.6925
G0 Z-14.9
G1 F120.0 Z-16.0
G1 F3000.0 Y227.5175
G0 Z-10.0
G1 Y236.6925
G0 Z-14.9
G1 F120.0 Z-16.0
G1 F3000.0 Y277.5175
G0 Z-10.0
G1 Y286.6925
G0 Z-14.9
G1 F120.0 Z-16.0
G1 F3000.0 Y327.5175
G0 Z-10.0
G1 Y336.6925
G0 Z-14.9
G1 F120.0 Z-16.0
G1 F3000.0 Y377.5175
G0 Z-10.0
G1 Y386.6925
G0 Z-14.9
G1 F120.0 Z-16.0
G1 F3000.0 Y427.5175
G0 Z-10.0
G1 Y436.6925
G0 Z-14.9
G1 F120.0 Z-16.0
G1 F3000.0 Y477.5175
G0 Z-10.0
G1 Y486.6925
G0 Z-14.9
G1 F120.0 Z-16.0
G1 F3000.0 Y527.5175
G0 Z-10.0
G1 Y536.6925
G0 Z-14.9
G1 F120.0 Z-16.0
G1 F3000.0 Y573.0875
G3 X292.895 Y574.675 I-1.5875 J0.0
G1 X288.465
G0 Z-10.0
G1 X279.29
G0 Z-14.9
G1 F120.0 Z-16.0
G1 F3000.0 X238.465
G0 Z-10.0
G1 X229.29
G0 Z-14.9
G1 F120.0 Z-16.0
G1 F3000.0 X188.465
G0 Z-10.0
G1 X179.29
G0 Z-14.9
G1 F120.0 Z-16.0
G1 F3000.0 X138.465
G0 Z-10.0
G1 X129.29
G0 Z-14.9
G1 F120.0 Z-16.0
G1 F3000.0 X88.465
G0 Z-10.0
G1 X79.29
G0 Z-14.9
G1 F120.0 Z-16.0
G1 F3000.0 X38.465
G0 Z-10.0
G1 X29.29
G0 Z-14.9
G1 F120.0 Z-16.0
G1 F3000.0 X0.0
G3 X-1.5875 Y573.0875 I0.0 J-1.5875
G1 Y561.5525
G0 Z-10.0
G1 Y552.3775
G0 Z-14.9
G1 F120.0 Z-16.0
G1 F3000.0 Y511.5525
G0 Z-10.0
G1 Y502.3775
G0 Z-14.9
G1 F120.0 Z-16.0
G1 F3000.0 Y461.5525
G0 Z-10.0
G1 Y452.3775
G0 Z-14.9
G1 F120.0 Z-16.0
G1 F3000.0 Y411.5525
G0 Z-10.0
G1 Y402.3775
G0 Z-14.9
G1 F120.0 Z-16.0
G1 F3000.0 Y361.5525
G0 Z-10.0
G1 Y352.3775
G0 Z-14.9
G1 F120.0 Z-16.0
G1 F3000.0 Y311.5525
G0 Z-10.0
G1 Y302.3775
G0 Z-14.9
G1 F120.0 Z-16.0
G1 F3000.0 Y261.5525
G0 Z-10.0
G1 Y252.3775
G0 Z-14.9
G1 F120.0 Z-16.0
G1 F3000.0 Y211.5525
G0 Z-10.0
G1 Y202.3775
G0 Z-14.9
G1 F120.0 Z-16.0
G1 F3000.0 Y161.5525
G0 Z-10.0
G1 Y152.3775
G0 Z-14.9
G1 F120.0 Z-16.0
G1 F3000.0 Y111.5525
G0 Z-10.0
G1 Y102.3775
G0 Z-14.9
G1 F120.0 Z-16.0
G1 F3000.0 Y61.5525
G0 Z-10.0
G1 Y52.3775
G0 Z-14.9
G1 F120.0 Z-16.0
G1 F3000.0 Y11.5525
G0 Z-10.0
G1 Y2.3775
G0 Z-14.9
G1 F120.0 Z-16.0
G1 F3000.0 Y0.0
G3 X0.0 Y-1.5875 I1.5875 J0.0
G1 F120.0 Z-17.0
G1 F3000.0 X20.4125
G0 Z-10.0
G1 X29.5875
G0 Z-15.9
G1 F120.0 Z-17.0
G1 F3000.0 X70.4125
G0 Z-10.0
G1 X79.5875
G0 Z-15.9
G1 F120.0 Z-17.0
G1 F3000.0 X120.4125
G0 Z-10.0
G1 X129.5875
G0 Z-15.9
G1 F120.0 Z-17.0
G1 F3000.0 X170.4125
G0 Z-10.0
G1 X179.5875
G0 Z-15.9
G1 F120.0 Z-17.0
G1 F3000.0 X220.4125
G0 Z-10.0
G1 X229.5875
G0 Z-15.9
G1 F120.0 Z-17.0
G1 F3000.0 X270.4125
G0 Z-10.0
G1 X279.5875
G0 Z-15.9
G1 F120.0 Z-17.0
G1 F3000.0 X292.895
G3 X294.4825 Y0.0 I0.0 J1.5875
G1 Y27.5175
G0 Z-10.0
G1 Y36.6925
G0 Z-15.9
G1 F120.0 Z-17.0
G1 F3000.0 Y77.5175
G0 Z-10.0
G1 Y86.6925
G0 Z-15.9
G1 F120.0 Z-17.0
G1 F3000.0 Y127.5175
G0 Z-10.0
G1 Y136.6925
G0 Z-15.9
G1 F120.0 Z-17.0
G1 F3000.0 Y177.5175
G0 Z-10.0
G1 Y186.6925
G0 Z-15.9
G1 F120.0 Z-17.0
G1 F3000.0 Y227.5175
G0 Z-10.0
G1 Y236.6925
G0 Z-15.9
G1 F120.0 Z-17.0
G1 F3000.0 Y277.5175
G0 Z-10.0
G1 Y286.6925
G0 Z-15.9
G1 F120.0 Z-17.0
G1 F3000.0 Y327.5175
G0 Z-10.0
G1 Y336.6925
G0 Z-15.9
G1 F120.0 Z-17.0
G1 F3000.0 Y377.5175
G0 Z-10.0
G1 Y386.6925
G0 Z-15.9
G1 F120.0 Z-17.0
G1 F3000.0 Y427.5175
G0 Z-10.0
G1 Y436.6925
G0 Z-15.9
G1 F120.0 Z-17.0
G1 F3000.0 Y477.5175
G0 Z-10.0
G1 Y486.6925
G0 Z-15.9
G1 F120.0 Z-17.0
G1 F3000.0 Y527.5175
G0 Z-10.0
G1 Y536.6925
G0 Z-15.9
G1 F120.0 Z-17.0
G1 F3000.0 Y573.0875
G3 X292.895 Y574.675 I-1.5875 J0.0
G1 X288.465
G0 Z-10.0
G1 X279.29
G0 Z-15.9
G1 F120.0 Z-17.0
G1 F3000.0 X238.465
G0 Z-10.0
G1 X229.29
G0 Z-15.9
G1 F120.0 Z-17.0
G1 F3000.0 X188.465
G0 Z-10.0
G1 X179.29
G0 Z-15.9
G1 F120.0 Z-17.0
G1 F3000.0 X138.465
G0 Z-10.0
G1 X129.29
G0 Z-15.9
G1 F120.0 Z-17.0
G1 F3000.0 X88.465
G0 Z-10.0
G1 X79.29
G0 Z-15.9
G1 F120.0 Z-17.0
G1 F3000.0 X38.465
G0 Z-10.0
G1 X29.29
G0 Z-15.9
G1 F120.0 Z-17.0
G1 F3000.0 X0.0
G3 X-1.5875 Y573.0875 I0.0 J-1.5875
G1 Y561.5525
G0 Z-10.0
G1 Y552.3775
G0 Z-15.9
G1 F120.0 Z-17.0
G1 F3000.0 Y511.5525
G0 Z-10.0
G1 Y502.3775
G0 Z-15.9
G1 F120.0 Z-17.0
G1 F3000.0 Y461.5525
G0 Z-10.0
G1 Y452.3775
G0 Z-15.9
G1 F120.0 Z-17.0
G1 F3000.0 Y411.5525
G0 Z-10.0
G1 Y402.3775
G0 Z-15.9
G1 F120.0 Z-17.0
G1 F3000.0 Y361.5525
G0 Z-10.0
G1 Y352.3775
G0 Z-15.9
G1 F120.0 Z-17.0
G1 F3000.0 Y311.5525
G0 Z-10.0
G1 Y302.3775
G0 Z-15.9
G1 F120.0 Z-17.0
G1 F3000.0 Y261.5525
G0 Z-10.0
G1 Y252.3775
G0 Z-15.9
G1 F120.0 Z-17.0
G1 F3000.0 Y211.5525
G0 Z-10.0
G1 Y202.3775
G0 Z-15.9
G1 F120.0 Z-17.0
G1 F3000.0 Y161.5525
G0 Z-10.0
G1 Y152.3775
G0 Z-15.9
G1 F120.0 Z-17.0
G1 F3000.0 Y111.5525
G0 Z-10.0
G1 Y102.3775
G0 Z-15.9
G1 F120.0 Z-17.0
G1 F3000.0 Y61.5525
G0 Z-10.0
G1 Y52.3775
G0 Z-15.9
G1 F120.0 Z-17.0
G1 F3000.0 Y11.5525
G0 Z-10.0
G1 Y2.3775
G0 Z-15.9
G1 F120.0 Z-17.0
G1 F3000.0 Y0.0
G3 X0.0 Y-1.5875 I1.5875 J0.0
G1 F120.0 Z-18.0
G1 F3000.0 X20.4125
G0 Z-10.0
G1 X29.5875
G0 Z-16.9
G1 F120.0 Z-18.0
G1 F3000.0 X70.4125
G0 Z-10.0
G1 X79.5875
G0 Z-16.9
G1 F120.0 Z-18.0
G1 F3000.0 X120.4125
G0 Z-10.0
G1 X129.5875
G0 Z-16.9
G1 F120.0 Z-18.0
G1 F3000.0 X170.4125
G0 Z-10.0
G1 X179.5875
G0 Z-16.9
G1 F120.0 Z-18.0
G1 F3000.0 X220.4125
G0 Z-10.0
G1 X229.5875
G0 Z-16.9
G1 F120.0 Z-18.0
G1 F3000.0 X270.4125
G0 Z-10.0
G1 X279.5875
G0 Z-16.9
G1 F120.0 Z-18.0
G1 F3000.0 X292.895
G3 X294.4825 Y0.0 I0.0 J1.5875
G1 Y27.5175
G0 Z-10.0
G1 Y36.6925
G0 Z-16.9
G1 F120.0 Z-18.0
G1 F3000.0 Y77.5175
G0 Z-10.0
G1 Y86.6925
G0 Z-16.9
G1 F120.0 Z-18.0
G1 F3000.0 Y127.5175
G0 Z-10.0
G1 Y136.6925
G0 Z-16.9
G1 F120.0 Z-18.0
G1 F3000.0 Y177.5175
G0 Z-10.0
G1 Y186.6925
G0 Z-16.9
G1 F120.0 Z-18.0
G1 F3000.0 Y227.5175
G0 Z-10.0
G1 Y236.6925
G0 Z-16.9
G1 F120.0 Z-18.0
G1 F3000.0 Y277.5175
G0 Z-10.0
G1 Y286.6925
G0 Z-16.9
G1 F120.0 Z-18.0
G1 F3000.0 Y327.5175
G0 Z-10.0
G1 Y336.6925
G0 Z-16.9
G1 F120.0 Z-18.0
G1 F3000.0 Y377.5175
G0 Z-10.0
G1 Y386.6925
G0 Z-16.9
G1 F120.0 Z-18.0
G1 F3000.0 Y427.5175
G0 Z-10.0
G1 Y436.6925
G0 Z-16.9
G1 F120.0 Z-18.0
G1 F3000.0 Y477.5175
G0 Z-10.0
G1 Y486.6925
G0 Z-16.9
G1 F120.0 Z-18.0
G1 F3000.0 Y527.5175
G0 Z-10.0
G1 Y536.6925
G0 Z-16.9
G1 F120.0 Z-18.0
G1 F3000.0 Y573.0875
G3 X292.895 Y574.675 I-1.5875 J0.0
G1 X288.465
G0 Z-10.0
G1 X279.29
G0 Z-16.9
G1 F120.0 Z-18.0
G1 F3000.0 X238.465
G0 Z-10.0
G1 X229.29
G0 Z-16.9
G1 F120.0 Z-18.0
G1 F3000.0 X188.465
G0 Z-10.0
G1 X179.29
G0 Z-16.9
G1 F120.0 Z-18.0
G1 F3000.0 X138.465
G0 Z-10.0
G1 X129.29
G0 Z-16.9
G1 F120.0 Z-18.0
G1 F3000.0 X88.465
G0 Z-10.0
G1 X79.29
G0 Z-16.9
G1 F120.0 Z-18.0
G1 F3000.0 X38.465
G0 Z-10.0
G1 X29.29
G0 Z-16.9
G1 F120.0 Z-18.0
G1 F3000.0 X0.0
G3 X-1.5875 Y573.0875 I0.0 J-1.5875
G1 Y561.5525
G0 Z-10.0
G1 Y552.3775
G0 Z-16.9
G1 F120.0 Z-18.0
G1 F3000.0 Y511.5525
G0 Z-10.0
G1 Y502.3775
G0 Z-16.9
G1 F120.0 Z-18.0
G1 F3000.0 Y461.5525
G0 Z-10.0
G1 Y452.3775
G0 Z-16.9
G1 F120.0 Z-18.0
G1 F3000.0 Y411.5525
G0 Z-10.0
G1 Y402.3775
G0 Z-16.9
G1 F120.0 Z-18.0
G1 F3000.0 Y361.5525
G0 Z-10.0
G1 Y352.3775
G0 Z-16.9
G1 F120.0 Z-18.0
G1 F3000.0 Y311.5525
G0 Z-10.0
G1 Y302.3775
G0 Z-16.9
G1 F120.0 Z-18.0
G1 F3000.0 Y261.5525
G0 Z-10.0
G1 Y252.3775
G0 Z-16.9
G1 F120.0 Z-18.0
G1 F3000.0 Y211.5525
G0 Z-10.0
G1 Y202.3775
G0 Z-16.9
G1 F120.0 Z-18.0
G1 F3000.0 Y161.5525
G0 Z-10.0
G1 Y152.3775
G0 Z-16.9
G1 F120.0 Z-18.0
G1 F3000.0 Y111.5525
G0 Z-10.0
G1 Y102.3775
G0 Z-16.9
G1 F120.0 Z-18.0
G1 F3000.0 Y61.5525
G0 Z-10.0
G1 Y52.3775
G0 Z-16.9
G1 F120.0 Z-18.0
G1 F3000.0 Y11.5525
G0 Z-10.0
G1 Y2.3775
G0 Z-16.9
G1 F120.0 Z-18.0
G1 F3000.0 Y0.0
G3 X0.0 Y-1.5875 I1.5875 J0.0
( Profile1 )
S12000
G0 Z25.0
G0 X296.07
G0 Z0.1
G1 F120.0 Z-1.0
G1 F3000.0 X588.965
G3 X590.5525 Y0.0 I0.0 J1.5875
G1 Y573.0875
G3 X588.965 Y574.675 I-1.5875 J0.0
G1 X296.07
G3 X294.4825 Y573.0875 I0.0 J-1.5875
G1 Y0.0
G3 X296.07 Y-1.5875 I1.5875 J0.0
G1 F120.0 Z-2.0
G1 F3000.0 X588.965
G3 X590.5525 Y0.0 I0.0 J1.5875
G1 Y573.0875
G3 X588.965 Y574.675 I-1.5875 J0.0
G1 X296.07
G3 X294.4825 Y573.0875 I0.0 J-1.5875
G1 Y0.0
G3 X296.07 Y-1.5875 I1.5875 J0.0
G1 F120.0 Z-3.0
G1 F3000.0 X588.965
G3 X590.5525 Y0.0 I0.0 J1.5875
G1 Y573.0875
G3 X588.965 Y574.675 I-1.5875 J0.0
G1 X296.07
G3 X294.4825 Y573.0875 I0.0 J-1.5875
G1 Y0.0
G3 X296.07 Y-1.5875 I1.5875 J0.0
G1 F120.0 Z-4.0
G1 F3000.0 X588.965
G3 X590.5525 Y0.0 I0.0 J1.5875
G1 Y573.0875
G3 X588.965 Y574.675 I-1.5875 J0.0
G1 X296.07
G3 X294.4825 Y573.0875 I0.0 J-1.5875
G1 Y0.0
G3 X296.07 Y-1.5875 I1.5875 J0.0
G1 F120.0 Z-5.0
G1 F3000.0 X588.965
G3 X590.5525 Y0.0 I0.0 J1.5875
G1 Y573.0875
G3 X588.965 Y574.675 I-1.5875 J0.0
G1 X296.07
G3 X294.4825 Y573.0875 I0.0 J-1.5875
G1 Y0.0
G3 X296.07 Y-1.5875 I1.5875 J0.0
G1 F120.0 Z-6.0
G1 F3000.0 X588.965
G3 X590.5525 Y0.0 I0.0 J1.5875
G1 Y573.0875
G3 X588.965 Y574.675 I-1.5875 J0.0
G1 X296.07
G3 X294.4825 Y573.0875 I0.0 J-1.5875
G1 Y0.0
G3 X296.07 Y-1.5875 I1.5875 J0.0
G1 F120.0 Z-7.0
G1 F3000.0 X588.965
G3 X590.5525 Y0.0 I0.0 J1.5875
G1 Y573.0875
G3 X588.965 Y574.675 I-1.5875 J0.0
G1 X296.07
G3 X294.4825 Y573.0875 I0.0 J-1.5875
G1 Y0.0
G3 X296.07 Y-1.5875 I1.5875 J0.0
G1 F120.0 Z-8.0
G1 F3000.0 X588.965
G3 X590.5525 Y0.0 I0.0 J1.5875
G1 Y573.0875
G3 X588.965 Y574.675 I-1.5875 J0.0
G1 X296.07
G3 X294.4825 Y573.0875 I0.0 J-1.5875
G1 Y0.0
G3 X296.07 Y-1.5875 I1.5875 J0.0
G1 F120.0 Z-9.0
G1 F3000.0 X588.965
G3 X590.5525 Y0.0 I0.0 J1.5875
G1 Y573.0875
G3 X588.965 Y574.675 I-1.5875 J0.0
G1 X296.07
G3 X294.4825 Y573.0875 I0.0 J-1.5875
G1 Y0.0
G3 X296.07 Y-1.5875 I1.5875 J0.0
G1 F120.0 Z-10.0
G1 F3000.0 X588.965
G3 X590.5525 Y0.0 I0.0 J1.5875
G1 Y573.0875
G3 X588.965 Y574.675 I-1.5875 J0.0
G1 X296.07
G3 X294.4825 Y573.0875 I0.0 J-1.5875
G1 Y0.0
G3 X296.07 Y-1.5875 I1.5875 J0.0
G1 F120.0 Z-11.0
G1 F3000.0 X316.4825
G0 Z-10.0
G1 X325.6575
G1 F120.0 Z-11.0
G1 F3000.0 X366.4825
G0 Z-10.0
G1 X375.6575
G1 F120.0 Z-11.0
G1 F3000.0 X416.4825
G0 Z-10.0
G1 X425.6575
G1 F120.0 Z-11.0
G1 F3000.0 X466.4825
G0 Z-10.0
G1 X475.6575
G1 F120.0 Z-11.0
G1 F3000.0 X516.4825
G0 Z-10.0
G1 X525.6575
G1 F120.0 Z-11.0
G1 F3000.0 X566.4825
G0 Z-10.0
G1 X575.6575
G1 F120.0 Z-11.0
G1 F3000.0 X588.965
G3 X590.5525 Y0.0 I0.0 J1.5875
G1 Y27.5175
G0 Z-10.0
G1 Y36.6925
G1 F120.0 Z-11.0
G1 F3000.0 Y77.5175
G0 Z-10.0
G1 Y86.6925
G1 F120.0 Z-11.0
G1 F3000.0 Y127.5175
G0 Z-10.0
G1 Y136.6925
G1 F120.0 Z-11.0
G1 F3000.0 Y177.5175
G0 Z-10.0
G1 Y186.6925
G1 F120.0 Z-11.0
G1 F3000.0 Y227.5175
G0 Z-10.0
G1 Y236.6925
G1 F120.0 Z-11.0
G1 F3000.0 Y277.5175
G0 Z-10.0
G1 Y286.6925
G1 F120.0 Z-11.0
G1 F3000.0 Y327.5175
G0 Z-10.0
G1 Y336.6925
G1 F120.0 Z-11.0
G1 F3000.0 Y377.5175
G0 Z-10.0
G1 Y386.6925
G1 F120.0 Z-11.0
G1 F3000.0 Y427.5175
G0 Z-10.0
G1 Y436.6925
G1 F120.0 Z-11.0
G1 F3000.0 Y477.5175
G0 Z-10.0
G1 Y486.6925
G1 F120.0 Z-11.0
G1 F3000.0 Y527.5175
G0 Z-10.0
G1 Y536.6925
G1 F120.0 Z-11.0
G1 F3000.0 Y573.0875
G3 X588.965 Y574.675 I-1.5875 J0.0
G1 X584.5351
G0 Z-10.0
G1 X575.3601
G1 F120.0 Z-11.0
G1 F3000.0 X534.5351
G0 Z-10.0
G1 X525.3601
G1 F120.0 Z-11.0
G1 F3000.0 X484.5351
G0 Z-10.0
G1 X475.3601
G1 F120.0 Z-11.0
G1 F3000.0 X434.5351
G0 Z-10.0
G1 X425.3601
G1 F120.0 Z-11.0
G1 F3000.0 X384.5351
G0 Z-10.0
G1 X375.3601
G1 F120.0 Z-11.0
G1 F3000.0 X334.5351
G0 Z-10.0
G1 X325.3601
G1 F120.0 Z-11.0
G1 F3000.0 X296.07
G3 X294.4825 Y573.0875 I0.0 J-1.5875
G1 Y561.5525
G0 Z-10.0
G1 Y552.3775
G1 F120.0 Z-11.0
G1 F3000.0 Y511.5525
G0 Z-10.0
G1 Y502.3775
G1 F120.0 Z-11.0
G1 F3000.0 Y461.5525
G0 Z-10.0
G1 Y452.3775
G1 F120.0 Z-11.0
G1 F3000.0 Y411.5525
G0 Z-10.0
G1 Y402.3775
G1 F120.0 Z-11.0
G1 F3000.0 Y361.5525
G0 Z-10.0
G1 Y352.3775
G1 F120.0 Z-11.0
G1 F3000.0 Y311.5525
G0 Z-10.0
G1 Y302.3775
G1 F120.0 Z-11.0
G1 F3000.0 Y261.5525
G0 Z-10.0
G1 Y252.3775
G1 F120.0 Z-11.0
G1 F3000.0 Y211.5525
G0 Z-10.0
G1 Y202.3775
G1 F120.0 Z-11.0
G1 F3000.0 Y161.5525
G0 Z-10.0
G1 Y152.3775
G1 F120.0 Z-11.0
G1 F3000.0 Y111.5525
G0 Z-10.0
G1 Y102.3775
G1 F120.0 Z-11.0
G1 F3000.0 Y61.5525
G0 Z-10.0
G1 Y52.3775
G1 F120.0 Z-11.0
G1 F3000.0 Y11.5525
G0 Z-10.0
G1 Y2.3775
G1 F120.0 Z-11.0
G1 F3000.0 Y0.0
G3 X296.07 Y-1.5875 I1.5875 J0.0
G1 F120.0 Z-12.0
G1 F3000.0 X316.4825
G0 Z-10.0
G1 X325.6575
G0 Z-10.9
G1 F120.0 Z-12.0
G1 F3000.0 X366.4825
G0 Z-10.0
G1 X375.6575
G0 Z-10.9
G1 F120.0 Z-12.0
G1 F3000.0 X416.4825
G0 Z-10.0
G1 X425.6575
G0 Z-10.9
G1 F120.0 Z-12.0
G1 F3000.0 X466.4825
G0 Z-10.0
G1 X475.6575
G0 Z-10.9
G1 F120.0 Z-12.0
G1 F3000.0 X516.4825
G0 Z-10.0
G1 X525.6575
G0 Z-10.9
G1 F120.0 Z-12.0
G1 F3000.0 X566.4825
G0 Z-10.0
G1 X575.6575
G0 Z-10.9
G1 F120.0 Z-12.0
G1 F3000.0 X588.965
G3 X590.5525 Y0.0 I0.0 J1.5875
G1 Y27.5175
G0 Z-10.0
G1 Y36.6925
G0 Z-10.9
G1 F120.0 Z-12.0
G1 F3000.0 Y77.5175
G0 Z-10.0
G1 Y86.6925
G0 Z-10.9
G1 F120.0 Z-12.0
G1 F3000.0 Y127.5175
G0 Z-10.0
G1 Y136.6925
G0 Z-10.9
G1 F120.0 Z-12.0
G1 F3000.0 Y177.5175
G0 Z-10.0
G1 Y186.6925
G0 Z-10.9
G1 F120.0 Z-12.0
G1 F3000.0 Y227.5175
G0 Z-10.0
G1 Y236.6925
G0 Z-10.9
G1 F120.0 Z-12.0
G1 F3000.0 Y277.5175
G0 Z-10.0
G1 Y286.6925
G0 Z-10.9
G1 F120.0 Z-12.0
G1 F3000.0 Y327.5175
G0 Z-10.0
G1 Y336.6925
G0 Z-10.9
G1 F120.0 Z-12.0
G1 F3000.0 Y377.5175
G0 Z-10.0
G1 Y386.6925
G0 Z-10.9
G1 F120.0 Z-12.0
G1 F3000.0 Y427.5175
G0 Z-10.0
G1 Y436.6925
G0 Z-10.9
G1 F120.0 Z-12.0
G1 F3000.0 Y477.5175
G0 Z-10.0
G1 Y486.6925
G0 Z-10.9
G1 F120.0 Z-12.0
G1 F3000.0 Y527.5175
G0 Z-10.0
G1 Y536.6925
G0 Z-10.9
G1 F120.0 Z-12.0
G1 F3000.0 Y573.0875
G3 X588.965 Y574.675 I-1.5875 J0.0
G1 X584.5351
G0 Z-10.0
G1 X575.3601
G0 Z-10.9
G1 F120.0 Z-12.0
G1 F3000.0 X534.5351
G0 Z-10.0
G1 X525.3601
G0 Z-10.9
G1 F120.0 Z-12.0
G1 F3000.0 X484.5351
G0 Z-10.0
G1 X475.3601
G0 Z-10.9
G1 F120.0 Z-12.0
G1 F3000.0 X434.5351
G0 Z-10.0
G1 X425.3601
G0 Z-10.9
G1 F120.0 Z-12.0
G1 F3000.0 X384.5351
G0 Z-10.0
G1 X375.3601
G0 Z-10.9
G1 F120.0 Z-12.0
G1 F3000.0 X334.5351
G0 Z-10.0
G1 X325.3601
G0 Z-10.9
G1 F120.0 Z-12.0
G1 F3000.0 X296.07
G3 X294.4825 Y573.0875 I0.0 J-1.5875
G1 Y561.5525
G0 Z-10.0
G1 Y552.3775
G0 Z-10.9
G1 F120.0 Z-12.0
G1 F3000.0 Y511.5525
G0 Z-10.0
G1 Y502.3775
G0 Z-10.9
G1 F120.0 Z-12.0
G1 F3000.0 Y461.5525
G0 Z-10.0
G1 Y452.3775
G0 Z-10.9
G1 F120.0 Z-12.0
G1 F3000.0 Y411.5525
G0 Z-10.0
G1 Y402.3775
G0 Z-10.9
G1 F120.0 Z-12.0
G1 F3000.0 Y361.5525
G0 Z-10.0
G1 Y352.3775
G0 Z-10.9
G1 F120.0 Z-12.0
G1 F3000.0 Y311.5525
G0 Z-10.0
G1 Y302.3775
G0 Z-10.9
G1 F120.0 Z-12.0
G1 F3000.0 Y261.5525
G0 Z-10.0
G1 Y252.3775
G0 Z-10.9
G1 F120.0 Z-12.0
G1 F3000.0 Y211.5525
G0 Z-10.0
G1 Y202.3775
G0 Z-10.9
G1 F120.0 Z-12.0
G1 F3000.0 Y161.5525
G0 Z-10.0
G1 Y152.3775
G0 Z-10.9
G1 F120.0 Z-12.0
G1 F3000.0 Y111.5525
G0 Z-10.0
G1 Y102.3775
G0 Z-10.9
G1 F120.0 Z-12.0
G1 F3000.0 Y61.5525
G0 Z-10.0
G1 Y52.3775
G0 Z-10.9
G1 F120.0 Z-12.0
G1 F3000.0 Y11.5525
G0 Z-10.0
G1 Y2.3775
G0 Z-10.9
G1 F120.0 Z-12.0
G1 F3000.0 Y0.0
G3 X296.07 Y-1.5875 I1.5875 J0.0
G1 F120.0 Z-13.0
G1 F3000.0 X316.4825
G0 Z-10.0
G1 X325.6575
G0 Z-11.9
G1 F120.0 Z-13.0
G1 F3000.0 X366.4825
G0 Z-10.0
G1 X375.6575
G0 Z-11.9
G1 F120.0 Z-13.0
G1 F3000.0 X416.4825
G0 Z-10.0
G1 X425.6575
G0 Z-11.9
G1 F120.0 Z-13.0
G1 F3000.0 X466.4825
G0 Z-10.0
G1 X475.6575
G0 Z-11.9
G1 F120.0 Z-13.0
G1 F3000.0 X516.4825
G0 Z-10.0
G1 X525.6575
G0 Z-11.9
G1 F120.0 Z-13.0
G1 F3000.0 X566.4825
G0 Z-10.0
G1 X575.6575
G0 Z-11.9
G1 F120.0 Z-13.0
G1 F3000.0 X588.965
G3 X590.5525 Y0.0 I0.0 J1.5875
G1 Y27.5175
G0 Z-10.0
G1 Y36.6925
G0 Z-11.9
G1 F120.0 Z-13.0
G1 F3000.0 Y77.5175
G0 Z-10.0
G1 Y86.6925
G0 Z-11.9
G1 F120.0 Z-13.0
G1 F3000.0 Y127.5175
G0 Z-10.0
G1 Y136.6925
G0 Z-11.9
G1 F120.0 Z-13.0
G1 F3000.0 Y177.5175
G0 Z-10.0
G1 Y186.6925
G0 Z-11.9
G1 F120.0 Z-13.0
G1 F3000.0 Y227.5175
G0 Z-10.0
G1 Y236.6925
G0 Z-11.9
G1 F120.0 Z-13.0
G1 F3000.0 Y277.5175
G0 Z-10.0
G1 Y286.6925
G0 Z-11.9
G1 F120.0 Z-13.0
G1 F3000.0 Y327.5175
G0 Z-10.0
G1 Y336.6925
G0 Z-11.9
G1 F120.0 Z-13.0
G1 F3000.0 Y377.5175
G0 Z-10.0
G1 Y386.6925
G0 Z-11.9
G1 F120.0 Z-13.0
G1 F3000.0 Y427.5175
G0 Z-10.0
G1 Y436.6925
G0 Z-11.9
G1 F120.0 Z-13.0
G1 F3000.0 Y477.5175
G0 Z-10.0
G1 Y486.6925
G0 Z-11.9
G1 F120.0 Z-13.0
G1 F3000.0 Y527.5175
G0 Z-10.0
G1 Y536.6925
G0 Z-11.9
G1 F120.0 Z-13.0
G1 F3000.0 Y573.0875
G3 X588.965 Y574.675 I-1.5875 J0.0
G1 X584.5351
G0 Z-10.0
G1 X575.3601
G0 Z-11.9
G1 F120.0 Z-13.0
G1 F3000.0 X534.5351
G0 Z-10.0
G1 X525.3601
G0 Z-11.9
G1 F120.0 Z-13.0
G1 F3000.0 X484.5351
G0 Z-10.0
G1 X475.3601
G0 Z-11.9
G1 F120.0 Z-13.0
G1 F3000.0 X434.5351
G0 Z-10.0
G1 X425.3601
G0 Z-11.9
G1 F120.0 Z-13.0
G1 F3000.0 X384.5351
G0 Z-10.0
G1 X375.3601
G0 Z-11.9
G1 F120.0 Z-13.0
G1 F3000.0 X334.5351
G0 Z-10.0
G1 X325.3601
G0 Z-11.9
G1 F120.0 Z-13.0
G1 F3000.0 X296.07
G3 X294.4825 Y573.0875 I0.0 J-1.5875
G1 Y561.5525
G0 Z-10.0
G1 Y552.3775
G0 Z-11.9
G1 F120.0 Z-13.0
G1 F3000.0 Y511.5525
G0 Z-10.0
G1 Y502.3775
G0 Z-11.9
G1 F120.0 Z-13.0
G1 F3000.0 Y461.5525
G0 Z-10.0
G1 Y452.3775
G0 Z-11.9
G1 F120.0 Z-13.0
G1 F3000.0 Y411.5525
G0 Z-10.0
G1 Y402.3775
G0 Z-11.9
G1 F120.0 Z-13.0
G1 F3000.0 Y361.5525
G0 Z-10.0
G1 Y352.3775
G0 Z-11.9
G1 F120.0 Z-13.0
G1 F3000.0 Y311.5525
G0 Z-10.0
G1 Y302.3775
G0 Z-11.9
G1 F120.0 Z-13.0
G1 F3000.0 Y261.5525
G0 Z-10.0
G1 Y252.3775
G0 Z-11.9
G1 F120.0 Z-13.0
G1 F3000.0 Y211.5525
G0 Z-10.0
G1 Y202.3775
G0 Z-11.9
G1 F120.0 Z-13.0
G1 F3000.0 Y161.5525
G0 Z-10.0
G1 Y152.3775
G0 Z-11.9
G1 F120.0 Z-13.0
G1 F3000.0 Y111.5525
G0 Z-10.0
G1 Y102.3775
G0 Z-11.9
G1 F120.0 Z-13.0
G1 F3000.0 Y61.5525
G0 Z-10.0
G1 Y52.3775
G0 Z-11.9
G1 F120.0 Z-13.0
G1 F3000.0 Y11.5525
G0 Z-10.0
G1 Y2.3775
G0 Z-11.9
G1 F120.0 Z-13.0
G1 F3000.0 Y0.0
G3 X296.07 Y-1.5875 I1.5875 J0.0
G1 F120.0 Z-14.0
G1 F3000.0 X316.4825
G0 Z-10.0
G1 X325.6575
G0 Z-12.9
G1 F120.0 Z-14.0
G1 F3000.0 X366.4825
G0 Z-10.0
G1 X375.6575
G0 Z-12.9
G1 F120.0 Z-14.0
G1 F3000.0 X416.4825
G0 Z-10.0
G1 X425.6575
G0 Z-12.9
G1 F120.0 Z-14.0
G1 F3000.0 X466.4825
G0 Z-10.0
G1 X475.6575
G0 Z-12.9
G1 F120.0 Z-14.0
G1 F3000.0 X516.4825
G0 Z-10.0
G1 X525.6575
G0 Z-12.9
G1 F120.0 Z-14.0
G1 F3000.0 X566.4825
G0 Z-10.0
G1 X575.6575
G0 Z-12.9
G1 F120.0 Z-14.0
G1 F3000.0 X588.965
G3 X590.5525 Y0.0 I0.0 J1.5875
G1 Y27.5175
G0 Z-10.0
G1 Y36.6925
G0 Z-12.9
G1 F120.0 Z-14.0
G1 F3000.0 Y77.5175
G0 Z-10.0
G1 Y86.6925
G0 Z-12.9
G1 F120.0 Z-14.0
G1 F3000.0 Y127.5175
G0 Z-10.0
G1 Y136.6925
G0 Z-12.9
G1 F120.0 Z-14.0
G1 F3000.0 Y177.5175
G0 Z-10.0
G1 Y186.6925
G0 Z-12.9
G1 F120.0 Z-14.0
G1 F3000.0 Y227.5175
G0 Z-10.0
G1 Y236.6925
G0 Z-12.9
G1 F120.0 Z-14.0
G1 F3000.0 Y277.5175
G0 Z-10.0
G1 Y286.6925
G0 Z-12.9
G1 F120.0 Z-14.0
G1 F3000.0 Y327.5175
G0 Z-10.0
G1 Y336.6925
G0 Z-12.9
G1 F120.0 Z-14.0
G1 F3000.0 Y377.5175
G0 Z-10.0
G1 Y386.6925
G0 Z-12.9
G1 F120.0 Z-14.0
G1 F3000.0 Y427.5175
G0 Z-10.0
G1 Y436.6925
G0 Z-12.9
G1 F120.0 Z-14.0
G1 F3000.0 Y477.5175
G0 Z-10.0
G1 Y486.6925
G0 Z-12.9
G1 F120.0 Z-14.0
G1 F3000.0 Y527.5175
G0 Z-10.0
G1 Y536.6925
G0 Z-12.9
G1 F120.0 Z-14.0
G1 F3000.0 Y573.0875
G3 X588.965 Y574.675 I-1.5875 J0.0
G1 X584.5351
G0 Z-10.0
G1 X575.3601
G0 Z-12.9
G1 F120.0 Z-14.0
G1 F3000.0 X534.5351
G0 Z-10.0
G1 X525.3601
G0 Z-12.9
G1 F120.0 Z-14.0
G1 F3000.0 X484.5351
G0 Z-10.0
G1 X475.3601
G0 Z-12.9
G1 F120.0 Z-14.0
G1 F3000.0 X434.5351
G0 Z-10.0
G1 X425.3601
G0 Z-12.9
G1 F120.0 Z-14.0
G1 F3000.0 X384.5351
G0 Z-10.0
G1 X375.3601
G0 Z-12.9
G1 F120.0 Z-14.0
G1 F3000.0 X334.5351
G0 Z-10.0
G1 X325.3601
G0 Z-12.9
G1 F120.0 Z-14.0
G1 F3000.0 X296.07
G3 X294.4825 Y573.0875 I0.0 J-1.5875
G1 Y561.5525
G0 Z-10.0
G1 Y552.3775
G0 Z-12.9
G1 F120.0 Z-14.0
G1 F3000.0 Y511.5525
G0 Z-10.0
G1 Y502.3775
G0 Z-12.9
G1 F120.0 Z-14.0
G1 F3000.0 Y461.5525
G0 Z-10.0
G1 Y452.3775
G0 Z-12.9
G1 F120.0 Z-14.0
G1 F3000.0 Y411.5525
G0 Z-10.0
G1 Y402.3775
G0 Z-12.9
G1 F120.0 Z-14.0
G1 F3000.0 Y361.5525
G0 Z-10.0
G1 Y352.3775
G0 Z-12.9
G1 F120.0 Z-14.0
G1 F3000.0 Y311.5525
G0 Z-10.0
G1 Y302.3775
G0 Z-12.9
G1 F120.0 Z-14.0
G1 F3000.0 Y261.5525
G0 Z-10.0
G1 Y252.3775
G0 Z-12.9
G1 F120.0 Z-14.0
G1 F3000.0 Y211.5525
G0 Z-10.0
G1 Y202.3775
G0 Z-12.9
G1 F120.0 Z-14.0
G1 F3000.0 Y161.5525
G0 Z-10.0
G1 Y152.3775
G0 Z-12.9
G1 F120.0 Z-14.0
G1 F3000.0 Y111.5525
G0 Z-10.0
G1 Y102.3775
G0 Z-12.9
G1 F120.0 Z-14.0
G1 F3000.0 Y61.5525
G0 Z-10.0
G1 Y52.3775
G0 Z-12.9
G1 F120.0 Z-14.0
G1 F3000.0 Y11.5525
G0 Z-10.0
G1 Y2.3775
G0 Z-12.9
G1 F120.0 Z-14.0
G1 F3000.0 Y0.0
G3 X296.07 Y-1.5875 I1.5875 J0.0
G1 F120.0 Z-15.0
G1 F3000.0 X316.4825
G0 Z-10.0
G1 X325.6575
G0 Z-13.9
G1 F120.0 Z-15.0
G1 F3000.0 X366.4825
G0 Z-10.0
G1 X375.6575
G0 Z-13.9
G1 F120.0 Z-15.0
G1 F3000.0 X416.4825
G0 Z-10.0
G1 X425.6575
G0 Z-13.9
G1 F120.0 Z-15.0
G1 F3000.0 X466.4825
G0 Z-10.0
G1 X475.6575
G0 Z-13.9
G1 F120.0 Z-15.0
G1 F3000.0 X516.4825
G0 Z-10.0
G1 X525.6575
G0 Z-13.9
G1 F120.0 Z-15.0
G1 F3000.0 X566.4825
G0 Z-10.0
G1 X575.6575
G0 Z-13.9
G1 F120.0 Z-15.0
G1 F3000.0 X588.965
G3 X590.5525 Y0.0 I0.0 J1.5875
G1 Y27.5175
G0 Z-10.0
G1 Y36.6925
G0 Z-13.9
G1 F120.0 Z-15.0
G1 F3000.0 Y77.5175
G0 Z-10.0
G1 Y86.6925
G0 Z-13.9
G1 F120.0 Z-15.0
G1 F3000.0 Y127.5175
G0 Z-10.0
G1 Y136.6925
G0 Z-13.9
G1 F120.0 Z-15.0
G1 F3000.0 Y177.5175
G0 Z-10.0
G1 Y186.6925
G0 Z-13.9
G1 F120.0 Z-15.0
G1 F3000.0 Y227.5175
G0 Z-10.0
G1 Y236.6925
G0 Z-13.9
G1 F120.0 Z-15.0
G1 F3000.0 Y277.5175
G0 Z-10.0
G1 Y286.6925
G0 Z-13.9
G1 F120.0 Z-15.0
G1 F3000.0 Y327.5175
G0 Z-10.0
G1 Y336.6925
G0 Z-13.9
G1 F120.0 Z-15.0
G1 F3000.0 Y377.5175
G0 Z-10.0
G1 Y386.6925
G0 Z-13.9
G1 F120.0 Z-15.0
G1 F3000.0 Y427.5175
G0 Z-10.0
G1 Y436.6925
G0 Z-13.9
G1 F120.0 Z-15.0
G1 F3000.0 Y477.5175
G0 Z-10.0
G1 Y486.6925
G0 Z-13.9
G1 F120.0 Z-15.0
G1 F3000.0 Y527.5175
G0 Z-10.0
G1 Y536.6925
G0 Z-13.9
G1 F120.0 Z-15.0
G1 F3000.0 Y573.0875
G3 X588.965 Y574.675 I-1.5875 J0.0
G1 X584.5351
G0 Z-10.0
G1 X575.3601
G0 Z-13.9
G1 F120.0 Z-15.0
G1 F3000.0 X534.5351
G0 Z-10.0
G1 X525.3601
G0 Z-13.9
G1 F120.0 Z-15.0
G1 F3000.0 X484.5351
G0 Z-10.0
G1 X475.3601
G0 Z-13.9
G1 F120.0 Z-15.0
G1 F3000.0 X434.5351
G0 Z-10.0
G1 X425.3601
G0 Z-13.9
G1 F120.0 Z-15.0
G1 F3000.0 X384.5351
G0 Z-10.0
G1 X375.3601
G0 Z-13.9
G1 F120.0 Z-15.0
G1 F3000.0 X334.5351
G0 Z-10.0
G1 X325.3601
G0 Z-13.9
G1 F120.0 Z-15.0
G1 F3000.0 X296.07
G3 X294.4825 Y573.0875 I0.0 J-1.5875
G1 Y561.5525
G0 Z-10.0
G1 Y552.3775
G0 Z-13.9
G1 F120.0 Z-15.0
G1 F3000.0 Y511.5525
G0 Z-10.0
G1 Y502.3775
G0 Z-13.9
G1 F120.0 Z-15.0
G1 F3000.0 Y461.5525
G0 Z-10.0
G1 Y452.3775
G0 Z-13.9
G1 F120.0 Z-15.0
G1 F3000.0 Y411.5525
G0 Z-10.0
G1 Y402.3775
G0 Z-13.9
G1 F120.0 Z-15.0
G1 F3000.0 Y361.5525
G0 Z-10.0
G1 Y352.3775
G0 Z-13.9
G1 F120.0 Z-15.0
G1 F3000.0 Y311.5525
G0 Z-10.0
G1 Y302.3775
G0 Z-13.9
G1 F120.0 Z-15.0
G1 F3000.0 Y261.5525
G0 Z-10.0
G1 Y252.3775
G0 Z-13.9
G1 F120.0 Z-15.0
G1 F3000.0 Y211.5525
G0 Z-10.0
G1 Y202.3775
G0 Z-13.9
G1 F120.0 Z-15.0
G1 F3000.0 Y161.5525
G0 Z-10.0
G1 Y152.3775
G0 Z-13.9
G1 F120.0 Z-15.0
G1 F3000.0 Y111.5525
G0 Z-10.0
G1 Y102.3775
G0 Z-13.9
G1 F120.0 Z-15.0
G1 F3000.0 Y61.5525
G0 Z-10.0
G1 Y52.3775
G0 Z-13.9
G1 F120.0 Z-15.0
G1 F3000.0 Y11.5525
G0 Z-10.0
G1 Y2.3775
G0 Z-13.9
G1 F120.0 Z-15.0
G1 F3000.0 Y0.0
G3 X296.07 Y-1.5875 I1.5875 J0.0
G1 F120.0 Z-16.0
G1 F3000.0 X316.4825
G0 Z-10.0
G1 X325.6575
G0 Z-14.9
G1 F120.0 Z-16.0
G1 F3000.0 X366.4825
G0 Z-10.0
G1 X375.6575
G0 Z-14.9
G1 F120.0 Z-16.0
G1 F3000.0 X416.4825
G0 Z-10.0
G1 X425.6575
G0 Z-14.9
G1 F120.0 Z-16.0
G1 F3000.0 X466.4825
G0 Z-10.0
G1 X475.6575
G0 Z-14.9
G1 F120.0 Z-16.0
G1 F3000.0 X516.4825
G0 Z-10.0
G1 X525.6575
G0 Z-14.9
G1 F120.0 Z-16.0
G1 F3000.0 X566.4825
G0 Z-10.0
G1 X575.6575
G0 Z-14.9
G1 F120.0 Z-16.0
G1 F3000.0 X588.965
G3 X590.5525 Y0.0 I0.0 J1.5875
G1 Y27.5175
G0 Z-10.0
G1 Y36.6925
G0 Z-14.9
G1 F120.0 Z-16.0
G1 F3000.0 Y77.5175
G0 Z-10.0
G1 Y86.6925
G0 Z-14.9
G1 F120.0 Z-16.0
G1 F3000.0 Y127.5175
G0 Z-10.0
G1 Y136.6925
G0 Z-14.9
G1 F120.0 Z-16.0
G1 F3000.0 Y177.5175
G0 Z-10.0
G1 Y186.6925
G0 Z-14.9
G1 F120.0 Z-16.0
G1 F3000.0 Y227.5175
G0 Z-10.0
G1 Y236.6925
G0 Z-14.9
G1 F120.0 Z-16.0
G1 F3000.0 Y277.5175
G0 Z-10.0
G1 Y286.6925
G0 Z-14.9
G1 F120.0 Z-16.0
G1 F3000.0 Y327.5175
G0 Z-10.0
G1 Y336.6925
G0 Z-14.9
G1 F120.0 Z-16.0
G1 F3000.0 Y377.5175
G0 Z-10.0
G1 Y386.6925
G0 Z-14.9
G1 F120.0 Z-16.0
G1 F3000.0 Y427.5175
G0 Z-10.0
G1 Y436.6925
G0 Z-14.9
G1 F120.0 Z-16.0
G1 F3000.0 Y477.5175
G0 Z-10.0
G1 Y486.6925
G0 Z-14.9
G1 F120.0 Z-16.0
G1 F3000.0 Y527.5175
G0 Z-10.0
G1 Y536.6925
G0 Z-14.9
G1 F120.0 Z-16.0
G1 F3000.0 Y573.0875
G3 X588.965 Y574.675 I-1.5875 J0.0
G1 X584.5351
G0 Z-10.0
G1 X575.3601
G0 Z-14.9
G1 F120.0 Z-16.0
G1 F3000.0 X534.5351
G0 Z-10.0
G1 X525.3601
G0 Z-14.9
G1 F120.0 Z-16.0
G1 F3000.0 X484.5351
G0 Z-10.0
G1 X475.3601
G0 Z-14.9
G1 F120.0 Z-16.0
G1 F3000.0 X434.5351
G0 Z-10.0
G1 X425.3601
G0 Z-14.9
G1 F120.0 Z-16.0
G1 F3000.0 X384.5351
G0 Z-10.0
G1 X375.3601
G0 Z-14.9
G1 F120.0 Z-16.0
G1 F3000.0 X334.5351
G0 Z-10.0
G1 X325.3601
G0 Z-14.9
G1 F120.0 Z-16.0
G1 F3000.0 X296.07
G3 X294.4825 Y573.0875 I0.0 J-1.5875
G1 Y561.5525
G0 Z-10.0
G1 Y552.3775
G0 Z-14.9
G1 F120.0 Z-16.0
G1 F3000.0 Y511.5525
G0 Z-10.0
G1 Y502.3775
G0 Z-14.9
G1 F120.0 Z-16.0
G1 F3000.0 Y461.5525
G0 Z-10.0
G1 Y452.3775
G0 Z-14.9
G1 F120.0 Z-16.0
G1 F3000.0 Y411.5525
G0 Z-10.0
G1 Y402.3775
G0 Z-14.9
G1 F120.0 Z-16.0
G1 F3000.0 Y361.5525
G0 Z-10.0
G1 Y352.3775
G0 Z-14.9
G1 F120.0 Z-16.0
G1 F3000.0 Y311.5525
G0 Z-10.0
G1 Y302.3775
G0 Z-14.9
G1 F120.0 Z-16.0
G1 F3000.0 Y261.5525
G0 Z-10.0
G1 Y252.3775
G0 Z-14.9
G1 F120.0 Z-16.0
G1 F3000.0 Y211.5525
G0 Z-10.0
G1 Y202.3775
G0 Z-14.9
G1 F120.0 Z-16.0
G1 F3000.0 Y161.5525
G0 Z-10.0
G1 Y152.3775
G0 Z-14.9
G1 F120.0 Z-16.0
G1 F3000.0 Y111.5525
G0 Z-10.0
G1 Y102.3775
G0 Z-14.9
G1 F120.0 Z-16.0
G1 F3000.0 Y61.5525
G0 Z-10.0
G1 Y52.3775
G0 Z-14.9
G1 F120.0 Z-16.0
G1 F3000.0 Y11.5525
G0 Z-10.0
G1 Y2.3775
G0 Z-14.9
G1 F120.0 Z-16.0
G1 F3000.0 Y0.0
G3 X296.07 Y-1.5875 I1.5875 J0.0
G1 F120.0 Z-17.0
G1 F3000.0 X316.4825
G0 Z-10.0
G1 X325.6575
G0 Z-15.9
G1 F120.0 Z-17.0
G1 F3000.0 X366.4825
G0 Z-10.0
G1 X375.6575
G0 Z-15.9
G1 F120.0 Z-17.0
G1 F3000.0 X416.4825
G0 Z-10.0
G1 X425.6575
G0 Z-15.9
G1 F120.0 Z-17.0
G1 F3000.0 X466.4825
G0 Z-10.0
G1 X475.6575
G0 Z-15.9
G1 F120.0 Z-17.0
G1 F3000.0 X516.4825
G0 Z-10.0
G1 X525.6575
G0 Z-15.9
G1 F120.0 Z-17.0
G1 F3000.0 X566.4825
G0 Z-10.0
G1 X575.6575
G0 Z-15.9
G1 F120.0 Z-17.0
G1 F3000.0 X588.965
G3 X590.5525 Y0.0 I0.0 J1.5875
G1 Y27.5175
G0 Z-10.0
G1 Y36.6925
G0 Z-15.9
G1 F120.0 Z-17.0
G1 F3000.0 Y77.5175
G0 Z-10.0
G1 Y86.6925
G0 Z-15.9
G1 F120.0 Z-17.0
G1 F3000.0 Y127.5175
G0 Z-10.0
G1 Y136.6925
G0 Z-15.9
G1 F120.0 Z-17.0
G1 F3000.0 Y177.5175
G0 Z-10.0
G1 Y186.6925
G0 Z-15.9
G1 F120.0 Z-17.0
G1 F3000.0 Y227.5175
G0 Z-10.0
G1 Y236.6925
G0 Z-15.9
G1 F120.0 Z-17.0
G1 F3000.0 Y277.5175
G0 Z-10.0
G1 Y286.6925
G0 Z-15.9
G1 F120.0 Z-17.0
G1 F3000.0 Y327.5175
G0 Z-10.0
G1 Y336.6925
G0 Z-15.9
G1 F120.0 Z-17.0
G1 F3000.0 Y377.5175
G0 Z-10.0
G1 Y386.6925
G0 Z-15.9
G1 F120.0 Z-17.0
G1 F3000.0 Y427.5175
G0 Z-10.0
G1 Y436.6925
G0 Z-15.9
G1 F120.0 Z-17.0
G1 F3000.0 Y477.5175
G0 Z-10.0
G1 Y486.6925
G0 Z-15.9
G1 F120.0 Z-17.0
G1 F3000.0 Y527.5175
G0 Z-10.0
G1 Y536.6925
G0 Z-15.9
G1 F120.0 Z-17.0
G1 F3000.0 Y573.0875
G3 X588.965 Y574.675 I-1.5875 J0.0
G1 X584.5351
G0 Z-10.0
G1 X575.3601
G0 Z-15.9
G1 F120.0 Z-17.0
G1 F3000.0 X534.5351
G0 Z-10.0
G1 X525.3601
G0 Z-15.9
G1 F120.0 Z-17.0
G1 F3000.0 X484.5351
G0 Z-10.0
G1 X475.3601
G0 Z-15.9
G1 F120.0 Z-17.0
G1 F3000.0 X434.5351
G0 Z-10.0
G1 X425.3601
G0 Z-15.9
G1 F120.0 Z-17.0
G1 F3000.0 X384.5351
G0 Z-10.0
G1 X375.3601
G0 Z-15.9
G1 F120.0 Z-17.0
G1 F3000.0 X334.5351
G0 Z-10.0
G1 X325.3601
G0 Z-15.9
G1 F120.0 Z-17.0
G1 F3000.0 X296.07
G3 X294.4825 Y573.0875 I0.0 J-1.5875
G1 Y561.5525
G0 Z-10.0
G1 Y552.3775
G0 Z-15.9
G1 F120.0 Z-17.0
G1 F3000.0 Y511.5525
G0 Z-10.0
G1 Y502.3775
G0 Z-15.9
G1 F120.0 Z-17.0
G1 F3000.0 Y461.5525
G0 Z-10.0
G1 Y452.3775
G0 Z-15.9
G1 F120.0 Z-17.0
G1 F3000.0 Y411.5525
G0 Z-10.0
G1 Y402.3775
G0 Z-15.9
G1 F120.0 Z-17.0
G1 F3000.0 Y361.5525
G0 Z-10.0
G1 Y352.3775
G0 Z-15.9
G1 F120.0 Z-17.0
G1 F3000.0 Y311.5525
G0 Z-10.0
G1 Y302.3775
G0 Z-15.9
G1 F120.0 Z-17.0
G1 F3000.0 Y261.5525
G0 Z-10.0
G1 Y252.3775
G0 Z-15.9
G1 F120.0 Z-17.0
G1 F3000.0 Y211.5525
G0 Z-10.0
G1 Y202.3775
G0 Z-15.9
G1 F120.0 Z-17.0
G1 F3000.0 Y161.5525
G0 Z-10.0
G1 Y152.3775
G0 Z-15.9
G1 F120.0 Z-17.0
G1 F3000.0 Y111.5525
G0 Z-10.0
G1 Y102.3775
G0 Z-15.9
G1 F120.0 Z-17.0
G1 F3000.0 Y61.5525
G0 Z-10.0
G1 Y52.3775
G0 Z-15.9
G1 F120.0 Z-17.0
G1 F3000.0 Y11.5525
G0 Z-10.0
G1 Y2.3775
G0 Z-15.9
G1 F120.0 Z-17.0
G1 F3000.0 Y0.0
G3 X296.07 Y-1.5875 I1.5875 J0.0
G1 F120.0 Z-18.0
G1 F3000.0 X316.4825
G0 Z-10.0
G1 X325.6575
G0 Z-16.9
G1 F120.0 Z-18.0
G1 F3000.0 X366.4825
G0 Z-10.0
G1 X375.6575
G0 Z-16.9
G1 F120.0 Z-18.0
G1 F3000.0 X416.4825
G0 Z-10.0
G1 X425.6575
G0 Z-16.9
G1 F120.0 Z-18.0
G1 F3000.0 X466.4825
G0 Z-10.0
G1 X475.6575
G0 Z-16.9
G1 F120.0 Z-18.0
G1 F3000.0 X516.4825
G0 Z-10.0
G1 X525.6575
G0 Z-16.9
G1 F120.0 Z-18.0
G1 F3000.0 X566.4825
G0 Z-10.0
G1 X575.6575
G0 Z-16.9
G1 F120.0 Z-18.0
G1 F3000.0 X588.965
G3 X590.5525 Y0.0 I0.0 J1.5875
G1 Y27.5175
G0 Z-10.0
G1 Y36.6925
G0 Z-16.9
G1 F120.0 Z-18.0
G1 F3000.0 Y77.5175
G0 Z-10.0
G1 Y86.6925
G0 Z-16.9
G1 F120.0 Z-18.0
G1 F3000.0 Y127.5175
G0 Z-10.0
G1 Y136.6925
G0 Z-16.9
G1 F120.0 Z-18.0
G1 F3000.0 Y177.5175
G0 Z-10.0
G1 Y186.6925
G0 Z-16.9
G1 F120.0 Z-18.0
G1 F3000.0 Y227.5175
G0 Z-10.0
G1 Y236.6925
G0 Z-16.9
G1 F120.0 Z-18.0
G1 F3000.0 Y277.5175
G0 Z-10.0
G1 Y286.6925
G0 Z-16.9
G1 F120.0 Z-18.0
G1 F3000.0 Y327.5175
G0 Z-10.0
G1 Y336.6925
G0 Z-16.9
G1 F120.0 Z-18.0
G1 F3000.0 Y377.5175
G0 Z-10.0
G1 Y386.6925
G0 Z-16.9
G1 F120.0 Z-18.0
G1 F3000.0 Y427.5175
G0 Z-10.0
G1 Y436.6925
G0 Z-16.9
G1 F120.0 Z-18.0
G1 F3000.0 Y477.5175
G0 Z-10.0
G1 Y486.6925
G0 Z-16.9
G1 F120.0 Z-18.0
G1 F3000.0 Y527.5175
G0 Z-10.0
G1 Y536.6925
G0 Z-16.9
G1 F120.0 Z-18.0
G1 F3000.0 Y573.0875
G3 X588.965 Y574.675 I-1.5875 J0.0
G1 X584.5351
G0 Z-10.0
G1 X575.3601
G0 Z-16.9
G1 F120.0 Z-18.0
G1 F3000.0 X534.5351
G0 Z-10.0
G1 X525.3601
G0 Z-16.9
G1 F120.0 Z-18.0
G1 F3000.0 X484.5351
G0 Z-10.0
G1 X475.3601
G0 Z-16.9
G1 F120.0 Z-18.0
G1 F3000.0 X434.5351
G0 Z-10.0
G1 X425.3601
G0 Z-16.9
G1 F120.0 Z-18.0
G1 F3000.0 X384.5351
G0 Z-10.0
G1 X375.3601
G0 Z-16.9
G1 F120.0 Z-18.0
G1 F3000.0 X334.5351
G0 Z-10.0
G1 X325.3601
G0 Z-16.9
G1 F120.0 Z-18.0
G1 F3000.0 X296.07
G3 X294.4825 Y573.0875 I0.0 J-1.5875
G1 Y561.5525
G0 Z-10.0
G1 Y552.3775
G0 Z-16.9
G1 F120.0 Z-18.0
G1 F3000.0 Y511.5525
G0 Z-10.0
G1 Y502.3775
G0 Z-16.9
G1 F120.0 Z-18.0
G1 F3000.0 Y461.5525
G0 Z-10.0
G1 Y452.3775
G0 Z-16.9
G1 F120.0 Z-18.0
G1 F3000.0 Y411.5525
G0 Z-10.0
G1 Y402.3775
G0 Z-16.9
G1 F120.0 Z-18.0
G1 F3000.0 Y361.5525
G0 Z-10.0
G1 Y352.3775
G0 Z-16.9
G1 F120.0 Z-18.0
G1 F3000.0 Y311.5525
G0 Z-10.0
G1 Y302.3775
G0 Z-16.9
G1 F120.0 Z-18.0
G1 F3000.0 Y261.5525
G0 Z-10.0
G1 Y252.3775
G0 Z-16.9
G1 F120.0 Z-18.0
G1 F3000.0 Y211.5525
G0 Z-10.0
G1 Y202.3775
G0 Z-16.9
G1 F120.0 Z-18.0
G1 F3000.0 Y161.5525
G0 Z-10.0
G1 Y152.3775
G0 Z-16.9
G1 F120.0 Z-18.0
G1 F3000.0 Y111.5525
G0 Z-10.0
G1 Y102.3775
G0 Z-16.9
G1 F120.0 Z-18.0
G1 F3000.0 Y61.5525
G0 Z-10.0
G1 Y52.3775
G0 Z-16.9
G1 F120.0 Z-18.0
G1 F3000.0 Y11.5525
G0 Z-10.0
G1 Y2.3775
G0 Z-16.9
G1 F120.0 Z-18.0
G1 F3000.0 Y0.0
G3 X296.07 Y-1.5875 I1.5875 J0.0
( Profile1 )
S12000
G0 Z25.0
G0 X592.14
G0 Z0.1
G1 F120.0 Z-1.0
G1 F3000.0 X885.0351
G3 X886.6226 Y0.0 I0.0 J1.5875
G1 Y573.0875
G3 X885.0351 Y574.675 I-1.5875 J0.0
G1 X592.14
G3 X590.5525 Y573.0875 I0.0 J-1.5875
G1 Y0.0
G3 X592.14 Y-1.5875 I1.5875 J0.0
G1 F120.0 Z-2.0
G1 F3000.0 X885.0351
G3 X886.6226 Y0.0 I0.0 J1.5875
G1 Y573.0875
G3 X885.0351 Y574.675 I-1.5875 J0.0
G1 X592.14
G3 X590.5525 Y573.0875 I0.0 J-1.5875
G1 Y0.0
G3 X592.14 Y-1.5875 I1.5875 J0.0
G1 F120.0 Z-3.0
G1 F3000.0 X885.0351
G3 X886.6226 Y0.0 I0.0 J1.5875
G1 Y573.0875
G3 X885.0351 Y574.675 I-1.5875 J0.0
G1 X592.14
G3 X590.5525 Y573.0875 I0.0 J-1.5875
G1 Y0.0
G3 X592.14 Y-1.5875 I1.5875 J0.0
G1 F120.0 Z-4.0
G1 F3000.0 X885.0351
G3 X886.6226 Y0.0 I0.0 J1.5875
G1 Y573.0875
G3 X885.0351 Y574.675 I-1.5875 J0.0
G1 X592.14
G3 X590.5525 Y573.0875 I0.0 J-1.5875
G1 Y0.0
G3 X592.14 Y-1.5875 I1.5875 J0.0
G1 F120.0 Z-5.0
G1 F3000.0 X885.0351
G3 X886.6226 Y0.0 I0.0 J1.5875
G1 Y573.0875
G3 X885.0351 Y574.675 I-1.5875 J0.0
G1 X592.14
G3 X590.5525 Y573.0875 I0.0 J-1.5875
G1 Y0.0
G3 X592.14 Y-1.5875 I1.5875 J0.0
G1 F120.0 Z-6.0
G1 F3000.0 X885.0351
G3 X886.6226 Y0.0 I0.0 J1.5875
G1 Y573.0875
G3 X885.0351 Y574.675 I-1.5875 J0.0
G1 X592.14
G3 X590.5525 Y573.0875 I0.0 J-1.5875
G1 Y0.0
G3 X592.14 Y-1.5875 I1.5875 J0.0
G1 F120.0 Z-7.0
G1 F3000.0 X885.0351
G3 X886.6226 Y0.0 I0.0 J1.5875
G1 Y573.0875
G3 X885.0351 Y574.675 I-1.5875 J0.0
G1 X592.14
G3 X590.5525 Y573.0875 I0.0 J-1.5875
G1 Y0.0
G3 X592.14 Y-1.5875 I1.5875 J0.0
G1 F120.0 Z-8.0
G1 F3000.0 X885.0351
G3 X886.6226 Y0.0 I0.0 J1.5875
G1 Y573.0875
G3 X885.0351 Y574.675 I-1.5875 J0.0
G1 X592.14
G3 X590.5525 Y573.0875 I0.0 J-1.5875
G1 Y0.0
G3 X592.14 Y-1.5875 I1.5875 J0.0
G1 F120.0 Z-9.0
G1 F3000.0 X885.0351
G3 X886.6226 Y0.0 I0.0 J1.5875
G1 Y573.0875
G3 X885.0351 Y574.675 I-1.5875 J0.0
G1 X592.14
G3 X590.5525 Y573.0875 I0.0 J-1.5875
G1 Y0.0
G3 X592.14 Y-1.5875 I1.5875 J0.0
G1 F120.0 Z-10.0
G1 F3000.0 X885.0351
G3 X886.6226 Y0.0 I0.0 J1.5875
G1 Y573.0875
G3 X885.0351 Y574.675 I-1.5875 J0.0
G1 X592.14
G3 X590.5525 Y573.0875 I0.0 J-1.5875
G1 Y0.0
G3 X592.14 Y-1.5875 I1.5875 J0.0
G1 F120.0 Z-11.0
G1 F3000.0 X612.5525
G0 Z-10.0
G1 X621.7275
G1 F120.0 Z-11.0
G1 F3000.0 X662.5525
G0 Z-10.0
G1 X671.7275
G1 F120.0 Z-11.0
G1 F3000.0 X712.5525
G0 Z-10.0
G1 X721.7275
G1 F120.0 Z-11.0
G1 F3000.0 X762.5525
G0 Z-10.0
G1 X771.7275
G1 F120.0 Z-11.0
G1 F3000.0 X812.5525
G0 Z-10.0
G1 X821.7275
G1 F120.0 Z-11.0
G1 F3000.0 X862.5525
G0 Z-10.0
G1 X871.7275
G1 F120.0 Z-11.0
G1 F3000.0 X885.0351
G3 X886.6226 Y0.0 I0.0 J1.5875
G1 Y27.5175
G0 Z-10.0
G1 Y36.6925
G1 F120.0 Z-11.0
G1 F3000.0 Y77.5175
G0 Z-10.0
G1 Y86.6925
G1 F120.0 Z-11.0
G1 F3000.0 Y127.5175
G0 Z-10.0
G1 Y136.6925
G1 F120.0 Z-11.0
G1 F3000.0 Y177.5175
G0 Z-10.0
G1 Y186.6925
G1 F120.0 Z-11.0
G1 F3000.0 Y227.5175
G0 Z-10.0
G1 Y236.6925
G1 F120.0 Z-11.0
G1 F3000.0 Y277.5175
G0 Z-10.0
G1 Y286.6925
G1 F120.0 Z-11.0
G1 F3000.0 Y327.5175
G0 Z-10.0
G1 Y336.6925
G1 F120.0 Z-11.0
G1 F3000.0 Y377.5175
G0 Z-10.0
G1 Y386.6925
G1 F120.0 Z-11.0
G1 F3000.0 Y427.5175
G0 Z-10.0
G1 Y436.6925
G1 F120.0 Z-11.0
G1 F3000.0 Y477.5175
G0 Z-10.0
G1 Y486.6925
G1 F120.0 Z-11.0
G1 F3000.0 Y527.5175
G0 Z-10.0
G1 Y536.6925
G1 F120.0 Z-11.0
G1 F3000.0 Y573.0875
G3 X885.0351 Y574.675 I-1.5875 J0.0
G1 X880.6051
G0 Z-10.0
G1 X871.4301
G1 F120.0 Z-11.0
G1 F3000.0 X830.6051
G0 Z-10.0
G1 X821.4301
G1 F120.0 Z-11.0
G1 F3000.0 X780.6051
G0 Z-10.0
G1 X771.4301
G1 F120.0 Z-11.0
G1 F3000.0 X730.6051
G0 Z-10.0
G1 X721.4301
G1 F120.0 Z-11.0
G1 F3000.0 X680.6051
G0 Z-10.0
G1 X671.4301
G1 F120.0 Z-11.0
G1 F3000.0 X630.6051
G0 Z-10.0
G1 X621.4301
G1 F120.0 Z-11.0
G1 F3000.0 X592.14
G3 X590.5525 Y573.0875 I0.0 J-1.5875
G1 Y561.5525
G0 Z-10.0
G1 Y552.3775
G1 F120.0 Z-11.0
G1 F3000.0 Y511.5525
G0 Z-10.0
G1 Y502.3775
G1 F120.0 Z-11.0
G1 F3000.0 Y461.5525
G0 Z-10.0
G1 Y452.3775
G1 F120.0 Z-11.0
G1 F3000.0 Y411.5525
G0 Z-10.0
G1 Y402.3775
G1 F120.0 Z-11.0
G1 F3000.0 Y361.5525
G0 Z-10.0
G1 Y352.3775
G1 F120.0 Z-11.0
G1 F3000.0 Y311.5525
G0 Z-10.0
G1 Y302.3775
G1 F120.0 Z-11.0
G1 F3000.0 Y261.5525
G0 Z-10.0
G1 Y252.3775
G1 F120.0 Z-11.0
G1 F3000.0 Y211.5525
G0 Z-10.0
G1 Y202.3775
G1 F120.0 Z-11.0
G1 F3000.0 Y161.5525
G0 Z-10.0
G1 Y152.3775
G1 F120.0 Z-11.0
G1 F3000.0 Y111.5525
G0 Z-10.0
G1 Y102.3775
G1 F120.0 Z-11.0
G1 F3000.0 Y61.5525
G0 Z-10.0
G1 Y52.3775
G1 F120.0 Z-11.0
G1 F3000.0 Y11.5525
G0 Z-10.0
G1 Y2.3775
G1 F120.0 Z-11.0
G1 F3000.0 Y0.0
G3 X592.14 Y-1.5875 I1.5875 J0.0
G1 F120.0 Z-12.0
G1 F3000.0 X612.5525
G0 Z-10.0
G1 X621.7275
G0 Z-10.9
G1 F120.0 Z-12.0
G1 F3000.0 X662.5525
G0 Z-10.0
G1 X671.7275
G0 Z-10.9
G1 F120.0 Z-12.0
G1 F3000.0 X712.5525
G0 Z-10.0
G1 X721.7275
G0 Z-10.9
G1 F120.0 Z-12.0
G1 F3000.0 X762.5525
G0 Z-10.0
G1 X771.7275
G0 Z-10.9
G1 F120.0 Z-12.0
G1 F3000.0 X812.5525
G0 Z-10.0
G1 X821.7275
G0 Z-10.9
G1 F120.0 Z-12.0
G1 F3000.0 X862.5525
G0 Z-10.0
G1 X871.7275
G0 Z-10.9
G1 F120.0 Z-12.0
G1 F3000.0 X885.0351
G3 X886.6226 Y0.0 I0.0 J1.5875
G1 Y27.5175
G0 Z-10.0
G1 Y36.6925
G0 Z-10.9
G1 F120.0 Z-12.0
G1 F3000.0 Y77.5175
G0 Z-10.0
G1 Y86.6925
G0 Z-10.9
G1 F120.0 Z-12.0
G1 F3000.0 Y127.5175
G0 Z-10.0
G1 Y136.6925
G0 Z-10.9
G1 F120.0 Z-12.0
G1 F3000.0 Y177.5175
G0 Z-10.0
G1 Y186.6925
G0 Z-10.9
G1 F120.0 Z-12.0
G1 F3000.0 Y227.5175
G0 Z-10.0
G1 Y236.6925
G0 Z-10.9
G1 F120.0 Z-12.0
G1 F3000.0 Y277.5175
G0 Z-10.0
G1 Y286.6925
G0 Z-10.9
G1 F120.0 Z-12.0
G1 F3000.0 Y327.5175
G0 Z-10.0
G1 Y336.6925
G0 Z-10.9
G1 F120.0 Z-12.0
G1 F3000.0 Y377.5175
G0 Z-10.0
G1 Y386.6925
G0 Z-10.9
G1 F120.0 Z-12.0
G1 F3000.0 Y427.5175
G0 Z-10.0
G1 Y436.6925
G0 Z-10.9
G1 F120.0 Z-12.0
G1 F3000.0 Y477.5175
G0 Z-10.0
G1 Y486.6925
G0 Z-10.9
G1 F120.0 Z-12.0
G1 F3000.0 Y527.5175
G0 Z-10.0
G1 Y536.6925
G0 Z-10.9
G1 F120.0 Z-12.0
G1 F3000.0 Y573.0875
G3 X885.0351 Y574.675 I-1.5875 J0.0
G1 X880.6051
G0 Z-10.0
G1 X871.4301
G0 Z-10.9
G1 F120.0 Z-12.0
G1 F3000.0 X830.6051
G0 Z-10.0
G1 X821.4301
G0 Z-10.9
G1 F120.0 Z-12.0
G1 F3000.0 X780.6051
G0 Z-10.0
G1 X771.4301
G0 Z-10.9
G1 F120.0 Z-12.0
G1 F3000.0 X730.6051
G0 Z-10.0
G1 X721.4301
G0 Z-10.9
G1 F120.0 Z-12.0
G1 F3000.0 X680.6051
G0 Z-10.0
G1 X671.4301
G0 Z-10.9
G1 F120.0 Z-12.0
G1 F3000.0 X630.6051
G0 Z-10.0
G1 X621.4301
G0 Z-10.9
G1 F120.0 Z-12.0
G1 F3000.0 X592.14
G3 X590.5525 Y573.0875 I0.0 J-1.5875
G1 Y561.5525
G0 Z-10.0
G1 Y552.3775
G0 Z-10.9
G1 F120.0 Z-12.0
G1 F3000.0 Y511.5525
G0 Z-10.0
G1 Y502.3775
G0 Z-10.9
G1 F120.0 Z-12.0
G1 F3000.0 Y461.5525
G0 Z-10.0
G1 Y452.3775
G0 Z-10.9
G1 F120.0 Z-12.0
G1 F3000.0 Y411.5525
G0 Z-10.0
G1 Y402.3775
G0 Z-10.9
G1 F120.0 Z-12.0
G1 F3000.0 Y361.5525
G0 Z-10.0
G1 Y352.3775
G0 Z-10.9
G1 F120.0 Z-12.0
G1 F3000.0 Y311.5525
G0 Z-10.0
G1 Y302.3775
G0 Z-10.9
G1 F120.0 Z-12.0
G1 F3000.0 Y261.5525
G0 Z-10.0
G1 Y252.3775
G0 Z-10.9
G1 F120.0 Z-12.0
G1 F3000.0 Y211.5525
G0 Z-10.0
G1 Y202.3775
G0 Z-10.9
G1 F120.0 Z-12.0
G1 F3000.0 Y161.5525
G0 Z-10.0
G1 Y152.3775
G0 Z-10.9
G1 F120.0 Z-12.0
G1 F3000.0 Y111.5525
G0 Z-10.0
G1 Y102.3775
G0 Z-10.9
G1 F120.0 Z-12.0
G1 F3000.0 Y61.5525
G0 Z-10.0
G1 Y52.3775
G0 Z-10.9
G1 F120.0 Z-12.0
G1 F3000.0 Y11.5525
G0 Z-10.0
G1 Y2.3775
G0 Z-10.9
G1 F120.0 Z-12.0
G1 F3000.0 Y0.0
G3 X592.14 Y-1.5875 I1.5875 J0.0
G1 F120.0 Z-13.0
G1 F3000.0 X612.5525
G0 Z-10.0
G1 X621.7275
G0 Z-11.9
G1 F120.0 Z-13.0
G1 F3000.0 X662.5525
G0 Z-10.0
G1 X671.7275
G0 Z-11.9
G1 F120.0 Z-13.0
G1 F3000.0 X712.5525
G0 Z-10.0
G1 X721.7275
G0 Z-11.9
G1 F120.0 Z-13.0
G1 F3000.0 X762.5525
G0 Z-10.0
G1 X771.7275
G0 Z-11.9
G1 F120.0 Z-13.0
G1 F3000.0 X812.5525
G0 Z-10.0
G1 X821.7275
G0 Z-11.9
G1 F120.0 Z-13.0
G1 F3000.0 X862.5525
G0 Z-10.0
G1 X871.7275
G0 Z-11.9
G1 F120.0 Z-13.0
G1 F3000.0 X885.0351
G3 X886.6226 Y0.0 I0.0 J1.5875
G1 Y27.5175
G0 Z-10.0
G1 Y36.6925
G0 Z-11.9
G1 F120.0 Z-13.0
G1 F3000.0 Y77.5175
G0 Z-10.0
G1 Y86.6925
G0 Z-11.9
G1 F120.0 Z-13.0
G1 F3000.0 Y127.5175
G0 Z-10.0
G1 Y136.6925
G0 Z-11.9
G1 F120.0 Z-13.0
G1 F3000.0 Y177.5175
G0 Z-10.0
G1 Y186.6925
G0 Z-11.9
G1 F120.0 Z-13.0
G1 F3000.0 Y227.5175
G0 Z-10.0
G1 Y236.6925
G0 Z-11.9
G1 F120.0 Z-13.0
G1 F3000.0 Y277.5175
G0 Z-10.0
G1 Y286.6925
G0 Z-11.9
G1 F120.0 Z-13.0
G1 F3000.0 Y327.5175
G0 Z-10.0
G1 Y336.6925
G0 Z-11.9
G1 F120.0 Z-13.0
G1 F3000.0 Y377.5175
G0 Z-10.0
G1 Y386.6925
G0 Z-11.9
G1 F120.0 Z-13.0
G1 F3000.0 Y427.5175
G0 Z-10.0
G1 Y436.6925
G0 Z-11.9
G1 F120.0 Z-13.0
G1 F3000.0 Y477.5175
G0 Z-10.0
G1 Y486.6925
G0 Z-11.9
G1 F120.0 Z-13.0
G1 F3000.0 Y527.5175
G0 Z-10.0
G1 Y536.6925
G0 Z-11.9
G1 F120.0 Z-13.0
G1 F3000.0 Y573.0875
G3 X885.0351 Y574.675 I-1.5875 J0.0
G1 X880.6051
G0 Z-10.0
G1 X871.4301
G0 Z-11.9
G1 F120.0 Z-13.0
G1 F3000.0 X830.6051
G0 Z-10.0
G1 X821.4301
G0 Z-11.9
G1 F120.0 Z-13.0
G1 F3000.0 X780.6051
G0 Z-10.0
G1 X771.4301
G0 Z-11.9
G1 F120.0 Z-13.0
G1 F3000.0 X730.6051
G0 Z-10.0
G1 X721.4301
G0 Z-11.9
G1 F120.0 Z-13.0
G1 F3000.0 X680.6051
G0 Z-10.0
G1 X671.4301
G0 Z-11.9
G1 F120.0 Z-13.0
G1 F3000.0 X630.6051
G0 Z-10.0
G1 X621.4301
G0 Z-11.9
G1 F120.0 Z-13.0
G1 F3000.0 X592.14
G3 X590.5525 Y573.0875 I0.0 J-1.5875
G1 Y561.5525
G0 Z-10.0
G1 Y552.3775
G0 Z-11.9
G1 F120.0 Z-13.0
G1 F3000.0 Y511.5525
G0 Z-10.0
G1 Y502.3775
G0 Z-11.9
G1 F120.0 Z-13.0
G1 F3000.0 Y461.5525
G0 Z-10.0
G1 Y452.3775
G0 Z-11.9
G1 F120.0 Z-13.0
G1 F3000.0 Y411.5525
G0 Z-10.0
G1 Y402.3775
G0 Z-11.9
G1 F120.0 Z-13.0
G1 F3000.0 Y361.5525
G0 Z-10.0
G1 Y352.3775
G0 Z-11.9
G1 F120.0 Z-13.0
G1 F3000.0 Y311.5525
G0 Z-10.0
G1 Y302.3775
G0 Z-11.9
G1 F120.0 Z-13.0
G1 F3000.0 Y261.5525
G0 Z-10.0
G1 Y252.3775
G0 Z-11.9
G1 F120.0 Z-13.0
G1 F3000.0 Y211.5525
G0 Z-10.0
G1 Y202.3775
G0 Z-11.9
G1 F120.0 Z-13.0
G1 F3000.0 Y161.5525
G0 Z-10.0
G1 Y152.3775
G0 Z-11.9
G1 F120.0 Z-13.0
G1 F3000.0 Y111.5525
G0 Z-10.0
G1 Y102.3775
G0 Z-11.9
G1 F120.0 Z-13.0
G1 F3000.0 Y61.5525
G0 Z-10.0
G1 Y52.3775
G0 Z-11.9
G1 F120.0 Z-13.0
G1 F3000.0 Y11.5525
G0 Z-10.0
G1 Y2.3775
G0 Z-11.9
G1 F120.0 Z-13.0
G1 F3000.0 Y0.0
G3 X592.14 Y-1.5875 I1.5875 J0.0
G1 F120.0 Z-14.0
G1 F3000.0 X612.5525
G0 Z-10.0
G1 X621.7275
G0 Z-12.9
G1 F120.0 Z-14.0
G1 F3000.0 X662.5525
G0 Z-10.0
G1 X671.7275
G0 Z-12.9
G1 F120.0 Z-14.0
G1 F3000.0 X712.5525
G0 Z-10.0
G1 X721.7275
G0 Z-12.9
G1 F120.0 Z-14.0
G1 F3000.0 X762.5525
G0 Z-10.0
G1 X771.7275
G0 Z-12.9
G1 F120.0 Z-14.0
G1 F3000.0 X812.5525
G0 Z-10.0
G1 X821.7275
G0 Z-12.9
G1 F120.0 Z-14.0
G1 F3000.0 X862.5525
G0 Z-10.0
G1 X871.7275
G0 Z-12.9
G1 F120.0 Z-14.0
G1 F3000.0 X885.0351
G3 X886.6226 Y0.0 I0.0 J1.5875
G1 Y27.5175
G0 Z-10.0
G1 Y36.6925
G0 Z-12.9
G1 F120.0 Z-14.0
G1 F3000.0 Y77.5175
G0 Z-10.0
G1 Y86.6925
G0 Z-12.9
G1 F120.0 Z-14.0
G1 F3000.0 Y127.5175
G0 Z-10.0
G1 Y136.6925
G0 Z-12.9
G1 F120.0 Z-14.0
G1 F3000.0 Y177.5175
G0 Z-10.0
G1 Y186.6925
G0 Z-12.9
G1 F120.0 Z-14.0
G1 F3000.0 Y227.5175
G0 Z-10.0
G1 Y236.6925
G0 Z-12.9
G1 F120.0 Z-14.0
G1 F3000.0 Y277.5175
G0 Z-10.0
G1 Y286.6925
G0 Z-12.9
G1 F120.0 Z-14.0
G1 F3000.0 Y327.5175
G0 Z-10.0
G1 Y336.6925
G0 Z-12.9
G1 F120.0 Z-14.0
G1 F3000.0 Y377.5175
G0 Z-10.0
G1 Y386.6925
G0 Z-12.9
G1 F120.0 Z-14.0
G1 F3000.0 Y427.5175
G0 Z-10.0
G1 Y436.6925
G0 Z-12.9
G1 F120.0 Z-14.0
G1 F3000.0 Y477.5175
G0 Z-10.0
G1 Y486.6925
G0 Z-12.9
G1 F120.0 Z-14.0
G1 F3000.0 Y527.5175
G0 Z-10.0
G1 Y536.6925
G0 Z-12.9
G1 F120.0 Z-14.0
G1 F3000.0 Y573.0875
G3 X885.0351 Y574.675 I-1.5875 J0.0
G1 X880.6051
G0 Z-10.0
G1 X871.4301
G0 Z-12.9
G1 F120.0 Z-14.0
G1 F3000.0 X830.6051
G0 Z-10.0
G1 X821.4301
G0 Z-12.9
G1 F120.0 Z-14.0
G1 F3000.0 X780.6051
G0 Z-10.0
G1 X771.4301
G0 Z-12.9
G1 F120.0 Z-14.0
G1 F3000.0 X730.6051
G0 Z-10.0
G1 X721.4301
G0 Z-12.9
G1 F120.0 Z-14.0
G1 F3000.0 X680.6051
G0 Z-10.0
G1 X671.4301
G0 Z-12.9
G1 F120.0 Z-14.0
G1 F3000.0 X630.6051
G0 Z-10.0
G1 X621.4301
G0 Z-12.9
G1 F120.0 Z-14.0
G1 F3000.0 X592.14
G3 X590.5525 Y573.0875 I0.0 J-1.5875
G1 Y561.5525
G0 Z-10.0
G1 Y552.3775
G0 Z-12.9
G1 F120.0 Z-14.0
G1 F3000.0 Y511.5525
G0 Z-10.0
G1 Y502.3775
G0 Z-12.9
G1 F120.0 Z-14.0
G1 F3000.0 Y461.5525
G0 Z-10.0
G1 Y452.3775
G0 Z-12.9
G1 F120.0 Z-14.0
G1 F3000.0 Y411.5525
G0 Z-10.0
G1 Y402.3775
G0 Z-12.9
G1 F120.0 Z-14.0
G1 F3000.0 Y361.5525
G0 Z-10.0
G1 Y352.3775
G0 Z-12.9
G1 F120.0 Z-14.0
G1 F3000.0 Y311.5525
G0 Z-10.0
G1 Y302.3775
G0 Z-12.9
G1 F120.0 Z-14.0
G1 F3000.0 Y261.5525
G0 Z-10.0
G1 Y252.3775
G0 Z-12.9
G1 F120.0 Z-14.0
G1 F3000.0 Y211.5525
G0 Z-10.0
G1 Y202.3775
G0 Z-12.9
G1 F120.0 Z-14.0
G1 F3000.0 Y161.5525
G0 Z-10.0
G1 Y152.3775
G0 Z-12.9
G1 F120.0 Z-14.0
G1 F3000.0 Y111.5525
G0 Z-10.0
G1 Y102.3775
G0 Z-12.9
G1 F120.0 Z-14.0
G1 F3000.0 Y61.5525
G0 Z-10.0
G1 Y52.3775
G0 Z-12.9
G1 F120.0 Z-14.0
G1 F3000.0 Y11.5525
G0 Z-10.0
G1 Y2.3775
G0 Z-12.9
G1 F120.0 Z-14.0
G1 F3000.0 Y0.0
G3 X592.14 Y-1.5875 I1.5875 J0.0
G1 F120.0 Z-15.0
G1 F3000.0 X612.5525
G0 Z-10.0
G1 X621.7275
G0 Z-13.9
G1 F120.0 Z-15.0
G1 F3000.0 X662.5525
G0 Z-10.0
G1 X671.7275
G0 Z-13.9
G1 F120.0 Z-15.0
G1 F3000.0 X712.5525
G0 Z-10.0
G1 X721.7275
G0 Z-13.9
G1 F120.0 Z-15.0
G1 F3000.0 X762.5525
G0 Z-10.0
G1 X771.7275
G0 Z-13.9
G1 F120.0 Z-15.0
G1 F3000.0 X812.5525
G0 Z-10.0
G1 X821.7275
G0 Z-13.9
G1 F120.0 Z-15.0
G1 F3000.0 X862.5525
G0 Z-10.0
G1 X871.7275
G0 Z-13.9
G1 F120.0 Z-15.0
G1 F3000.0 X885.0351
G3 X886.6226 Y0.0 I0.0 J1.5875
G1 Y27.5175
G0 Z-10.0
G1 Y36.6925
G0 Z-13.9
G1 F120.0 Z-15.0
G1 F3000.0 Y77.5175
G0 Z-10.0
G1 Y86.6925
G0 Z-13.9
G1 F120.0 Z-15.0
G1 F3000.0 Y127.5175
G0 Z-10.0
G1 Y136.6925
G0 Z-13.9
G1 F120.0 Z-15.0
G1 F3000.0 Y177.5175
G0 Z-10.0
G1 Y186.6925
G0 Z-13.9
G1 F120.0 Z-15.0
G1 F3000.0 Y227.5175
G0 Z-10.0
G1 Y236.6925
G0 Z-13.9
G1 F120.0 Z-15.0
G1 F3000.0 Y277.5175
G0 Z-10.0
G1 Y286.6925
G0 Z-13.9
G1 F120.0 Z-15.0
G1 F3000.0 Y327.5175
G0 Z-10.0
G1 Y336.6925
G0 Z-13.9
G1 F120.0 Z-15.0
G1 F3000.0 Y377.5175
G0 Z-10.0
G1 Y386.6925
G0 Z-13.9
G1 F120.0 Z-15.0
G1 F3000.0 Y427.5175
G0 Z-10.0
G1 Y436.6925
G0 Z-13.9
G1 F120.0 Z-15.0
G1 F3000.0 Y477.5175
G0 Z-10.0
G1 Y486.6925
G0 Z-13.9
G1 F120.0 Z-15.0
G1 F3000.0 Y527.5175
G0 Z-10.0
G1 Y536.6925
G0 Z-13.9
G1 F120.0 Z-15.0
G1 F3000.0 Y573.0875
G3 X885.0351 Y574.675 I-1.5875 J0.0
G1 X880.6051
G0 Z-10.0
G1 X871.4301
G0 Z-13.9
G1 F120.0 Z-15.0
G1 F3000.0 X830.6051
G0 Z-10.0
G1 X821.4301
G0 Z-13.9
G1 F120.0 Z-15.0
G1 F3000.0 X780.6051
G0 Z-10.0
G1 X771.4301
G0 Z-13.9
G1 F120.0 Z-15.0
G1 F3000.0 X730.6051
G0 Z-10.0
G1 X721.4301
G0 Z-13.9
G1 F120.0 Z-15.0
G1 F3000.0 X680.6051
G0 Z-10.0
G1 X671.4301
G0 Z-13.9
G1 F120.0 Z-15.0
G1 F3000.0 X630.6051
G0 Z-10.0
G1 X621.4301
G0 Z-13.9
G1 F120.0 Z-15.0
G1 F3000.0 X592.14
G3 X590.5525 Y573.0875 I0.0 J-1.5875
G1 Y561.5525
G0 Z-10.0
G1 Y552.3775
G0 Z-13.9
G1 F120.0 Z-15.0
G1 F3000.0 Y511.5525
G0 Z-10.0
G1 Y502.3775
G0 Z-13.9
G1 F120.0 Z-15.0
G1 F3000.0 Y461.5525
G0 Z-10.0
G1 Y452.3775
G0 Z-13.9
G1 F120.0 Z-15.0
G1 F3000.0 Y411.5525
G0 Z-10.0
G1 Y402.3775
G0 Z-13.9
G1 F120.0 Z-15.0
G1 F3000.0 Y361.5525
G0 Z-10.0
G1 Y352.3775
G0 Z-13.9
G1 F120.0 Z-15.0
G1 F3000.0 Y311.5525
G0 Z-10.0
G1 Y302.3775
G0 Z-13.9
G1 F120.0 Z-15.0
G1 F3000.0 Y261.5525
G0 Z-10.0
G1 Y252.3775
G0 Z-13.9
G1 F120.0 Z-15.0
G1 F3000.0 Y211.5525
G0 Z-10.0
G1 Y202.3775
G0 Z-13.9
G1 F120.0 Z-15.0
G1 F3000.0 Y161.5525
G0 Z-10.0
G1 Y152.3775
G0 Z-13.9
G1 F120.0 Z-15.0
G1 F3000.0 Y111.5525
G0 Z-10.0
G1 Y102.3775
G0 Z-13.9
G1 F120.0 Z-15.0
G1 F3000.0 Y61.5525
G0 Z-10.0
G1 Y52.3775
G0 Z-13.9
G1 F120.0 Z-15.0
G1 F3000.0 Y11.5525
G0 Z-10.0
G1 Y2.3775
G0 Z-13.9
G1 F120.0 Z-15.0
G1 F3000.0 Y0.0
G3 X592.14 Y-1.5875 I1.5875 J0.0
G1 F120.0 Z-16.0
G1 F3000.0 X612.5525
G0 Z-10.0
G1 X621.7275
G0 Z-14.9
G1 F120.0 Z-16.0
G1 F3000.0 X662.5525
G0 Z-10.0
G1 X671.7275
G0 Z-14.9
G1 F120.0 Z-16.0
G1 F3000.0 X712.5525
G0 Z-10.0
G1 X721.7275
G0 Z-14.9
G1 F120.0 Z-16.0
G1 F3000.0 X762.5525
G0 Z-10.0
G1 X771.7275
G0 Z-14.9
G1 F120.0 Z-16.0
G1 F3000.0 X812.5525
G0 Z-10.0
G1 X821.7275
G0 Z-14.9
G1 F120.0 Z-16.0
G1 F3000.0 X862.5525
G0 Z-10.0
G1 X871.7275
G0 Z-14.9
G1 F120.0 Z-16.0
G1 F3000.0 X885.0351
G3 X886.6226 Y0.0 I0.0 J1.5875
G1 Y27.5175
G0 Z-10.0
G1 Y36.6925
G0 Z-14.9
G1 F120.0 Z-16.0
G1 F3000.0 Y77.5175
G0 Z-10.0
G1 Y86.6925
G0 Z-14.9
G1 F120.0 Z-16.0
G1 F3000.0 Y127.5175
G0 Z-10.0
G1 Y136.6925
G0 Z-14.9
G1 F120.0 Z-16.0
G1 F3000.0 Y177.5175
G0 Z-10.0
G1 Y186.6925
G0 Z-14.9
G1 F120.0 Z-16.0
G1 F3000.0 Y227.5175
G0 Z-10.0
G1 Y236.6925
G0 Z-14.9
G1 F120.0 Z-16.0
G1 F3000.0 Y277.5175
G0 Z-10.0
G1 Y286.6925
G0 Z-14.9
G1 F120.0 Z-16.0
G1 F3000.0 Y327.5175
G0 Z-10.0
G1 Y336.6925
G0 Z-14.9
G1 F120.0 Z-16.0
G1 F3000.0 Y377.5175
G0 Z-10.0
G1 Y386.6925
G0 Z-14.9
G1 F120.0 Z-16.0
G1 F3000.0 Y427.5175
G0 Z-10.0
G1 Y436.6925
G0 Z-14.9
G1 F120.0 Z-16.0
G1 F3000.0 Y477.5175
G0 Z-10.0
G1 Y486.6925
G0 Z-14.9
G1 F120.0 Z-16.0
G1 F3000.0 Y527.5175
G0 Z-10.0
G1 Y536.6925
G0 Z-14.9
G1 F120.0 Z-16.0
G1 F3000.0 Y573.0875
G3 X885.0351 Y574.675 I-1.5875 J0.0
G1 X880.6051
G0 Z-10.0
G1 X871.4301
G0 Z-14.9
G1 F120.0 Z-16.0
G1 F3000.0 X830.6051
G0 Z-10.0
G1 X821.4301
G0 Z-14.9
G1 F120.0 Z-16.0
G1 F3000.0 X780.6051
G0 Z-10.0
G1 X771.4301
G0 Z-14.9
G1 F120.0 Z-16.0
G1 F3000.0 X730.6051
G0 Z-10.0
G1 X721.4301
G0 Z-14.9
G1 F120.0 Z-16.0
G1 F3000.0 X680.6051
G0 Z-10.0
G1 X671.4301
G0 Z-14.9
G1 F120.0 Z-16.0
G1 F3000.0 X630.6051
G0 Z-10.0
G1 X621.4301
G0 Z-14.9
G1 F120.0 Z-16.0
G1 F3000.0 X592.14
G3 X590.5525 Y573.0875 I0.0 J-1.5875
G1 Y561.5525
G0 Z-10.0
G1 Y552.3775
G0 Z-14.9
G1 F120.0 Z-16.0
G1 F3000.0 Y511.5525
G0 Z-10.0
G1 Y502.3775
G0 Z-14.9
G1 F120.0 Z-16.0
G1 F3000.0 Y461.5525
G0 Z-10.0
G1 Y452.3775
G0 Z-14.9
G1 F120.0 Z-16.0
G1 F3000.0 Y411.5525
G0 Z-10.0
G1 Y402.3775
G0 Z-14.9
G1 F120.0 Z-16.0
G1 F3000.0 Y361.5525
G0 Z-10.0
G1 Y352.3775
G0 Z-14.9
G1 F120.0 Z-16.0
G1 F3000.0 Y311.5525
G0 Z-10.0
G1 Y302.3775
G0 Z-14.9
G1 F120.0 Z-16.0
G1 F3000.0 Y261.5525
G0 Z-10.0
G1 Y252.3775
G0 Z-14.9
G1 F120.0 Z-16.0
G1 F3000.0 Y211.5525
G0 Z-10.0
G1 Y202.3775
G0 Z-14.9
G1 F120.0 Z-16.0
G1 F3000.0 Y161.5525
G0 Z-10.0
G1 Y152.3775
G0 Z-14.9
G1 F120.0 Z-16.0
G1 F3000.0 Y111.5525
G0 Z-10.0
G1 Y102.3775
G0 Z-14.9
G1 F120.0 Z-16.0
G1 F3000.0 Y61.5525
G0 Z-10.0
G1 Y52.3775
G0 Z-14.9
G1 F120.0 Z-16.0
G1 F3000.0 Y11.5525
G0 Z-10.0
G1 Y2.3775
G0 Z-14.9
G1 F120.0 Z-16.0
G1 F3000.0 Y0.0
G3 X592.14 Y-1.5875 I1.5875 J0.0
G1 F120.0 Z-17.0
G1 F3000.0 X612.5525
G0 Z-10.0
G1 X621.7275
G0 Z-15.9
G1 F120.0 Z-17.0
G1 F3000.0 X662.5525
G0 Z-10.0
G1 X671.7275
G0 Z-15.9
G1 F120.0 Z-17.0
G1 F3000.0 X712.5525
G0 Z-10.0
G1 X721.7275
G0 Z-15.9
G1 F120.0 Z-17.0
G1 F3000.0 X762.5525
G0 Z-10.0
G1 X771.7275
G0 Z-15.9
G1 F120.0 Z-17.0
G1 F3000.0 X812.5525
G0 Z-10.0
G1 X821.7275
G0 Z-15.9
G1 F120.0 Z-17.0
G1 F3000.0 X862.5525
G0 Z-10.0
G1 X871.7275
G0 Z-15.9
G1 F120.0 Z-17.0
G1 F3000.0 X885.0351
G3 X886.6226 Y0.0 I0.0 J1.5875
G1 Y27.5175
G0 Z-10.0
G1 Y36.6925
G0 Z-15.9
G1 F120.0 Z-17.0
G1 F3000.0 Y77.5175
G0 Z-10.0
G1 Y86.6925
G0 Z-15.9
G1 F120.0 Z-17.0
G1 F3000.0 Y127.5175
G0 Z-10.0
G1 Y136.6925
G0 Z-15.9
G1 F120.0 Z-17.0
G1 F3000.0 Y177.5175
G0 Z-10.0
G1 Y186.6925
G0 Z-15.9
G1 F120.0 Z-17.0
G1 F3000.0 Y227.5175
G0 Z-10.0
G1 Y236.6925
G0 Z-15.9
G1 F120.0 Z-17.0
G1 F3000.0 Y277.5175
G0 Z-10.0
G1 Y286.6925
G0 Z-15.9
G1 F120.0 Z-17.0
G1 F3000.0 Y327.5175
G0 Z-10.0
G1 Y336.6925
G0 Z-15.9
G1 F120.0 Z-17.0
G1 F3000.0 Y377.5175
G0 Z-10.0
G1 Y386.6925
G0 Z-15.9
G1 F120.0 Z-17.0
G1 F3000.0 Y427.5175
G0 Z-10.0
G1 Y436.6925
G0 Z-15.9
G1 F120.0 Z-17.0
G1 F3000.0 Y477.5175
G0 Z-10.0
G1 Y486.6925
G0 Z-15.9
G1 F120.0 Z-17.0
G1 F3000.0 Y527.5175
G0 Z-10.0
G1 Y536.6925
G0 Z-15.9
G1 F120.0 Z-17.0
G1 F3000.0 Y573.0875
G3 X885.0351 Y574.675 I-1.5875 J0.0
G1 X880.6051
G0 Z-10.0
G1 X871.4301
G0 Z-15.9
G1 F120.0 Z-17.0
G1 F3000.0 X830.6051
G0 Z-10.0
G1 X821.4301
G0 Z-15.9
G1 F120.0 Z-17.0
G1 F3000.0 X780.6051
G0 Z-10.0
G1 X771.4301
G0 Z-15.9
G1 F120.0 Z-17.0
G1 F3000.0 X730.6051
G0 Z-10.0
G1 X721.4301
G0 Z-15.9
G1 F120.0 Z-17.0
G1 F3000.0 X680.6051
G0 Z-10.0
G1 X671.4301
G0 Z-15.9
G1 F120.0 Z-17.0
G1 F3000.0 X630.6051
G0 Z-10.0
G1 X621.4301
G0 Z-15.9
G1 F120.0 Z-17.0
G1 F3000.0 X592.14
G3 X590.5525 Y573.0875 I0.0 J-1.5875
G1 Y561.5525
G0 Z-10.0
G1 Y552.3775
G0 Z-15.9
G1 F120.0 Z-17.0
G1 F3000.0 Y511.5525
G0 Z-10.0
G1 Y502.3775
G0 Z-15.9
G1 F120.0 Z-17.0
G1 F3000.0 Y461.5525
G0 Z-10.0
G1 Y452.3775
G0 Z-15.9
G1 F120.0 Z-17.0
G1 F3000.0 Y411.5525
G0 Z-10.0
G1 Y402.3775
G0 Z-15.9
G1 F120.0 Z-17.0
G1 F3000.0 Y361.5525
G0 Z-10.0
G1 Y352.3775
G0 Z-15.9
G1 F120.0 Z-17.0
G1 F3000.0 Y311.5525
G0 Z-10.0
G1 Y302.3775
G0 Z-15.9
G1 F120.0 Z-17.0
G1 F3000.0 Y261.5525
G0 Z-10.0
G1 Y252.3775
G0 Z-15.9
G1 F120.0 Z-17.0
G1 F3000.0 Y211.5525
G0 Z-10.0
G1 Y202.3775
G0 Z-15.9
G1 F120.0 Z-17.0
G1 F3000.0 Y161.5525
G0 Z-10.0
G1 Y152.3775
G0 Z-15.9
G1 F120.0 Z-17.0
G1 F3000.0 Y111.5525
G0 Z-10.0
G1 Y102.3775
G0 Z-15.9
G1 F120.0 Z-17.0
G1 F3000.0 Y61.5525
G0 Z-10.0
G1 Y52.3775
G0 Z-15.9
G1 F120.0 Z-17.0
G1 F3000.0 Y11.5525
G0 Z-10.0
G1 Y2.3775
G0 Z-15.9
G1 F120.0 Z-17.0
G1 F3000.0 Y0.0
G3 X592.14 Y-1.5875 I1.5875 J0.0
G1 F120.0 Z-18.0
G1 F3000.0 X612.5525
G0 Z-10.0
G1 X621.7275
G0 Z-16.9
G1 F120.0 Z-18.0
G1 F3000.0 X662.5525
G0 Z-10.0
G1 X671.7275
G0 Z-16.9
G1 F120.0 Z-18.0
G1 F3000.0 X712.5525
G0 Z-10.0
G1 X721.7275
G0 Z-16.9
G1 F120.0 Z-18.0
G1 F3000.0 X762.5525
G0 Z-10.0
G1 X771.7275
G0 Z-16.9
G1 F120.0 Z-18.0
G1 F3000.0 X812.5525
G0 Z-10.0
G1 X821.7275
G0 Z-16.9
G1 F120.0 Z-18.0
G1 F3000.0 X862.5525
G0 Z-10.0
G1 X871.7275
G0 Z-16.9
G1 F120.0 Z-18.0
G1 F3000.0 X885.0351
G3 X886.6226 Y0.0 I0.0 J1.5875
G1 Y27.5175
G0 Z-10.0
G1 Y36.6925
G0 Z-16.9
G1 F120.0 Z-18.0
G1 F3000.0 Y77.5175
G0 Z-10.0
G1 Y86.6925
G0 Z-16.9
G1 F120.0 Z-18.0
G1 F3000.0 Y127.5175
G0 Z-10.0
G1 Y136.6925
G0 Z-16.9
G1 F120.0 Z-18.0
G1 F3000.0 Y177.5175
G0 Z-10.0
G1 Y186.6925
G0 Z-16.9
G1 F120.0 Z-18.0
G1 F3000.0 Y227.5175
G0 Z-10.0
G1 Y236.6925
G0 Z-16.9
G1 F120.0 Z-18.0
G1 F3000.0 Y277.5175
G0 Z-10.0
G1 Y286.6925
G0 Z-16.9
G1 F120.0 Z-18.0
G1 F3000.0 Y327.5175
G0 Z-10.0
G1 Y336.6925
G0 Z-16.9
G1 F120.0 Z-18.0
G1 F3000.0 Y377.5175
G0 Z-10.0
G1 Y386.6925
G0 Z-16.9
G1 F120.0 Z-18.0
G1 F3000.0 Y427.5175
G0 Z-10.0
G1 Y436.6925
G0 Z-16.9
G1 F120.0 Z-18.0
G1 F3000.0 Y477.5175
G0 Z-10.0
G1 Y486.6925
G0 Z-16.9
G1 F120.0 Z-18.0
G1 F3000.0 Y527.5175
G0 Z-10.0
G1 Y536.6925
G0 Z-16.9
G1 F120.0 Z-18.0
G1 F3000.0 Y573.0875
G3 X885.0351 Y574.675 I-1.5875 J0.0
G1 X880.6051
G0 Z-10.0
G1 X871.4301
G0 Z-16.9
G1 F120.0 Z-18.0
G1 F3000.0 X830.6051
G0 Z-10.0
G1 X821.4301
G0 Z-16.9
G1 F120.0 Z-18.0
G1 F3000.0 X780.6051
G0 Z-10.0
G1 X771.4301
G0 Z-16.9
G1 F120.0 Z-18.0
G1 F3000.0 X730.6051
G0 Z-10.0
G1 X721.4301
G0 Z-16.9
G1 F120.0 Z-18.0
G1 F3000.0 X680.6051
G0 Z-10.0
G1 X671.4301
G0 Z-16.9
G1 F120.0 Z-18.0
G1 F3000.0 X630.6051
G0 Z-10.0
G1 X621.4301
G0 Z-16.9
G1 F120.0 Z-18.0
G1 F3000.0 X592.14
G3 X590.5525 Y573.0875 I0.0 J-1.5875
G1 Y561.5525
G0 Z-10.0
G1 Y552.3775
G0 Z-16.9
G1 F120.0 Z-18.0
G1 F3000.0 Y511.5525
G0 Z-10.0
G1 Y502.3775
G0 Z-16.9
G1 F120.0 Z-18.0
G1 F3000.0 Y461.5525
G0 Z-10.0
G1 Y452.3775
G0 Z-16.9
G1 F120.0 Z-18.0
G1 F3000.0 Y411.5525
G0 Z-10.0
G1 Y402.3775
G0 Z-16.9
G1 F120.0 Z-18.0
G1 F3000.0 Y361.5525
G0 Z-10.0
G1 Y352.3775
G0 Z-16.9
G1 F120.0 Z-18.0
G1 F3000.0 Y311.5525
G0 Z-10.0
G1 Y302.3775
G0 Z-16.9
G1 F120.0 Z-18.0
G1 F3000.0 Y261.5525
G0 Z-10.0
G1 Y252.3775
G0 Z-16.9
G1 F120.0 Z-18.0
G1 F3000.0 Y211.5525
G0 Z-10.0
G1 Y202.3775
G0 Z-16.9
G1 F120.0 Z-18.0
G1 F3000.0 Y161.5525
G0 Z-10.0
G1 Y152.3775
G0 Z-16.9
G1 F120.0 Z-18.0
G1 F3000.0 Y111.5525
G0 Z-10.0
G1 Y102.3775
G0 Z-16.9
G1 F120.0 Z-18.0
G1 F3000.0 Y61.5525
G0 Z-10.0
G1 Y52.3775
G0 Z-16.9
G1 F120.0 Z-18.0
G1 F3000.0 Y11.5525
G0 Z-10.0
G1 Y2.3775
G0 Z-16.9
G1 F120.0 Z-18.0
G1 F3000.0 Y0.0
G3 X592.14 Y-1.5875 I1.5875 J0.0
( Profile1 )
S12000
G0 Z25.0
G0 X888.2101
G0 Z0.1
G1 F120.0 Z-1.0
G1 F3000.0 X1181.1051
G3 X1182.6926 Y0.0 I0.0 J1.5875
G1 Y573.0875
G3 X1181.1051 Y574.675 I-1.5875 J0.0
G1 X888.2101
G3 X886.6226 Y573.0875 I0.0 J-1.5875
G1 Y0.0
G3 X888.2101 Y-1.5875 I1.5875 J0.0
G1 F120.0 Z-2.0
G1 F3000.0 X1181.1051
G3 X1182.6926 Y0.0 I0.0 J1.5875
G1 Y573.0875
G3 X1181.1051 Y574.675 I-1.5875 J0.0
G1 X888.2101
G3 X886.6226 Y573.0875 I0.0 J-1.5875
G1 Y0.0
G3 X888.2101 Y-1.5875 I1.5875 J0.0
G1 F120.0 Z-3.0
G1 F3000.0 X1181.1051
G3 X1182.6926 Y0.0 I0.0 J1.5875
G1 Y573.0875
G3 X1181.1051 Y574.675 I-1.5875 J0.0
G1 X888.2101
G3 X886.6226 Y573.0875 I0.0 J-1.5875
G1 Y0.0
G3 X888.2101 Y-1.5875 I1.5875 J0.0
G1 F120.0 Z-4.0
G1 F3000.0 X1181.1051
G3 X1182.6926 Y0.0 I0.0 J1.5875
G1 Y573.0875
G3 X1181.1051 Y574.675 I-1.5875 J0.0
G1 X888.2101
G3 X886.6226 Y573.0875 I0.0 J-1.5875
G1 Y0.0
G3 X888.2101 Y-1.5875 I1.5875 J0.0
G1 F120.0 Z-5.0
G1 F3000.0 X1181.1051
G3 X1182.6926 Y0.0 I0.0 J1.5875
G1 Y573.0875
G3 X1181.1051 Y574.675 I-1.5875 J0.0
G1 X888.2101
G3 X886.6226 Y573.0875 I0.0 J-1.5875
G1 Y0.0
G3 X888.2101 Y-1.5875 I1.5875 J0.0
G1 F120.0 Z-6.0
G1 F3000.0 X1181.1051
G3 X1182.6926 Y0.0 I0.0 J1.5875
G1 Y573.0875
G3 X1181.1051 Y574.675 I-1.5875 J0.0
G1 X888.2101
G3 X886.6226 Y573.0875 I0.0 J-1.5875
G1 Y0.0
G3 X888.2101 Y-1.5875 I1.5875 J0.0
G1 F120.0 Z-7.0
G1 F3000.0 X1181.1051
G3 X1182.6926 Y0.0 I0.0 J1.5875
G1 Y573.0875
G3 X1181.1051 Y574.675 I-1.5875 J0.0
G1 X888.2101
G3 X886.6226 Y573.0875 I0.0 J-1.5875
G1 Y0.0
G3 X888.2101 Y-1.5875 I1.5875 J0.0
G1 F120.0 Z-8.0
G1 F3000.0 X1181.1051
G3 X1182.6926 Y0.0 I0.0 J1.5875
G1 Y573.0875
G3 X1181.1051 Y574.675 I-1.5875 J0.0
G1 X888.2101
G3 X886.6226 Y573.0875 I0.0 J-1.5875
G1 Y0.0
G3 X888.2101 Y-1.5875 I1.5875 J0.0
G1 F120.0 Z-9.0
G1 F3000.0 X1181.1051
G3 X1182.6926 Y0.0 I0.0 J1.5875
G1 Y573.0875
G3 X1181.1051 Y574.675 I-1.5875 J0.0
G1 X888.2101
G3 X886.6226 Y573.0875 I0.0 J-1.5875
G1 Y0.0
G3 X888.2101 Y-1.5875 I1.5875 J0.0
G1 F120.0 Z-10.0
G1 F3000.0 X1181.1051
G3 X1182.6926 Y0.0 I0.0 J1.5875
G1 Y573.0875
G3 X1181.1051 Y574.675 I-1.5875 J0.0
G1 X888.2101
G3 X886.6226 Y573.0875 I0.0 J-1.5875
G1 Y0.0
G3 X888.2101 Y-1.5875 I1.5875 J0.0
G1 F120.0 Z-11.0
G1 F3000.0 X908.6226
G0 Z-10.0
G1 X917.7976
G1 F120.0 Z-11.0
G1 F3000.0 X958.6226
G0 Z-10.0
G1 X967.7976
G1 F120.0 Z-11.0
G1 F3000.0 X1008.6226
G0 Z-10.0
G1 X1017.7976
G1 F120.0 Z-11.0
G1 F3000.0 X1058.6226
G0 Z-10.0
G1 X1067.7976
G1 F120.0 Z-11.0
G1 F3000.0 X1108.6226
G0 Z-10.0
G1 X1117.7976
G1 F120.0 Z-11.0
G1 F3000.0 X1158.6226
G0 Z-10.0
G1 X1167.7976
G1 F120.0 Z-11.0
G1 F3000.0 X1181.1051
G3 X1182.6926 Y0.0 I0.0 J1.5875
G1 Y27.5175
G0 Z-10.0
G1 Y36.6925
G1 F120.0 Z-11.0
G1 F3000.0 Y77.5175
G0 Z-10.0
G1 Y86.6925
G1 F120.0 Z-11.0
G1 F3000.0 Y127.5175
G0 Z-10.0
G1 Y136.6925
G1 F120.0 Z-11.0
G1 F3000.0 Y177.5175
G0 Z-10.0
G1 Y186.6925
G1 F120.0 Z-11.0
G1 F3000.0 Y227.5175
G0 Z-10.0
G1 Y236.6925
G1 F120.0 Z-11.0
G1 F3000.0 Y277.5175
G0 Z-10.0
G1 Y286.6925
G1 F120.0 Z-11.0
G1 F3000.0 Y327.5175
G0 Z-10.0
G1 Y336.6925
G1 F120.0 Z-11.0
G1 F3000.0 Y377.5175
G0 Z-10.0
G1 Y386.6925
G1 F120.0 Z-11.0
G1 F3000.0 Y427.5175
G0 Z-10.0
G1 Y436.6925
G1 F120.0 Z-11.0
G1 F3000.0 Y477.5175
G0 Z-10.0
G1 Y486.6925
G1 F120.0 Z-11.0
G1 F3000.0 Y527.5175
G0 Z-10.0
G1 Y536.6925
G1 F120.0 Z-11.0
G1 F3000.0 Y573.0875
G3 X1181.1051 Y574.675 I-1.5875 J0.0
G1 X1176.6751
G0 Z-10.0
G1 X1167.5001
G1 F120.0 Z-11.0
G1 F3000.0 X1126.6751
G0 Z-10.0
G1 X1117.5001
G1 F120.0 Z-11.0
G1 F3000.0 X1076.6751
G0 Z-10.0
G1 X1067.5001
G1 F120.0 Z-11.0
G1 F3000.0 X1026.6751
G0 Z-10.0
G1 X1017.5001
G1 F120.0 Z-11.0
G1 F3000.0 X976.6751
G0 Z-10.0
G1 X967.5001
G1 F120.0 Z-11.0
G1 F3000.0 X926.6751
G0 Z-10.0
G1 X917.5001
G1 F120.0 Z-11.0
G1 F3000.0 X888.2101
G3 X886.6226 Y573.0875 I0.0 J-1.5875
G1 Y561.5525
G0 Z-10.0
G1 Y552.3775
G1 F120.0 Z-11.0
G1 F3000.0 Y511.5525
G0 Z-10.0
G1 Y502.3775
G1 F120.0 Z-11.0
G1 F3000.0 Y461.5525
G0 Z-10.0
G1 Y452.3775
G1 F120.0 Z-11.0
G1 F3000.0 Y411.5525
G0 Z-10.0
G1 Y402.3775
G1 F120.0 Z-11.0
G1 F3000.0 Y361.5525
G0 Z-10.0
G1 Y352.3775
G1 F120.0 Z-11.0
G1 F3000.0 Y311.5525
G0 Z-10.0
G1 Y302.3775
G1 F120.0 Z-11.0
G1 F3000.0 Y261.5525
G0 Z-10.0
G1 Y252.3775
G1 F120.0 Z-11.0
G1 F3000.0 Y211.5525
G0 Z-10.0
G1 Y202.3775
G1 F120.0 Z-11.0
G1 F3000.0 Y161.5525
G0 Z-10.0
G1 Y152.3775
G1 F120.0 Z-11.0
G1 F3000.0 Y111.5525
G0 Z-10.0
G1 Y102.3775
G1 F120.0 Z-11.0
G1 F3000.0 Y61.5525
G0 Z-10.0
G1 Y52.3775
G1 F120.0 Z-11.0
G1 F3000.0 Y11.5525
G0 Z-10.0
G1 Y2.3775
G1 F120.0 Z-11.0
G1 F3000.0 Y0.0
G3 X888.2101 Y-1.5875 I1.5875 J0.0
G1 F120.0 Z-12.0
G1 F3000.0 X908.6226
G0 Z-10.0
G1 X917.7976
G0 Z-10.9
G1 F120.0 Z-12.0
G1 F3000.0 X958.6226
G0 Z-10.0
G1 X967.7976
G0 Z-10.9
G1 F120.0 Z-12.0
G1 F3000.0 X1008.6226
G0 Z-10.0
G1 X1017.7976
G0 Z-10.9
G1 F120.0 Z-12.0
G1 F3000.0 X1058.6226
G0 Z-10.0
G1 X1067.7976
G0 Z-10.9
G1 F120.0 Z-12.0
G1 F3000.0 X1108.6226
G0 Z-10.0
G1 X1117.7976
G0 Z-10.9
G1 F120.0 Z-12.0
G1 F3000.0 X1158.6226
G0 Z-10.0
G1 X1167.7976
G0 Z-10.9
G1 F120.0 Z-12.0
G1 F3000.0 X1181.1051
G3 X1182.6926 Y0.0 I0.0 J1.5875
G1 Y27.5175
G0 Z-10.0
G1 Y36.6925
G0 Z-10.9
G1 F120.0 Z-12.0
G1 F3000.0 Y77.5175
G0 Z-10.0
G1 Y86.6925
G0 Z-10.9
G1 F120.0 Z-12.0
G1 F3000.0 Y127.5175
G0 Z-10.0
G1 Y136.6925
G0 Z-10.9
G1 F120.0 Z-12.0
G1 F3000.0 Y177.5175
G0 Z-10.0
G1 Y186.6925
G0 Z-10.9
G1 F120.0 Z-12.0
G1 F3000.0 Y227.5175
G0 Z-10.0
G1 Y236.6925
G0 Z-10.9
G1 F120.0 Z-12.0
G1 F3000.0 Y277.5175
G0 Z-10.0
G1 Y286.6925
G0 Z-10.9
G1 F120.0 Z-12.0
G1 F3000.0 Y327.5175
G0 Z-10.0
G1 Y336.6925
G0 Z-10.9
G1 F120.0 Z-12.0
G1 F3000.0 Y377.5175
G0 Z-10.0
G1 Y386.6925
G0 Z-10.9
G1 F120.0 Z-12.0
G1 F3000.0 Y427.5175
G0 Z-10.0
G1 Y436.6925
G0 Z-10.9
G1 F120.0 Z-12.0
G1 F3000.0 Y477.5175
G0 Z-10.0
G1 Y486.6925
G0 Z-10.9
G1 F120.0 Z-12.0
G1 F3000.0 Y527.5175
G0 Z-10.0
G1 Y536.6925
G0 Z-10.9
G1 F120.0 Z-12.0
G1 F3000.0 Y573.0875
G3 X1181.1051 Y574.675 I-1.5875 J0.0
G1 X1176.6751
G0 Z-10.0
G1 X1167.5001
G0 Z-10.9
G1 F120.0 Z-12.0
G1 F3000.0 X1126.6751
G0 Z-10.0
G1 X1117.5001
G0 Z-10.9
G1 F120.0 Z-12.0
G1 F3000.0 X1076.6751
G0 Z-10.0
G1 X1067.5001
G0 Z-10.9
G1 F120.0 Z-12.0
G1 F3000.0 X1026.6751
G0 Z-10.0
G1 X1017.5001
G0 Z-10.9
G1 F120.0 Z-12.0
G1 F3000.0 X976.6751
G0 Z-10.0
G1 X967.5001
G0 Z-10.9
G1 F120.0 Z-12.0
G1 F3000.0 X926.6751
G0 Z-10.0
G1 X917.5001
G0 Z-10.9
G1 F120.0 Z-12.0
G1 F3000.0 X888.2101
G3 X886.6226 Y573.0875 I0.0 J-1.5875
G1 Y561.5525
G0 Z-10.0
G1 Y552.3775
G0 Z-10.9
G1 F120.0 Z-12.0
G1 F3000.0 Y511.5525
G0 Z-10.0
G1 Y502.3775
G0 Z-10.9
G1 F120.0 Z-12.0
G1 F3000.0 Y461.5525
G0 Z-10.0
G1 Y452.3775
G0 Z-10.9
G1 F120.0 Z-12.0
G1 F3000.0 Y411.5525
G0 Z-10.0
G1 Y402.3775
G0 Z-10.9
G1 F120.0 Z-12.0
G1 F3000.0 Y361.5525
G0 Z-10.0
G1 Y352.3775
G0 Z-10.9
G1 F120.0 Z-12.0
G1 F3000.0 Y311.5525
G0 Z-10.0
G1 Y302.3775
G0 Z-10.9
G1 F120.0 Z-12.0
G1 F3000.0 Y261.5525
G0 Z-10.0
G1 Y252.3775
G0 Z-10.9
G1 F120.0 Z-12.0
G1 F3000.0 Y211.5525
G0 Z-10.0
G1 Y202.3775
G0 Z-10.9
G1 F120.0 Z-12.0
G1 F3000.0 Y161.5525
G0 Z-10.0
G1 Y152.3775
G0 Z-10.9
G1 F120.0 Z-12.0
G1 F3000.0 Y111.5525
G0 Z-10.0
G1 Y102.3775
G0 Z-10.9
G1 F120.0 Z-12.0
G1 F3000.0 Y61.5525
G0 Z-10.0
G1 Y52.3775
G0 Z-10.9
G1 F120.0 Z-12.0
G1 F3000.0 Y11.5525
G0 Z-10.0
G1 Y2.3775
G0 Z-10.9
G1 F120.0 Z-12.0
G1 F3000.0 Y0.0
G3 X888.2101 Y-1.5875 I1.5875 J0.0
G1 F120.0 Z-13.0
G1 F3000.0 X908.6226
G0 Z-10.0
G1 X917.7976
G0 Z-11.9
G1 F120.0 Z-13.0
G1 F3000.0 X958.6226
G0 Z-10.0
G1 X967.7976
G0 Z-11.9
G1 F120.0 Z-13.0
G1 F3000.0 X1008.6226
G0 Z-10.0
G1 X1017.7976
G0 Z-11.9
G1 F120.0 Z-13.0
G1 F3000.0 X1058.6226
G0 Z-10.0
G1 X1067.7976
G0 Z-11.9
G1 F120.0 Z-13.0
G1 F3000.0 X1108.6226
G0 Z-10.0
G1 X1117.7976
G0 Z-11.9
G1 F120.0 Z-13.0
G1 F3000.0 X1158.6226
G0 Z-10.0
G1 X1167.7976
G0 Z-11.9
G1 F120.0 Z-13.0
G1 F3000.0 X1181.1051
G3 X1182.6926 Y0.0 I0.0 J1.5875
G1 Y27.5175
G0 Z-10.0
G1 Y36.6925
G0 Z-11.9
G1 F120.0 Z-13.0
G1 F3000.0 Y77.5175
G0 Z-10.0
G1 Y86.6925
G0 Z-11.9
G1 F120.0 Z-13.0
G1 F3000.0 Y127.5175
G0 Z-10.0
G1 Y136.6925
G0 Z-11.9
G1 F120.0 Z-13.0
G1 F3000.0 Y177.5175
G0 Z-10.0
G1 Y186.6925
G0 Z-11.9
G1 F120.0 Z-13.0
G1 F3000.0 Y227.5175
G0 Z-10.0
G1 Y236.6925
G0 Z-11.9
G1 F120.0 Z-13.0
G1 F3000.0 Y277.5175
G0 Z-10.0
G1 Y286.6925
G0 Z-11.9
G1 F120.0 Z-13.0
G1 F3000.0 Y327.5175
G0 Z-10.0
G1 Y336.6925
G0 Z-11.9
G1 F120.0 Z-13.0
G1 F3000.0 Y377.5175
G0 Z-10.0
G1 Y386.6925
G0 Z-11.9
G1 F120.0 Z-13.0
G1 F3000.0 Y427.5175
G0 Z-10.0
G1 Y436.6925
G0 Z-11.9
G1 F120.0 Z-13.0
G1 F3000.0 Y477.5175
G0 Z-10.0
G1 Y486.6925
G0 Z-11.9
G1 F120.0 Z-13.0
G1 F3000.0 Y527.5175
G0 Z-10.0
G1 Y536.6925
G0 Z-11.9
G1 F120.0 Z-13.0
G1 F3000.0 Y573.0875
G3 X1181.1051 Y574.675 I-1.5875 J0.0
G1 X1176.6751
G0 Z-10.0
G1 X1167.5001
G0 Z-11.9
G1 F120.0 Z-13.0
G1 F3000.0 X1126.6751
G0 Z-10.0
G1 X1117.5001
G0 Z-11.9
G1 F120.0 Z-13.0
G1 F3000.0 X1076.6751
G0 Z-10.0
G1 X1067.5001
G0 Z-11.9
G1 F120.0 Z-13.0
G1 F3000.0 X1026.6751
G0 Z-10.0
G1 X1017.5001
G0 Z-11.9
G1 F120.0 Z-13.0
G1 F3000.0 X976.6751
G0 Z-10.0
G1 X967.5001
G0 Z-11.9
G1 F120.0 Z-13.0
G1 F3000.0 X926.6751
G0 Z-10.0
G1 X917.5001
G0 Z-11.9
G1 F120.0 Z-13.0
G1 F3000.0 X888.2101
G3 X886.6226 Y573.0875 I0.0 J-1.5875
G1 Y561.5525
G0 Z-10.0
G1 Y552.3775
G0 Z-11.9
G1 F120.0 Z-13.0
G1 F3000.0 Y511.5525
G0 Z-10.0
G1 Y502.3775
G0 Z-11.9
G1 F120.0 Z-13.0
G1 F3000.0 Y461.5525
G0 Z-10.0
G1 Y452.3775
G0 Z-11.9
G1 F120.0 Z-13.0
G1 F3000.0 Y411.5525
G0 Z-10.0
G1 Y402.3775
G0 Z-11.9
G1 F120.0 Z-13.0
G1 F3000.0 Y361.5525
G0 Z-10.0
G1 Y352.3775
G0 Z-11.9
G1 F120.0 Z-13.0
G1 F3000.0 Y311.5525
G0 Z-10.0
G1 Y302.3775
G0 Z-11.9
G1 F120.0 Z-13.0
G1 F3000.0 Y261.5525
G0 Z-10.0
G1 Y252.3775
G0 Z-11.9
G1 F120.0 Z-13.0
G1 F3000.0 Y211.5525
G0 Z-10.0
G1 Y202.3775
G0 Z-11.9
G1 F120.0 Z-13.0
G1 F3000.0 Y161.5525
G0 Z-10.0
G1 Y152.3775
G0 Z-11.9
G1 F120.0 Z-13.0
G1 F3000.0 Y111.5525
G0 Z-10.0
G1 Y102.3775
G0 Z-11.9
G1 F120.0 Z-13.0
G1 F3000.0 Y61.5525
G0 Z-10.0
G1 Y52.3775
G0 Z-11.9
G1 F120.0 Z-13.0
G1 F3000.0 Y11.5525
G0 Z-10.0
G1 Y2.3775
G0 Z-11.9
G1 F120.0 Z-13.0
G1 F3000.0 Y0.0
G3 X888.2101 Y-1.5875 I1.5875 J0.0
G1 F120.0 Z-14.0
G1 F3000.0 X908.6226
G0 Z-10.0
G1 X917.7976
G0 Z-12.9
G1 F120.0 Z-14.0
G1 F3000.0 X958.6226
G0 Z-10.0
G1 X967.7976
G0 Z-12.9
G1 F120.0 Z-14.0
G1 F3000.0 X1008.6226
G0 Z-10.0
G1 X1017.7976
G0 Z-12.9
G1 F120.0 Z-14.0
G1 F3000.0 X1058.6226
G0 Z-10.0
G1 X1067.7976
G0 Z-12.9
G1 F120.0 Z-14.0
G1 F3000.0 X1108.6226
G0 Z-10.0
G1 X1117.7976
G0 Z-12.9
G1 F120.0 Z-14.0
G1 F3000.0 X1158.6226
G0 Z-10.0
G1 X1167.7976
G0 Z-12.9
G1 F120.0 Z-14.0
G1 F3000.0 X1181.1051
G3 X1182.6926 Y0.0 I0.0 J1.5875
G1 Y27.5175
G0 Z-10.0
G1 Y36.6925
G0 Z-12.9
G1 F120.0 Z-14.0
G1 F3000.0 Y77.5175
G0 Z-10.0
G1 Y86.6925
G0 Z-12.9
G1 F120.0 Z-14.0
G1 F3000.0 Y127.5175
G0 Z-10.0
G1 Y136.6925
G0 Z-12.9
G1 F120.0 Z-14.0
G1 F3000.0 Y177.5175
G0 Z-10.0
G1 Y186.6925
G0 Z-12.9
G1 F120.0 Z-14.0
G1 F3000.0 Y227.5175
G0 Z-10.0
G1 Y236.6925
G0 Z-12.9
G1 F120.0 Z-14.0
G1 F3000.0 Y277.5175
G0 Z-10.0
G1 Y286.6925
G0 Z-12.9
G1 F120.0 Z-14.0
G1 F3000.0 Y327.5175
G0 Z-10.0
G1 Y336.6925
G0 Z-12.9
G1 F120.0 Z-14.0
G1 F3000.0 Y377.5175
G0 Z-10.0
G1 Y386.6925
G0 Z-12.9
G1 F120.0 Z-14.0
G1 F3000.0 Y427.5175
G0 Z-10.0
G1 Y436.6925
G0 Z-12.9
G1 F120.0 Z-14.0
G1 F3000.0 Y477.5175
G0 Z-10.0
G1 Y486.6925
G0 Z-12.9
G1 F120.0 Z-14.0
G1 F3000.0 Y527.5175
G0 Z-10.0
G1 Y536.6925
G0 Z-12.9
G1 F120.0 Z-14.0
G1 F3000.0 Y573.0875
G3 X1181.1051 Y574.675 I-1.5875 J0.0
G1 X1176.6751
G0 Z-10.0
G1 X1167.5001
G0 Z-12.9
G1 F120.0 Z-14.0
G1 F3000.0 X1126.6751
G0 Z-10.0
G1 X1117.5001
G0 Z-12.9
G1 F120.0 Z-14.0
G1 F3000.0 X1076.6751
G0 Z-10.0
G1 X1067.5001
G0 Z-12.9
G1 F120.0 Z-14.0
G1 F3000.0 X1026.6751
G0 Z-10.0
G1 X1017.5001
G0 Z-12.9
G1 F120.0 Z-14.0
G1 F3000.0 X976.6751
G0 Z-10.0
G1 X967.5001
G0 Z-12.9
G1 F120.0 Z-14.0
G1 F3000.0 X926.6751
G0 Z-10.0
G1 X917.5001
G0 Z-12.9
G1 F120.0 Z-14.0
G1 F3000.0 X888.2101
G3 X886.6226 Y573.0875 I0.0 J-1.5875
G1 Y561.5525
G0 Z-10.0
G1 Y552.3775
G0 Z-12.9
G1 F120.0 Z-14.0
G1 F3000.0 Y511.5525
G0 Z-10.0
G1 Y502.3775
G0 Z-12.9
G1 F120.0 Z-14.0
G1 F3000.0 Y461.5525
G0 Z-10.0
G1 Y452.3775
G0 Z-12.9
G1 F120.0 Z-14.0
G1 F3000.0 Y411.5525
G0 Z-10.0
G1 Y402.3775
G0 Z-12.9
G1 F120.0 Z-14.0
G1 F3000.0 Y361.5525
G0 Z-10.0
G1 Y352.3775
G0 Z-12.9
G1 F120.0 Z-14.0
G1 F3000.0 Y311.5525
G0 Z-10.0
G1 Y302.3775
G0 Z-12.9
G1 F120.0 Z-14.0
G1 F3000.0 Y261.5525
G0 Z-10.0
G1 Y252.3775
G0 Z-12.9
G1 F120.0 Z-14.0
G1 F3000.0 Y211.5525
G0 Z-10.0
G1 Y202.3775
G0 Z-12.9
G1 F120.0 Z-14.0
G1 F3000.0 Y161.5525
G0 Z-10.0
G1 Y152.3775
G0 Z-12.9
G1 F120.0 Z-14.0
G1 F3000.0 Y111.5525
G0 Z-10.0
G1 Y102.3775
G0 Z-12.9
G1 F120.0 Z-14.0
G1 F3000.0 Y61.5525
G0 Z-10.0
G1 Y52.3775
G0 Z-12.9
G1 F120.0 Z-14.0
G1 F3000.0 Y11.5525
G0 Z-10.0
G1 Y2.3775
G0 Z-12.9
G1 F120.0 Z-14.0
G1 F3000.0 Y0.0
G3 X888.2101 Y-1.5875 I1.5875 J0.0
G1 F120.0 Z-15.0
G1 F3000.0 X908.6226
G0 Z-10.0
G1 X917.7976
G0 Z-13.9
G1 F120.0 Z-15.0
G1 F3000.0 X958.6226
G0 Z-10.0
G1 X967.7976
G0 Z-13.9
G1 F120.0 Z-15.0
G1 F3000.0 X1008.6226
G0 Z-10.0
G1 X1017.7976
G0 Z-13.9
G1 F120.0 Z-15.0
G1 F3000.0 X1058.6226
G0 Z-10.0
G1 X1067.7976
G0 Z-13.9
G1 F120.0 Z-15.0
G1 F3000.0 X1108.6226
G0 Z-10.0
G1 X1117.7976
G0 Z-13.9
G1 F120.0 Z-15.0
G1 F3000.0 X1158.6226
G0 Z-10.0
G1 X1167.7976
G0 Z-13.9
G1 F120.0 Z-15.0
G1 F3000.0 X1181.1051
G3 X1182.6926 Y0.0 I0.0 J1.5875
G1 Y27.5175
G0 Z-10.0
G1 Y36.6925
G0 Z-13.9
G1 F120.0 Z-15.0
G1 F3000.0 Y77.5175
G0 Z-10.0
G1 Y86.6925
G0 Z-13.9
G1 F120.0 Z-15.0
G1 F3000.0 Y127.5175
G0 Z-10.0
G1 Y136.6925
G0 Z-13.9
G1 F120.0 Z-15.0
G1 F3000.0 Y177.5175
G0 Z-10.0
G1 Y186.6925
G0 Z-13.9
G1 F120.0 Z-15.0
G1 F3000.0 Y227.5175
G0 Z-10.0
G1 Y236.6925
G0 Z-13.9
G1 F120.0 Z-15.0
G1 F3000.0 Y277.5175
G0 Z-10.0
G1 Y286.6925
G0 Z-13.9
G1 F120.0 Z-15.0
G1 F3000.0 Y327.5175
G0 Z-10.0
G1 Y336.6925
G0 Z-13.9
G1 F120.0 Z-15.0
G1 F3000.0 Y377.5175
G0 Z-10.0
G1 Y386.6925
G0 Z-13.9
G1 F120.0 Z-15.0
G1 F3000.0 Y427.5175
G0 Z-10.0
G1 Y436.6925
G0 Z-13.9
G1 F120.0 Z-15.0
G1 F3000.0 Y477.5175
G0 Z-10.0
G1 Y486.6925
G0 Z-13.9
G1 F120.0 Z-15.0
G1 F3000.0 Y527.5175
G0 Z-10.0
G1 Y536.6925
G0 Z-13.9
G1 F120.0 Z-15.0
G1 F3000.0 Y573.0875
G3 X1181.1051 Y574.675 I-1.5875 J0.0
G1 X1176.6751
G0 Z-10.0
G1 X1167.5001
G0 Z-13.9
G1 F120.0 Z-15.0
G1 F3000.0 X1126.6751
G0 Z-10.0
G1 X1117.5001
G0 Z-13.9
G1 F120.0 Z-15.0
G1 F3000.0 X1076.6751
G0 Z-10.0
G1 X1067.5001
G0 Z-13.9
G1 F120.0 Z-15.0
G1 F3000.0 X1026.6751
G0 Z-10.0
G1 X1017.5001
G0 Z-13.9
G1 F120.0 Z-15.0
G1 F3000.0 X976.6751
G0 Z-10.0
G1 X967.5001
G0 Z-13.9
G1 F120.0 Z-15.0
G1 F3000.0 X926.6751
G0 Z-10.0
G1 X917.5001
G0 Z-13.9
G1 F120.0 Z-15.0
G1 F3000.0 X888.2101
G3 X886.6226 Y573.0875 I0.0 J-1.5875
G1 Y561.5525
G0 Z-10.0
G1 Y552.3775
G0 Z-13.9
G1 F120.0 Z-15.0
G1 F3000.0 Y511.5525
G0 Z-10.0
G1 Y502.3775
G0 Z-13.9
G1 F120.0 Z-15.0
G1 F3000.0 Y461.5525
G0 Z-10.0
G1 Y452.3775
G0 Z-13.9
G1 F120.0 Z-15.0
G1 F3000.0 Y411.5525
G0 Z-10.0
G1 Y402.3775
G0 Z-13.9
G1 F120.0 Z-15.0
G1 F3000.0 Y361.5525
G0 Z-10.0
G1 Y352.3775
G0 Z-13.9
G1 F120.0 Z-15.0
G1 F3000.0 Y311.5525
G0 Z-10.0
G1 Y302.3775
G0 Z-13.9
G1 F120.0 Z-15.0
G1 F3000.0 Y261.5525
G0 Z-10.0
G1 Y252.3775
G0 Z-13.9
G1 F120.0 Z-15.0
G1 F3000.0 Y211.5525
G0 Z-10.0
G1 Y202.3775
G0 Z-13.9
G1 F120.0 Z-15.0
G1 F3000.0 Y161.5525
G0 Z-10.0
G1 Y152.3775
G0 Z-13.9
G1 F120.0 Z-15.0
G1 F3000.0 Y111.5525
G0 Z-10.0
G1 Y102.3775
G0 Z-13.9
G1 F120.0 Z-15.0
G1 F3000.0 Y61.5525
G0 Z-10.0
G1 Y52.3775
G0 Z-13.9
G1 F120.0 Z-15.0
G1 F3000.0 Y11.5525
G0 Z-10.0
G1 Y2.3775
G0 Z-13.9
G1 F120.0 Z-15.0
G1 F3000.0 Y0.0
G3 X888.2101 Y-1.5875 I1.5875 J0.0
G1 F120.0 Z-16.0
G1 F3000.0 X908.6226
G0 Z-10.0
G1 X917.7976
G0 Z-14.9
G1 F120.0 Z-16.0
G1 F3000.0 X958.6226
G0 Z-10.0
G1 X967.7976
G0 Z-14.9
G1 F120.0 Z-16.0
G1 F3000.0 X1008.6226
G0 Z-10.0
G1 X1017.7976
G0 Z-14.9
G1 F120.0 Z-16.0
G1 F3000.0 X1058.6226
G0 Z-10.0
G1 X1067.7976
G0 Z-14.9
G1 F120.0 Z-16.0
G1 F3000.0 X1108.6226
G0 Z-10.0
G1 X1117.7976
G0 Z-14.9
G1 F120.0 Z-16.0
G1 F3000.0 X1158.6226
G0 Z-10.0
G1 X1167.7976
G0 Z-14.9
G1 F120.0 Z-16.0
G1 F3000.0 X1181.1051
G3 X1182.6926 Y0.0 I0.0 J1.5875
G1 Y27.5175
G0 Z-10.0
G1 Y36.6925
G0 Z-14.9
G1 F120.0 Z-16.0
G1 F3000.0 Y77.5175
G0 Z-10.0
G1 Y86.6925
G0 Z-14.9
G1 F120.0 Z-16.0
G1 F3000.0 Y127.5175
G0 Z-10.0
G1 Y136.6925
G0 Z-14.9
G1 F120.0 Z-16.0
G1 F3000.0 Y177.5175
G0 Z-10.0
G1 Y186.6925
G0 Z-14.9
G1 F120.0 Z-16.0
G1 F3000.0 Y227.5175
G0 Z-10.0
G1 Y236.6925
G0 Z-14.9
G1 F120.0 Z-16.0
G1 F3000.0 Y277.5175
G0 Z-10.0
G1 Y286.6925
G0 Z-14.9
G1 F120.0 Z-16.0
G1 F3000.0 Y327.5175
G0 Z-10.0
G1 Y336.6925
G0 Z-14.9
G1 F120.0 Z-16.0
G1 F3000.0 Y377.5175
G0 Z-10.0
G1 Y386.6925
G0 Z-14.9
G1 F120.0 Z-16.0
G1 F3000.0 Y427.5175
G0 Z-10.0
G1 Y436.6925
G0 Z-14.9
G1 F120.0 Z-16.0
G1 F3000.0 Y477.5175
G0 Z-10.0
G1 Y486.6925
G0 Z-14.9
G1 F120.0 Z-16.0
G1 F3000.0 Y527.5175
G0 Z-10.0
G1 Y536.6925
G0 Z-14.9
G1 F120.0 Z-16.0
G1 F3000.0 Y573.0875
G3 X1181.1051 Y574.675 I-1.5875 J0.0
G1 X1176.6751
G0 Z-10.0
G1 X1167.5001
G0 Z-14.9
G1 F120.0 Z-16.0
G1 F3000.0 X1126.6751
G0 Z-10.0
G1 X1117.5001
G0 Z-14.9
G1 F120.0 Z-16.0
G1 F3000.0 X1076.6751
G0 Z-10.0
G1 X1067.5001
G0 Z-14.9
G1 F120.0 Z-16.0
G1 F3000.0 X1026.6751
G0 Z-10.0
G1 X1017.5001
G0 Z-14.9
G1 F120.0 Z-16.0
G1 F3000.0 X976.6751
G0 Z-10.0
G1 X967.5001
G0 Z-14.9
G1 F120.0 Z-16.0
G1 F3000.0 X926.6751
G0 Z-10.0
G1 X917.5001
G0 Z-14.9
G1 F120.0 Z-16.0
G1 F3000.0 X888.2101
G3 X886.6226 Y573.0875 I0.0 J-1.5875
G1 Y561.5525
G0 Z-10.0
G1 Y552.3775
G0 Z-14.9
G1 F120.0 Z-16.0
G1 F3000.0 Y511.5525
G0 Z-10.0
G1 Y502.3775
G0 Z-14.9
G1 F120.0 Z-16.0
G1 F3000.0 Y461.5525
G0 Z-10.0
G1 Y452.3775
G0 Z-14.9
G1 F120.0 Z-16.0
G1 F3000.0 Y411.5525
G0 Z-10.0
G1 Y402.3775
G0 Z-14.9
G1 F120.0 Z-16.0
G1 F3000.0 Y361.5525
G0 Z-10.0
G1 Y352.3775
G0 Z-14.9
G1 F120.0 Z-16.0
G1 F3000.0 Y311.5525
G0 Z-10.0
G1 Y302.3775
G0 Z-14.9
G1 F120.0 Z-16.0
G1 F3000.0 Y261.5525
G0 Z-10.0
G1 Y252.3775
G0 Z-14.9
G1 F120.0 Z-16.0
G1 F3000.0 Y211.5525
G0 Z-10.0
G1 Y202.3775
G0 Z-14.9
G1 F120.0 Z-16.0
G1 F3000.0 Y161.5525
G0 Z-10.0
G1 Y152.3775
G0 Z-14.9
G1 F120.0 Z-16.0
G1 F3000.0 Y111.5525
G0 Z-10.0
G1 Y102.3775
G0 Z-14.9
G1 F120.0 Z-16.0
G1 F3000.0 Y61.5525
G0 Z-10.0
G1 Y52.3775
G0 Z-14.9
G1 F120.0 Z-16.0
G1 F3000.0 Y11.5525
G0 Z-10.0
G1 Y2.3775
G0 Z-14.9
G1 F120.0 Z-16.0
G1 F3000.0 Y0.0
G3 X888.2101 Y-1.5875 I1.5875 J0.0
G1 F120.0 Z-17.0
G1 F3000.0 X908.6226
G0 Z-10.0
G1 X917.7976
G0 Z-15.9
G1 F120.0 Z-17.0
G1 F3000.0 X958.6226
G0 Z-10.0
G1 X967.7976
G0 Z-15.9
G1 F120.0 Z-17.0
G1 F3000.0 X1008.6226
G0 Z-10.0
G1 X1017.7976
G0 Z-15.9
G1 F120.0 Z-17.0
G1 F3000.0 X1058.6226
G0 Z-10.0
G1 X1067.7976
G0 Z-15.9
G1 F120.0 Z-17.0
G1 F3000.0 X1108.6226
G0 Z-10.0
G1 X1117.7976
G0 Z-15.9
G1 F120.0 Z-17.0
G1 F3000.0 X1158.6226
G0 Z-10.0
G1 X1167.7976
G0 Z-15.9
G1 F120.0 Z-17.0
G1 F3000.0 X1181.1051
G3 X1182.6926 Y0.0 I0.0 J1.5875
G1 Y27.5175
G0 Z-10.0
G1 Y36.6925
G0 Z-15.9
G1 F120.0 Z-17.0
G1 F3000.0 Y77.5175
G0 Z-10.0
G1 Y86.6925
G0 Z-15.9
G1 F120.0 Z-17.0
G1 F3000.0 Y127.5175
G0 Z-10.0
G1 Y136.6925
G0 Z-15.9
G1 F120.0 Z-17.0
G1 F3000.0 Y177.5175
G0 Z-10.0
G1 Y186.6925
G0 Z-15.9
G1 F120.0 Z-17.0
G1 F3000.0 Y227.5175
G0 Z-10.0
G1 Y236.6925
G0 Z-15.9
G1 F120.0 Z-17.0
G1 F3000.0 Y277.5175
G0 Z-10.0
G1 Y286.6925
G0 Z-15.9
G1 F120.0 Z-17.0
G1 F3000.0 Y327.5175
G0 Z-10.0
G1 Y336.6925
G0 Z-15.9
G1 F120.0 Z-17.0
G1 F3000.0 Y377.5175
G0 Z-10.0
G1 Y386.6925
G0 Z-15.9
G1 F120.0 Z-17.0
G1 F3000.0 Y427.5175
G0 Z-10.0
G1 Y436.6925
G0 Z-15.9
G1 F120.0 Z-17.0
G1 F3000.0 Y477.5175
G0 Z-10.0
G1 Y486.6925
G0 Z-15.9
G1 F120.0 Z-17.0
G1 F3000.0 Y527.5175
G0 Z-10.0
G1 Y536.6925
G0 Z-15.9
G1 F120.0 Z-17.0
G1 F3000.0 Y573.0875
G3 X1181.1051 Y574.675 I-1.5875 J0.0
G1 X1176.6751
G0 Z-10.0
G1 X1167.5001
G0 Z-15.9
G1 F120.0 Z-17.0
G1 F3000.0 X1126.6751
G0 Z-10.0
G1 X1117.5001
G0 Z-15.9
G1 F120.0 Z-17.0
G1 F3000.0 X1076.6751
G0 Z-10.0
G1 X1067.5001
G0 Z-15.9
G1 F120.0 Z-17.0
G1 F3000.0 X1026.6751
G0 Z-10.0
G1 X1017.5001
G0 Z-15.9
G1 F120.0 Z-17.0
G1 F3000.0 X976.6751
G0 Z-10.0
G1 X967.5001
G0 Z-15.9
G1 F120.0 Z-17.0
G1 F3000.0 X926.6751
G0 Z-10.0
G1 X917.5001
G0 Z-15.9
G1 F120.0 Z-17.0
G1 F3000.0 X888.2101
G3 X886.6226 Y573.0875 I0.0 J-1.5875
G1 Y561.5525
G0 Z-10.0
G1 Y552.3775
G0 Z-15.9
G1 F120.0 Z-17.0
G1 F3000.0 Y511.5525
G0 Z-10.0
G1 Y502.3775
G0 Z-15.9
G1 F120.0 Z-17.0
G1 F3000.0 Y461.5525
G0 Z-10.0
G1 Y452.3775
G0 Z-15.9
G1 F120.0 Z-17.0
G1 F3000.0 Y411.5525
G0 Z-10.0
G1 Y402.3775
G0 Z-15.9
G1 F120.0 Z-17.0
G1 F3000.0 Y361.5525
G0 Z-10.0
G1 Y352.3775
G0 Z-15.9
G1 F120.0 Z-17.0
G1 F3000.0 Y311.5525
G0 Z-10.0
G1 Y302.3775
G0 Z-15.9
G1 F120.0 Z-17.0
G1 F3000.0 Y261.5525
G0 Z-10.0
G1 Y252.3775
G0 Z-15.9
G1 F120.0 Z-17.0
G1 F3000.0 Y211.5525
G0 Z-10.0
G1 Y202.3775
G0 Z-15.9
G1 F120.0 Z-17.0
G1 F3000.0 Y161.5525
G0 Z-10.0
G1 Y152.3775
G0 Z-15.9
G1 F120.0 Z-17.0
G1 F3000.0 Y111.5525
G0 Z-10.0
G1 Y102.3775
G0 Z-15.9
G1 F120.0 Z-17.0
G1 F3000.0 Y61.5525
G0 Z-10.0
G1 Y52.3775
G0 Z-15.9
G1 F120.0 Z-17.0
G1 F3000.0 Y11.5525
G0 Z-10.0
G1 Y2.3775
G0 Z-15.9
G1 F120.0 Z-17.0
G1 F3000.0 Y0.0
G3 X888.2101 Y-1.5875 I1.5875 J0.0
G1 F120.0 Z-18.0
G1 F3000.0 X908.6226
G0 Z-10.0
G1 X917.7976
G0 Z-16.9
G1 F120.0 Z-18.0
G1 F3000.0 X958.6226
G0 Z-10.0
G1 X967.7976
G0 Z-16.9
G1 F120.0 Z-18.0
G1 F3000.0 X1008.6226
G0 Z-10.0
G1 X1017.7976
G0 Z-16.9
G1 F120.0 Z-18.0
G1 F3000.0 X1058.6226
G0 Z-10.0
G1 X1067.7976
G0 Z-16.9
G1 F120.0 Z-18.0
G1 F3000.0 X1108.6226
G0 Z-10.0
G1 X1117.7976
G0 Z-16.9
G1 F120.0 Z-18.0
G1 F3000.0 X1158.6226
G0 Z-10.0
G1 X1167.7976
G0 Z-16.9
G1 F120.0 Z-18.0
G1 F3000.0 X1181.1051
G3 X1182.6926 Y0.0 I0.0 J1.5875
G1 Y27.5175
G0 Z-10.0
G1 Y36.6925
G0 Z-16.9
G1 F120.0 Z-18.0
G1 F3000.0 Y77.5175
G0 Z-10.0
G1 Y86.6925
G0 Z-16.9
G1 F120.0 Z-18.0
G1 F3000.0 Y127.5175
G0 Z-10.0
G1 Y136.6925
G0 Z-16.9
G1 F120.0 Z-18.0
G1 F3000.0 Y177.5175
G0 Z-10.0
G1 Y186.6925
G0 Z-16.9
G1 F120.0 Z-18.0
G1 F3000.0 Y227.5175
G0 Z-10.0
G1 Y236.6925
G0 Z-16.9
G1 F120.0 Z-18.0
G1 F3000.0 Y277.5175
G0 Z-10.0
G1 Y286.6925
G0 Z-16.9
G1 F120.0 Z-18.0
G1 F3000.0 Y327.5175
G0 Z-10.0
G1 Y336.6925
G0 Z-16.9
G1 F120.0 Z-18.0
G1 F3000.0 Y377.5175
G0 Z-10.0
G1 Y386.6925
G0 Z-16.9
G1 F120.0 Z-18.0
G1 F3000.0 Y427.5175
G0 Z-10.0
G1 Y436.6925
G0 Z-16.9
G1 F120.0 Z-18.0
G1 F3000.0 Y477.5175
G0 Z-10.0
G1 Y486.6925
G0 Z-16.9
G1 F120.0 Z-18.0
G1 F3000.0 Y527.5175
G0 Z-10.0
G1 Y536.6925
G0 Z-16.9
G1 F120.0 Z-18.0
G1 F3000.0 Y573.0875
G3 X1181.1051 Y574.675 I-1.5875 J0.0
G1 X1176.6751
G0 Z-10.0
G1 X1167.5001
G0 Z-16.9
G1 F120.0 Z-18.0
G1 F3000.0 X1126.6751
G0 Z-10.0
G1 X1117.5001
G0 Z-16.9
G1 F120.0 Z-18.0
G1 F3000.0 X1076.6751
G0 Z-10.0
G1 X1067.5001
G0 Z-16.9
G1 F120.0 Z-18.0
G1 F3000.0 X1026.6751
G0 Z-10.0
G1 X1017.5001
G0 Z-16.9
G1 F120.0 Z-18.0
G1 F3000.0 X976.6751
G0 Z-10.0
G1 X967.5001
G0 Z-16.9
G1 F120.0 Z-18.0
G1 F3000.0 X926.6751
G0 Z-10.0
G1 X917.5001
G0 Z-16.9
G1 F120.0 Z-18.0
G1 F3000.0 X888.2101
G3 X886.6226 Y573.0875 I0.0 J-1.5875
G1 Y561.5525
G0 Z-10.0
G1 Y552.3775
G0 Z-16.9
G1 F120.0 Z-18.0
G1 F3000.0 Y511.5525
G0 Z-10.0
G1 Y502.3775
G0 Z-16.9
G1 F120.0 Z-18.0
G1 F3000.0 Y461.5525
G0 Z-10.0
G1 Y452.3775
G0 Z-16.9
G1 F120.0 Z-18.0
G1 F3000.0 Y411.5525
G0 Z-10.0
G1 Y402.3775
G0 Z-16.9
G1 F120.0 Z-18.0
G1 F3000.0 Y361.5525
G0 Z-10.0
G1 Y352.3775
G0 Z-16.9
G1 F120.0 Z-18.0
G1 F3000.0 Y311.5525
G0 Z-10.0
G1 Y302.3775
G0 Z-16.9
G1 F120.0 Z-18.0
G1 F3000.0 Y261.5525
G0 Z-10.0
G1 Y252.3775
G0 Z-16.9
G1 F120.0 Z-18.0
G1 F3000.0 Y211.5525
G0 Z-10.0
G1 Y202.3775
G0 Z-16.9
G1 F120.0 Z-18.0
G1 F3000.0 Y161.5525
G0 Z-10.0
G1 Y152.3775
G0 Z-16.9
G1 F120.0 Z-18.0
G1 F3000.0 Y111.5525
G0 Z-10.0
G1 Y102.3775
G0 Z-16.9
G1 F120.0 Z-18.0
G1 F3000.0 Y61.5525
G0 Z-10.0
G1 Y52.3775
G0 Z-16.9
G1 F120.0 Z-18.0
G1 F3000.0 Y11.5525
G0 Z-10.0
G1 Y2.3775
G0 Z-16.9
G1 F120.0 Z-18.0
G1 F3000.0 Y0.0
G3 X888.2101 Y-1.5875 I1.5875 J0.0
G0 Z25.0
M5
M30
